!!!!SEGMENT: pl-cz--ii-149_lessel-franciszek--ave-regina.krn
!!!cenid: 18xx:281
!!!COM: Lessel, Franciszek
!!!COM-rismid: pe30004332
!!!CDT: 1780-1838/12/26
!!!CNT: Polish
!!!OTL: Ave Regina
!!!PDT:
!!!AGN: Sacred
!!!SMS-siglum: PL-CZ
!!!SMS-shelfmark: II-149
!!!SMS-shelfwork: W
!!!NIFC-rismid:
!!!URL-scan: http://repozytorium.nifc.pl/skany/pl-cz-nut--ii-149
!!!ONB-nifc:
!!!key:
**kern	**kern	**dynam	**kern	**dynam	**kern	**dynam	**kern	**dynam	**kern	**dynam	**kern	**text	**dynam	**kern	**text	**dynam	**kern	**text	**dynam	**kern	**dynam	**kern	**dynam	**kern	**dynam	**kern	**dynam	**kern	**dynam
*part13	*part13	*part13	*part12	*part12	*part11	*part11	*part10	*part10	*part9	*part9	*part8	*part8	*part8	*part7	*part7	*part7	*part6	*part6	*part6	*part5	*part5	*part4	*part4	*part3	*part3	*part2	*part2	*part1	*part1
*staff14	*staff13	*	*staff12	*	*staff11	*	*staff10	*	*staff9	*	*staff8	*staff8	*	*staff7	*staff7	*	*staff6	*staff6	*	*staff5	*	*staff4	*	*staff3	*	*staff2	*	*staff1	*
*Iorgan	*Iempty	*	*Ibass	*	*Ialto	*	*Ivioln	*	*Ivioln	*	*Ibass	*	*	*Itenor	*	*	*Isoprn	*	*	*Icor	*	*Icor	*	*Iclars	*	*Iclars	*	*Iflt	*
*I"Organo	*	*	*I"Basso.	*	*I"Alto.	*	*I"Violino 2.do	*	*I"Violino 1.mo	*	*I"Basso.	*	*	*I"Tenore.	*	*	*I"Soprano.	*	*	*I"Corno. 2do in F.	*	*I"Corno 1.o in F.	*	*I"Clarinetto 2do in C	*	*I"Clarinetto 1.o in C.	*	*I"Flauto.	*
*I'Org.	*	*	*I'V-c.	*	*I'V-la	*	*I'V-no	*	*I'Vln. I	*	*I'B.	*	*	*I'T.	*	*	*I'S.	*	*	*I'Hn.	*	*I'Hn.	*	*I'Cl.	*	*I'Cl.	*	*I'Fl.	*
*clefF4	*clefG2	*	*clefF4	*	*clefC3	*	*clefG2	*	*clefG2	*	*clefF4	*	*	*clefC4	*	*	*clefC1	*	*	*clefG2	*	*clefG2	*	*clefG2	*	*clefG2	*	*clefG2	*
*	*	*	*	*	*	*	*	*	*	*	*	*	*	*	*	*	*	*	*	*ITrd4c7	*	*ITrd4c7	*	*	*	*	*	*	*
*k[b-]	*k[b-]	*	*k[b-]	*	*k[b-]	*	*k[b-]	*	*k[b-]	*	*k[b-]	*	*	*k[b-]	*	*	*k[b-]	*	*	*k[b-]	*	*k[b-]	*	*k[b-]	*	*k[b-]	*	*k[b-]	*
*F:	*F:	*	*F:	*	*F:	*	*F:	*	*F:	*	*F:	*	*	*	*	*	*F:	*	*	*	*	*	*	*F:	*	*F:	*	*F:	*
*M3/4	*M3/4	*	*M3/4	*	*M3/4	*	*M3/4	*	*M3/4	*	*M3/4	*	*	*M3/4	*	*	*M3/4	*	*	*M3/4	*	*M3/4	*	*M3/4	*	*M3/4	*	*M3/4	*
*	*	*below	*	*	*	*	*	*	*	*below	*	*	*	*	*	*	*	*	*	*	*	*	*	*	*	*	*	*	*
=1	=1	=1	=1	=1	=1	=1	=1	=1	=1	=1	=1	=1	=1	=1	=1	=1	=1	=1	=1	=1	=1	=1	=1	=1	=1	=1	=1	=1	=1
*2\right	*2\right	*	*2\right	*	*2\right	*	*2\right	*	*2\right	*	*2\right	*	*	*2\right	*	*	*2\right	*	*	*2\right	*	*2\right	*	*2\right	*	*2\right	*	*2\right	*
!	!	!	!	!	!	!	!	!	!	!	!	!	!	!	!	!	!	!	!	!	!	!	!	!	!	!	!	!LO:TX:a:t=Andante	!
!	!LO:TX:a:t=Andante	!	!LO:TX:a:t=Andante.	!	!LO:TX:a:t=Andante	!	!LO:TX:a:t=Andante	!	!LO:TX:a:t=Andante	!	!LO:TX:a:t=Andante	!	!	!LO:TX:a:t=Andante	!	!	!LO:TX:a:t=Andante	!	!	!LO:TX:a:t=Andante	!	!LO:TX:a:t=Andante	!	!LO:TX:a:t=Andante	!	!LO:TX:a:t=Andante	!	!LO:SIC:v=pauzy 0r 1r adnotacja "3"	!
!	!LO:SIC:v= wszystkie półnuty w partii organów mają laski z prawej strony	!	!LO:SIC:v= wszystkie półnuty w partii organów mają laski z prawej strony	!	!LO:SIC:v= wszystkie półnuty maja laski z prawej strony	!	!	!	!	!	!LO:SIC:v=pauzy 0r 1r adnotacja "3"	!	!	!LO:SIC:v=pauzy 0r 1r adnotacja "3"	!	!	!LO:SIC:v=pauzy 0r 1r adnotacja "3"	!	!	!LO:SIC:v=pauzy 0r adnotacja "2"	!	!LO:SIC:v=pauzy 0r adnotacja "2"	!	!LO:SIC:v=pauzy 0r 1r adnotacja "3"	!	!LO:SIC:v=pauzy 0r 1r adnotacja "3"	!	!	!
!	!	!	!	!	!	!	!	!	!	!	!LO:N:vis=0	!	!	!LO:N:vis=0	!	!	!LO:N:vis=0	!	!	!LO:N:vis=0	!	!LO:N:vis=0	!	!LO:N:vis=0	!	!LO:N:vis=0	!	!LO:N:vis=0	!
2.F\	2.r	.	2.F\	p	2.c\	p	(2.a/	p	8r	.	1.r	.	.	1.r	.	.	1.r	.	.	1.r	.	1.r	.	1.r	.	1.r	.	1.r	.
.	.	.	.	.	.	.	.	.	(8ff\L	p	.	.	.	.	.	.	.	.	.	.	.	.	.	.	.	.	.	.	.
.	.	.	.	.	.	.	.	.	8aa\	.	.	.	.	.	.	.	.	.	.	.	.	.	.	.	.	.	.	.	.
!	!	!	!	!	!	!	!	!	!	!	!LO:TX:a:t=3	!	!	!LO:TX:a:t=3	!	!	!LO:TX:a:t=3	!	!	!LO:TX:a:t=2	!	!LO:TX:a:t=2	!	!LO:TX:a:t=3	!	!LO:TX:a:t=3	!	!LO:TX:a:t=3	!
.	.	.	.	.	.	.	.	.	8gg\	.	.	.	.	.	.	.	.	.	.	.	.	.	.	.	.	.	.	.	.
.	.	.	.	.	.	.	.	.	8ff\	.	.	.	.	.	.	.	.	.	.	.	.	.	.	.	.	.	.	.	.
.	.	.	.	.	.	.	.	.	8ee\J)	.	.	.	.	.	.	.	.	.	.	.	.	.	.	.	.	.	.	.	.
=2	=2	=2	=2	=2	=2	=2	=2	=2	=2	=2	=2	=2	=2	=2	=2	=2	=2	=2	=2	=2	=2	=2	=2	=2	=2	=2	=2	=2	=2
!	!LO:TX:a:t=Flet major.	!	!	!	!	!	!	!	!	!	!	!	!	!	!	!	!	!	!	!	!	!	!	!	!	!	!	!	!
2.B-\	2.r	.	2.B-\	.	2d\	.	8b-/L)	.	4dd\	.	.	.	.	.	.	.	.	.	.	.	.	.	.	.	.	.	.	.	.
.	.	.	.	.	.	.	8f#X/J	.	.	.	.	.	.	.	.	.	.	.	.	.	.	.	.	.	.	.	.	.	.
.	.	.	.	.	.	.	4g/	.	(8cc\L	.	.	.	.	.	.	.	.	.	.	.	.	.	.	.	.	.	.	.	.
.	.	.	.	.	.	.	.	.	8b-\	.	.	.	.	.	.	.	.	.	.	.	.	.	.	.	.	.	.	.	.
.	.	.	.	.	[4c\	<	4e/	.	8a\	.	.	.	.	.	.	.	.	.	.	.	.	.	p	.	.	.	.	.	.
.	.	.	.	.	.	.	.	.	8g\J)	.	.	.	.	.	.	.	.	.	.	.	.	.	.	.	.	.	.	.	.
=3	=3	=3	=3	=3	=3	=3	=3	=3	=3	=3	=3	=3	=3	=3	=3	=3	=3	=3	=3	=3	=3	=3	=3	=3	=3	=3	=3	=3	=3
(4A\	(4f/	.	4A\	<	4c\]	.	8fn/L	.	(4f/	<	2.r	.	.	2.r	.	.	2.r	.	.	(4A/	p <	(4f\	<	2.r	.	2.r	.	2.r	.
.	.	.	.	.	.	.	(8c/J	.	.	.	.	.	.	.	.	.	.	.	.	.	.	.	.	.	.	.	.	.	.
!	!	!	!	!	!	!	!	!LO:HP:a	!	!	!	!	!	!	!	!	!	!	!	!	!	!	!	!	!	!	!	!	!
4G\	4e/ 4g/	.	4G\	.	(4B-/	[	8e/L	<	4g/	.	.	.	.	.	.	.	.	.	.	4c/	.	4g\	.	.	.	.	.	.	.
.	.	.	.	.	.	.	8c/J	.	.	.	.	.	.	.	.	.	.	.	.	.	.	.	.	.	.	.	.	.	.
4F\)	4f/) 4a/	.	4F\	[[	4A/)	.	8f/L)	.	4a/)	[[	.	.	.	.	.	.	.	.	.	4f\)	[[	4a\)	[[	.	.	.	.	.	.
.	.	.	.	.	.	.	8c/J	[	.	.	.	.	.	.	.	.	.	.	.	.	.	.	.	.	.	.	.	.	.
=4	=4	=4	=4	=4	=4	=4	=4	=4	=4	=4	=4	=4	=4	=4	=4	=4	=4	=4	=4	=4	=4	=4	=4	=4	=4	=4	=4	=4	=4
!	!	!	!LO:SIC:v=f jako fo	!	!LO:SIC:v=f jako fo	!	!LO:SIC:v=f zapisane jako fo	!	!LO:SIC:v=f zapisane jako fo	!	!	!	!	!	!	!	!	!LO:SIC:v=f jako fo	!	!LO:SIC:v=f jako fo	!	!	!	!	!	!	!	!	!
4c\	4e/ 4g/	.	4c'\	f	4G'/	f	4e'/	f	4g/	f	2.r;	.	.	2.r;	.	.	2.r;	.	.	4c'/	f	4g'\	f	2.r;	.	2.r;	.	2.r;	.
8C\ 8c\	8e'/ 8g/ 8cc/	.	4C'/	.	4C;/ 4c/	.	4G'/ 4e/	.	4G`/ 4e/ 4cc/	.	.	.	.	.	.	.	.	.	.	4C'/	.	4c'/	.	.	.	.	.	.	.
8r	8r	.	.	.	.	.	.	.	.	.	.	.	.	.	.	.	.	.	.	.	.	.	.	.	.	.	.	.	.
4r;	4r;	.	4r;	.	4r	.	4r;	.	4r;	.	.	.	.	.	.	.	.	.	.	4r;	.	4r;	.	.	.	.	.	.	.
=5	=5	=5	=5	=5	=5	=5	=5	=5	=5	=5	=5	=5	=5	=5	=5	=5	=5	=5	=5	=5	=5	=5	=5	=5	=5	=5	=5	=5	=5
!	!	!	!LO:SIC:v=pauzy 00r 0r adnotacja "6"	!	!LO:TX:a:t="1"	!LO:PB:g=original	!	!	!	!	!LO:SIC:v=pauzy 00r 0r adnotacja "6"	!	!	!LO:SIC:v=pauzy 00r 00r 00r adnotacja "12"	!	!	!	!	!	!LO:TX:a:t="19"	!	!LO:TX:a:t="19"	!	!LO:SIC:v=pauzy 00r 00r 00r adnotacja "12."	!	!LO:SIC:v=pauzy 00r 00r 00r 0r adnotacja "14."	!	!LO:TX:a:t="20"	!
!	!	!	!LO:N:vis=00	!	!	!	!	!	!	!	!LO:N:vis=00	!	!	!LO:N:vis=00	!	!	!LO:TX:a:i:t=Solo.	!	!	!	!	!	!	!LO:N:vis=00	!	!LO:N:vis=00	!	!	!
2.r	(2.f/	.	0.r	.	2.r	.	8r	p	2.f/	p	0.r	.	.	0.r	.	.	2.f/	A-	.	2.r	.	2.r	.	0.r	.	0.r	.	2.r	.
.	.	.	.	.	.	.	8c/	.	.	.	.	.	.	.	.	.	.	.	.	.	.	.	.	.	.	.	.	.	.
.	.	.	.	.	.	.	(8a/L	.	.	.	.	.	.	.	.	.	.	.	.	.	.	.	.	.	.	.	.	.	.
!	!	!	!LO:TX:a:t=6	!	!	!	!	!	!	!	!LO:TX:a:t=6	!	!	!LO:TX:a:t=12	!	!	!LO:TX:a:t=12	!	!	!	!	!	!	!LO:TX:a:t=12	!	!LO:TX:a:t=14.	!	!	!
.	.	.	.	.	.	.	8g/	.	.	.	.	.	.	.	.	.	.	.	.	.	.	.	.	.	.	.	.	.	.
.	.	.	.	.	.	.	8f/	.	.	.	.	.	.	.	.	.	.	.	.	.	.	.	.	.	.	.	.	.	.
.	.	.	.	.	.	.	8e/J)	.	.	.	.	.	.	.	.	.	.	.	.	.	.	.	.	.	.	.	.	.	.
=6	=6	=6	=6	=6	=6	=6	=6	=6	=6	=6	=6	=6	=6	=6	=6	=6	=6	=6	=6	=6	=6	=6	=6	=6	=6	=6	=6	=6	=6
!	!	!	!	!	!	!	!	!	!LO:PB:g=original	!	!	!	!	!	!	!	!	!	!	!	!	!	!	!	!	!	!	!	!
!	!	!	!	!	!	!	!	!	!LO:SIC:v= wszystkie półnuty maja laski z prawej strony	!	!	!	!	!	!	!	!LO:SIC:v= wszystkie półnuty maja laski z prawej strony	!	!	!	!	!	!	!	!	!	!	!	!
2.r	2.d/ 2.b-/	.	.	.	8r	.	[2.d/	.	2.b-\	.	.	.	.	.	.	.	2.b-\	.	.	2.r	.	2.r	.	.	.	.	.	2.r	.
.	.	.	.	.	(8G/L	p	.	.	.	.	.	.	.	.	.	.	.	.	.	.	.	.	.	.	.	.	.	.	.
.	.	.	.	.	8B-/	.	.	.	.	.	.	.	.	.	.	.	.	.	.	.	.	.	.	.	.	.	.	.	.
.	.	.	.	.	8d/J	.	.	.	.	.	.	.	.	.	.	.	.	.	.	.	.	.	.	.	.	.	.	.	.
.	.	.	.	.	8g\L	.	.	.	.	.	.	.	.	.	.	.	.	.	.	.	.	.	.	.	.	.	.	.	.
.	.	.	.	.	8f\J)	.	.	.	.	.	.	.	.	.	.	.	.	.	.	.	.	.	.	.	.	.	.	.	.
=7	=7	=7	=7	=7	=7	=7	=7	=7	=7	=7	=7	=7	=7	=7	=7	=7	=7	=7	=7	=7	=7	=7	=7	=7	=7	=7	=7	=7	=7
!	!	!	!	!	!LO:PB:g=original	!	!	!	!	!	!	!	!	!	!	!	!	!	!	!	!	!	!	!	!	!	!	!	!
2.r	2.e/ 2.g/	.	.	.	[2.e\	.	8d/L]	.	2.g/	.	.	.	.	.	.	.	2.g\	.	.	2.r	.	2.r	.	.	.	.	.	2.r	.
.	.	.	.	.	.	.	8Bn/J	.	.	.	.	.	.	.	.	.	.	.	.	.	.	.	.	.	.	.	.	.	.
!	!	!	!	!	!	!	!LO:SIC:v=mixed beam	!	!	!	!	!	!	!	!	!	!	!	!	!	!	!	!	!	!	!	!	!	!
.	.	.	.	.	.	.	8c/L	.	.	.	.	.	.	.	.	.	.	.	.	.	.	.	.	.	.	.	.	.	.
.	.	.	.	.	.	.	(8cc\	.	.	.	.	.	.	.	.	.	.	.	.	.	.	.	.	.	.	.	.	.	.
.	.	.	.	.	.	.	8bn\	.	.	.	.	.	.	.	.	.	.	.	.	.	.	.	.	.	.	.	.	.	.
.	.	.	.	.	.	.	8b-X\J)	.	.	.	.	.	.	.	.	.	.	.	.	.	.	.	.	.	.	.	.	.	.
!	!	!	!	!	!	!	!	!	!	!	!	!	!	!	!	!	! 1	!	!	! 1	!	! 1	!	!	!	!	!	!	!
=8	=8	=8	=8	=8	=8	=8	=8	=8	=8	=8	=8	=8	=8	=8	=8	=8	=8	=8	=8	=8	=8	=8	=8	=8	=8	=8	=8	=8	=8
!	!	!	!	!	!	!	!	!	!	!	!	!	!	!	!	!	!	!	!	!	!	!	!	!	!	!	!	!	!
2.r	4f/) 4a/	.	.	.	8e\L]	.	2.a/	.	2.f/	.	.	.	.	.	.	.	4a\	-ve	.	2.r	.	2.r	.	.	.	.	.	2.r	.
.	.	.	.	.	8f\J	.	.	.	.	.	.	.	.	.	.	.	.	.	.	.	.	.	.	.	.	.	.	.	.
.	4r	.	.	.	(8Bn\L	.	.	.	.	.	.	.	.	.	.	.	4r	.	.	.	.	.	.	.	.	.	.	.	.
.	.	.	.	.	8c\J)	.	.	.	.	.	.	.	.	.	.	.	.	.	.	.	.	.	.	.	.	.	.	.	.
!	!	!	!	!	!LO:SIC:v=mixed beam	!	!	!	!	!	!	!	!	!	!	!	!	!	!	!	!	!	!	!	!	!	!	!	!
.	4a\ 4cc\	.	.	.	8F/L	.	.	.	.	.	.	.	.	.	.	.	4f/	Re-	.	.	.	.	.	.	.	.	.	.	.
.	.	.	.	.	8f\J	.	.	.	.	.	.	.	.	.	.	.	.	.	.	.	.	.	.	.	.	.	.	.	.
=9	=9	=9	=9	=9	=9	=9	=9	=9	=9	=9	=9	=9	=9	=9	=9	=9	=9	=9	=9	=9	=9	=9	=9	=9	=9	=9	=9	=9	=9
!LO:PB:g=original	!	!	!	!	!	!	!	!	!	!	!	!	!	!	!	!	!	!	!	!	!	!	!	!	!	!	!	!	!
*	*^	*	*	*	*	*	*	*	*	*	*	*	*	*	*	*	*	*	*	*	*	*	*	*	*	*	*	*	*
!	!	!	!	!LO:N:vis=0	!	!	!	!	!	!	!	!LO:N:vis=0	!	!	!	!	!	!	!	!	!	!	!	!	!LO:N:vis=00	!	!LO:N:vis=00	!	!	!
2B-\	4dd/	8a\L	.	1.r	.	2B-X\	.	(8a/L	.	8dd^<\	.	1.r	.	.	0.r	.	.	2.dd\	-gi-	.	2.r	.	2.r	.	0.r	.	0.r	.	2.r	.
.	.	8b-\J	.	.	.	.	.	8b-/J	.	4dd\	.	.	.	.	.	.	.	.	.	.	.	.	.	.	.	.	.	.	.	.
.	4dd/	4b-\	.	.	.	.	.	8d/L)	.	.	.	.	.	.	.	.	.	.	.	.	.	.	.	.	.	.	.	.	.	.
.	.	.	.	.	.	.	.	8e'/	.	4dd\	.	.	.	.	.	.	.	.	.	.	.	.	.	.	.	.	.	.	.	.
4e\	4r	4ryy	.	.	.	4e\	.	8f#X'/	.	.	.	.	.	.	.	.	.	.	.	.	.	.	.	.	.	.	.	.	.	.
.	.	.	.	.	.	.	.	8g'/J	.	8dd\	.	.	.	.	.	.	.	.	.	.	.	.	.	.	.	.	.	.	.	.
=10	=10	=10	=10	=10	=10	=10	=10	=10	=10	=10	=10	=10	=10	=10	=10	=10	=10	=10	=10	=10	=10	=10	=10	=10	=10	=10	=10	=10	=10	=10
!	!	!	!	!	!	!	!	!	!	!	!	!	!	!	!	!	!	!LO:PB:g=original	!	!	!	!	!	!	!	!	!	!	!	!
2A\	4cc/	8g#X\L	.	.	.	2A/	.	(8g#X/L	.	8cc\	.	.	.	.	.	.	.	2cc\	-na	.	2.r	.	2.r	.	.	.	.	.	2.r	.
.	.	8a\J	.	.	.	.	.	8a/J	.	4cc\	.	.	.	.	.	.	.	.	.	.	.	.	.	.	.	.	.	.	.	.
.	4cc/	4a\	.	.	.	.	.	8c/L)	.	.	.	.	.	.	.	.	.	.	.	.	.	.	.	.	.	.	.	.	.	.
.	.	.	.	.	.	.	.	8d'/	.	4cc\	.	.	.	.	.	.	.	.	.	.	.	.	.	.	.	.	.	.	.	.
4d\	4r	4ryy	.	.	.	4d\	.	8e'/	.	.	.	.	.	.	.	.	.	4cc\	coe-	.	.	.	.	.	.	.	.	.	.	.
.	.	.	.	.	.	.	.	8fn/J	.	8cc\	.	.	.	.	.	.	.	.	.	.	.	.	.	.	.	.	.	.	.	.
=11	=11	=11	=11	=11	=11	=11	=11	=11	=11	=11	=11	=11	=11	=11	=11	=11	=11	=11	=11	=11	=11	=11	=11	=11	=11	=11	=11	=11	=11	=11
!	!	!	!	!	!	!	!	!	!	!	!	!LO:TX:a:i:t=Solo	!	!	!	!	!	!	!	!	!	!	!	!	!	!	!	!	!	!
2.C\ [2.c\	4b-/	8f#X\L	.	2.C\	p	2G/	.	(8f#X/L	.	8b-\	.	2.C/	A-	.	.	.	.	2.b-\	-lo-	.	2.r	.	2.r	.	.	.	.	.	2.r	.
.	.	8g\J	.	.	.	.	.	8g/J	.	4b-\	.	.	.	.	.	.	.	.	.	.	.	.	.	.	.	.	.	.	.	.
.	[2b-/	4g\	.	.	.	.	.	8B-/L)	.	.	.	.	.	.	.	.	.	.	.	.	.	.	.	.	.	.	.	.	.	.
.	.	.	.	.	.	.	.	8c'/	.	4b-\	.	.	.	.	.	.	.	.	.	.	.	.	.	.	.	.	.	.	.	.
.	.	8d\L	.	.	.	[4c\	.	8d'/	.	.	.	.	.	.	.	.	.	.	.	.	.	.	.	.	.	.	.	.	.	.
.	.	8e\J	.	.	.	.	.	8e'/J	.	8b-\	.	.	.	.	.	.	.	.	.	.	.	.	.	.	.	.	.	.	.	.
=12	=12	=12	=12	=12	=12	=12	=12	=12	=12	=12	=12	=12	=12	=12	=12	=12	=12	=12	=12	=12	=12	=12	=12	=12	=12	=12	=12	=12	=12	=12
!	!	!	!	!LO:PB:g=original	!	!	!	!	!	!	!	!LO:SIC:v= wszystkie półnuty maja laski z prawej strony	!	!	!	!	!	!	!	!	!	!	!	!	!	!	!	!	!	!
2.F\ 2.c\]	8b-/L]	4f\	.	2.F\	.	4c\]	.	4fn/	.	(8b-\L	.	2.F\	.	.	.	.	.	4a\	-rum	.	2.r	.	2.r	.	.	.	.	.	2.r	.
.	8a/J	.	.	.	.	.	.	.	.	8a/J)	.	.	.	.	.	.	.	.	.	.	.	.	.	.	.	.	.	.	.	.
.	(8dd\L	4ryy	.	.	.	4A/	.	4r	.	(8dd\L	.	.	.	.	.	.	.	4r	.	.	.	.	.	.	.	.	.	.	.	.
.	8cc\J)	.	.	.	.	.	.	.	.	8cc\J)	.	.	.	.	.	.	.	.	.	.	.	.	.	.	.	.	.	.	.	.
.	(8g#X/L	4ryy	.	.	.	4c\	.	4r	.	(8g#X/L	.	.	.	.	.	.	.	4r	.	.	.	.	.	.	.	.	.	.	.	.
.	8a/J)	.	.	.	.	.	.	.	.	8a/J)	.	.	.	.	.	.	.	.	.	.	.	.	.	.	.	.	.	.	.	.
=13	=13	=13	=13	=13	=13	=13	=13	=13	=13	=13	=13	=13	=13	=13	=13	=13	=13	=13	=13	=13	=13	=13	=13	=13	=13	=13	=13	=13	=13	=13
!	!	!	!	!	!	!	!	!LO:PB:g=original	!	!	!	!	!	!	!	!	!	!LO:SIC:v=pauzy 00r 00r 0r 1r adnotacja "11."	!	!	!	!	!	!	!	!	!	!	!	!
*	*	*2\right	*	*	*	*	*	*	*	*	*	*	*	*	*	*	*	*	*	*	*	*	*	*	*	*	*	*	*	*
!	!	!	!	!	!	!	!	!	!	!	!	!	!	!	!	!	!	!LO:N:vis=00	!	!	!	!	!	!	!LO:N:vis=00	!	!LO:N:vis=00	!	!	!
2.D\ 2.d\	4r	2.f\	.	2.D\	.	2.f\	.	8r	.	8f/	.	2.D\	.	.	0.r	.	.	0.r	.	.	2.r	.	2.r	.	0.r	.	0.r	.	2.r	.
.	.	.	.	.	.	.	.	8a'\L	.	8r	.	.	.	.	.	.	.	.	.	.	.	.	.	.	.	.	.	.	.	.
!	!LO:SIC:v= nieprezycyjne polozenie łuku	!	!	!	!	!	!	!	!	!	!	!	!	!	!	!	!	!	!	!	!	!	!	!	!	!	!	!	!	!
.	(<4a/	.	.	.	.	.	.	(8gg^<\	.	(4a\	.	.	.	.	.	.	.	.	.	.	.	.	.	.	.	.	.	.	.	.
.	.	.	.	.	.	.	.	8ff\J)	.	.	.	.	.	.	.	.	.	.	.	.	.	.	.	.	.	.	.	.	.	.
.	4bn/)	.	.	.	.	.	.	(8ee\L	.	4bn\)	.	.	.	.	.	.	.	.	.	.	.	.	.	.	.	.	.	.	.	.
.	.	.	.	.	.	.	.	8dd\J)	.	.	.	.	.	.	.	.	.	.	.	.	.	.	.	.	.	.	.	.	.	.
=14	=14	=14	=14	=14	=14	=14	=14	=14	=14	=14	=14	=14	=14	=14	=14	=14	=14	=14	=14	=14	=14	=14	=14	=14	=14	=14	=14	=14	=14	=14
!	!	!	!	!	!	!	!	!	!	!	!LO:PB:g=original	!	!	!	!	!	!	!	!	!	!	!	!	!	!	!	!	!	!	!
*^	*	*	*	*	*	*	*	*	*	*	*	*	*	*	*	*	*	*	*	*	*	*	*	*	*	*	*	*	*	*
4c\	4E\	4cc/	4g\	.	4E\	.	2e\	.	4cc\	.	8cc\	.	4E\	-ve	.	.	.	.	.	.	.	2.r	.	2.r	.	.	.	.	.	2.r	.
.	.	.	.	.	.	.	.	.	.	.	8ff#X'\L	.	.	.	.	.	.	.	.	.	.	.	.	.	.	.	.	.	.	.	.
*	*	*v	*v	*	*	*	*	*	*	*	*	*	*	*	*	*	*	*	*	*	*	*	*	*	*	*	*	*	*	*	*
4ryy	4r	4r	.	4r	.	.	.	[2g/	.	(8aa\	.	4r	.	.	.	.	.	.	.	.	.	.	.	.	.	.	.	.	.	.
.	.	.	.	.	.	.	.	.	.	8gg\J)	.	.	.	.	.	.	.	.	.	.	.	.	.	.	.	.	.	.	.	.
4ryy	4C\	4r	.	4C\	.	4c\	.	.	.	(8dd#X\L	.	4C/	Re-	.	.	.	.	.	.	.	.	.	.	.	.	.	.	.	.	.
.	.	.	.	.	.	.	.	.	.	8ee\J)	.	.	.	.	.	.	.	.	.	.	.	.	.	.	.	.	.	.	.	.
*v	*v	*	*	*	*	*	*	*	*	*	*	*	*	*	*	*	*	*	*	*	*	*	*	*	*	*	*	*	*	*
=15	=15	=15	=15	=15	=15	=15	=15	=15	=15	=15	=15	=15	=15	=15	=15	=15	=15	=15	=15	=15	=15	=15	=15	=15	=15	=15	=15	=15	=15
!	!	!	!	!	!	!	!	!	!	!	!LO:PB:g=original	!	!	!	!	!	!	!	!	!	!	!	!	!	!	!	!	!	!
2.A\	4r	.	8A^<\	.	2A/	.	8g/]	.	2cc\	.	2.A\	-gi-	.	.	.	.	.	.	.	2.r	.	2.r	.	.	.	.	.	2.r	.
.	.	.	4A\	.	.	.	8Bn/L	.	.	.	.	.	.	.	.	.	.	.	.	.	.	.	.	.	.	.	.	.	.
*	*^	*	*	*	*	*	*	*	*	*	*	*	*	*	*	*	*	*	*	*	*	*	*	*	*	*	*	*	*
.	4e/	(2c\	.	.	.	.	.	(8c/	.	.	.	.	.	.	.	.	.	.	.	.	.	.	.	.	.	.	.	.	.	.
.	.	.	.	4A\	.	.	.	8e/	.	.	.	.	.	.	.	.	.	.	.	.	.	.	.	.	.	.	.	.	.	.
.	4f#X/	.	.	.	.	[4d\	.	8d/)	.	4f#X/	.	.	.	.	.	.	.	.	.	.	.	.	.	.	.	.	.	.	.	.
.	.	.	.	8A\	.	.	.	8c/J	.	.	.	.	.	.	.	.	.	.	.	.	.	.	.	.	.	.	.	.	.	.
=16	=16	=16	=16	=16	=16	=16	=16	=16	=16	=16	=16	=16	=16	=16	=16	=16	=16	=16	=16	=16	=16	=16	=16	=16	=16	=16	=16	=16	=16	=16
!	!	!	!	!	!	!LO:PB:g=original	!	!	!	!	!	!	!	!	!	!	!	!	!	!	!	!	!	!	!	!	!	!	!	!
2.G\	8g/L	4Bn\)	.	8G\	.	4d\]	.	4Bn/	.	(8g/L	.	2G\	-na	.	.	.	.	.	.	.	2.r	.	2.r	.	.	.	.	.	2.r	.
.	8f#X/J	.	.	4G\	.	.	.	.	.	8f#X/	.	.	.	.	.	.	.	.	.	.	.	.	.	.	.	.	.	.	.	.
.	8g/L	4r	.	.	.	4Bn/	.	4r	.	8g/)	.	.	.	.	.	.	.	.	.	.	.	.	.	.	.	.	.	.	.	.
.	8a/	.	.	4G\	.	.	.	.	.	8a'/J	.	.	.	.	.	.	.	.	.	.	.	.	.	.	.	.	.	.	.	.
.	8bn/	4r	.	.	.	[4G/	.	4r	.	8bn'\L	.	4G\	coe-	.	.	.	.	.	.	.	.	.	.	.	.	.	.	.	.	.
.	8cc/J	.	.	8G\	.	.	.	.	.	8cc'\J	.	.	.	.	.	.	.	.	.	.	.	.	.	.	.	.	.	.	.	.
*	*v	*v	*	*	*	*	*	*	*	*	*	*	*	*	*	*	*	*	*	*	*	*	*	*	*	*	*	*	*	*
=17	=17	=17	=17	=17	=17	=17	=17	=17	=17	=17	=17	=17	=17	=17	=17	=17	=17	=17	=17	=17	=17	=17	=17	=17	=17	=17	=17	=17	=17
!LO:PB:g=original	!	!	!	!	!	!	!	!	!	!	!	!	!	!LO:TX:a:i:t=Solo	!	!	!	!	!	!	!	!	!	!	!	!LO:N:vis=0	!	!	!
2.F\	4dd\	.	8F\	.	4G/]	.	8r	.	4dd\	.	2.F\	-lo-	.	2.G/	A-	.	0.r	.	.	2.r	.	2.r	.	2.g/	p	1.r	.	2.r	.
.	.	.	4F\	.	.	.	8d/	.	.	.	.	.	.	.	.	.	.	.	.	.	.	.	.	.	.	.	.	.	.
.	4r	.	.	.	4Bn/	.	(8g/L	.	4r	.	.	.	.	.	.	.	.	.	.	.	.	.	.	.	.	.	.	.	.
.	.	.	4F\	.	.	.	8f/	.	.	.	.	.	.	.	.	.	.	.	.	.	.	.	.	.	.	.	.	.	.
.	4Bn/	.	.	.	[4G/	.	8e/	.	(4Bn/	.	.	.	.	.	.	.	.	.	.	.	.	.	.	.	.	.	.	.	.
.	.	.	8F\	.	.	.	8d/J)	.	.	.	.	.	.	.	.	.	.	.	.	.	.	.	.	.	.	.	.	.	.
=18	=18	=18	=18	=18	=18	=18	=18	=18	=18	=18	=18	=18	=18	=18	=18	=18	=18	=18	=18	=18	=18	=18	=18	=18	=18	=18	=18	=18	=18
!	!	!	!	!	!	!	!	!	!	!	!	!	!	!LO:SIC:v= wszystkie półnuty maja laski z prawej strony	!	!	!	!	!	!	!	!	!	!LO:SIC:v= wszystkie półnuty maja laski z prawej strony	!	!	!	!	!
4E'\	2c/	.	4E'\	.	4G/]	.	(2c/	.	8c/)	.	4E\	-rum	.	2.c\	.	.	.	.	.	2.r	.	2.r	.	2.cc\	.	.	.	2.r	.
.	.	.	.	.	.	.	.	.	(8c/L	.	.	.	.	.	.	.	.	.	.	.	.	.	.	.	.	.	.	.	.
4C'\	.	.	4C'\	.	[2c\	.	.	.	8e/)	.	4r	.	.	.	.	.	.	.	.	.	.	.	.	.	.	.	.	.	.
.	.	.	.	.	.	.	.	.	8g'/J	.	.	.	.	.	.	.	.	.	.	.	.	.	.	.	.	.	.	.	.
4r	8e/L	.	4r	.	.	.	8e/L	.	8cc'\L	.	4r	.	.	.	.	.	.	.	.	.	.	.	.	.	.	.	.	.	.
.	8g/J	.	.	.	.	.	8g/J)	.	8ee'\J	.	.	.	.	.	.	.	.	.	.	.	.	.	.	.	.	.	.	.	.
=19	=19	=19	=19	=19	=19	=19	=19	=19	=19	=19	=19	=19	=19	=19	=19	=19	=19	=19	=19	=19	=19	=19	=19	=19	=19	=19	=19	=19	=19
!	!	!	!LO:TX:a:t="1"	!	!	!	!	!	!	!	!LO:SIC:v=pauzy 00r 00r 0r adnotacja "10."	!	!	!	!	!	!	!	!	!	!	!	!	!	!	!LO:SIC:v= wszystkie półnuty maja laski z prawej strony	!	!	!
!	!	!	!	!	!	!	!	!	!	!	!LO:N:vis=00	!	!	!	!	!	!	!	!	!	!	!	!	!	!	!	!	!	!
8r	4.b-X\	.	2.r	.	8c\]	.	4.b-\	.	2gg\	.	0.r	.	.	2.B-\	.	.	.	.	.	2.r	.	2.r	.	2.b-X\	.	2.cc\	p	2.r	.
!	!	!	!	!	!LO:SIC:v=mixed beam	!	!	!	!	!	!	!	!	!	!	!	!	!	!	!	!	!	!	!	!	!	!	!	!
8C\L	.	.	.	.	(8C/L	.	.	.	.	.	.	.	.	.	.	.	.	.	.	.	.	.	.	.	.	.	.	.	.
!	!LO:SIC:v= nieprecyzyjny łuk	!	!	!	!	!	!	!	!	!	!LO:TX:a:t=10	!	!	!	!	!	!	!	!	!	!	!	!	!	!	!	!	!	!
(8c\	.	.	.	.	8c^<\	.	.	.	.	.	.	.	.	.	.	.	.	.	.	.	.	.	.	.	.	.	.	.	.
8B-\	(8g\L	.	.	.	8B-'\)	.	(8g\L	.	.	.	.	.	.	.	.	.	.	.	.	.	.	.	.	.	.	.	.	.	.
8A\)	8cc\	.	.	.	8A'\	.	8cc\	.	4ee\	.	.	.	.	.	.	.	.	.	.	.	.	.	.	.	.	.	.	.	.
8G\J	8b-\J)	.	.	.	8G'\J	.	8b-\J)	.	.	.	.	.	.	.	.	.	.	.	.	.	.	.	.	.	.	.	.	.	.
=20	=20	=20	=20	=20	=20	=20	=20	=20	=20	=20	=20	=20	=20	=20	=20	=20	=20	=20	=20	=20	=20	=20	=20	=20	=20	=20	=20	=20	=20
!	!	!	!	!	!	!	!	!	!	!	!	!	!	!LO:PB:g=original	!	!	!	!	!	!	!	!	!	!	!	!	!	!	!
2F\	4a/	.	4r	.	2.F/	.	4a\	.	(8ff\L	.	.	.	.	4A\	-ve	.	.	.	.	2.r	.	2.r	.	2a/	.	2.ff\	.	2.r	.
.	.	.	.	.	.	.	.	.	8aa\	.	.	.	.	.	.	.	.	.	.	.	.	.	.	.	.	.	.	.	.
.	4r	.	4r	.	.	.	4r	.	8ff\)	.	.	.	.	4r	.	.	.	.	.	.	.	.	.	.	.	.	.	.	.
.	.	.	.	.	.	.	.	.	8cc'\J	.	.	.	.	.	.	.	.	.	.	.	.	.	.	.	.	.	.	.	.
*	*^	*	*	*	*	*	*	*	*	*	*	*	*	*	*	*	*	*	*	*	*	*	*	*	*	*	*	*	*
4AA/	4cc/	[4f\	.	4AA/	.	.	.	4cc\	.	8a'/L	.	.	.	.	4F/	Re-	.	.	.	.	.	.	.	.	4f/	.	.	.	.	.
.	.	.	.	.	.	.	.	.	.	[8f/J	.	.	.	.	.	.	.	.	.	.	.	.	.	.	.	.	.	.	.	.
=21	=21	=21	=21	=21	=21	=21	=21	=21	=21	=21	=21	=21	=21	=21	=21	=21	=21	=21	=21	=21	=21	=21	=21	=21	=21	=21	=21	=21	=21	=21
!	!	!	!	!	!	!	!	!LO:PB:g=original	!	!LO:PB:g=original	!	!	!	!	!	!	!	!	!	!	!	!	!	!	!LO:PB:g=original	!	!	!	!	!
!LO:TX:t=P:problem=mixed beam	!	!	!	!LO:SIC:v=mixed beam	!	!	!	!	!	!	!	!	!	!	!	!	!	!	!	!	!	!	!	!	!	!	!	!	!	!
!	!	!	!	!	!	!	!	!	!	!	!	!	!	!	!	!	!	!LO:N:vis=0	!	!	!	!	!	!	!	!	!	!	!	!
8BB-/L	2.dd/	4f\]	.	8BB-/L	.	8r	.	8dd^<\	.	4f/]	.	.	.	.	2.d\	-gi-	.	1.r	.	.	2.r	.	2.r	.	4r	.	4r	.	2.r	.
8B-\J	.	.	.	8B-\J	.	8B-/	.	4dd\	.	.	.	.	.	.	.	.	.	.	.	.	.	.	.	.	.	.	.	.	.	.
8D'\L	.	4b-\	.	8D'\L	.	8D'/L	.	.	.	4b-/	.	.	.	.	.	.	.	.	.	.	.	.	.	.	4b-\	.	4dd\	.	.	.
8E'\	.	.	.	8E'\	.	8E'/	.	4dd\	.	.	.	.	.	.	.	.	.	.	.	.	.	.	.	.	.	.	.	.	.	.
8F'\	.	[4e\	.	8F'\	.	8F'/	.	.	.	[4en/	.	.	.	.	.	.	.	.	.	.	.	.	.	.	4b-\	.	4dd\	.	.	.
8G'\J	.	.	.	8G'\J	.	8G'/J	.	8dd\	.	.	.	.	.	.	.	.	.	.	.	.	.	.	.	.	.	.	.	.	.	.
=22	=22	=22	=22	=22	=22	=22	=22	=22	=22	=22	=22	=22	=22	=22	=22	=22	=22	=22	=22	=22	=22	=22	=22	=22	=22	=22	=22	=22	=22	=22
(8G#X\L	2.cc/	4e\]	.	(8G#X\L	.	(8G#X/L	.	8cc\	.	4e/]	.	.	.	.	2c\	-na	.	.	.	.	2.r	.	2.r	.	4r	.	4r	.	2.r	.
8A\J)	.	.	.	8A\J)	.	8A/J)	.	4cc\	.	.	.	.	.	.	.	.	.	.	.	.	.	.	.	.	.	.	.	.	.	.
8C'\L	.	4a\	.	8C'\L	.	8C'/L	.	.	.	4a/	.	.	.	.	.	.	.	.	.	.	.	.	.	.	4a/	.	4cc\	.	.	.
8D'\	.	.	.	8D'\	.	8D'/	.	4cc\	.	.	.	.	.	.	.	.	.	.	.	.	.	.	.	.	.	.	.	.	.	.
8E'\	.	[4d\	.	8E'\	.	8E'/	.	.	.	[4d/	.	.	.	.	4c\	coe-	.	.	.	.	.	.	.	.	4a/	.	4cc\	.	.	.
8F'\J	.	.	.	8F'\J	.	8F'/J	.	8cc\	.	.	.	.	.	.	.	.	.	.	.	.	.	.	.	.	.	.	.	.	.	.
=23	=23	=23	=23	=23	=23	=23	=23	=23	=23	=23	=23	=23	=23	=23	=23	=23	=23	=23	=23	=23	=23	=23	=23	=23	=23	=23	=23	=23	=23	=23
!	!	!	!	!	!	!LO:PB:g=original	!	!	!	!	!	!LO:N:vis=00	!	!	!	!	!	!	!	!	!	!	!	!	!	!	!LO:PB:g=original	!	!	!
(8F#X\L	2.b-/	4d\]	.	(8F#X\L	.	(8F#X/L	.	8b-\	.	4d/]	.	0.r	.	.	2.B-\	-lo-	.	2.r	.	.	2.r	.	2.r	.	4r	.	4r	.	2.r	.
8G\J)	.	.	.	8G\J)	.	8G/J)	.	4b-\	.	.	.	.	.	.	.	.	.	.	.	.	.	.	.	.	.	.	.	.	.	.
8BB-'/L	.	4g\	.	8BB-'/L	.	4.G/	.	.	.	4g/	.	.	.	.	.	.	.	.	.	.	.	.	.	.	4g/	.	4b-\	.	.	.
8C'/	.	.	.	8C'/	.	.	.	4b-\	.	.	.	.	.	.	.	.	.	.	.	.	.	.	.	.	.	.	.	.	.	.
8D'/	.	[4c\	.	8D'/	.	.	.	.	.	[4c/	.	.	.	.	.	.	.	.	.	.	.	.	.	.	4g/	.	4b-\	.	.	.
8E'/J	.	.	.	8E'/J	.	8G/	.	8b-\	.	.	.	.	.	.	.	.	.	.	.	.	.	.	.	.	.	.	.	.	.	.
=24	=24	=24	=24	=24	=24	=24	=24	=24	=24	=24	=24	=24	=24	=24	=24	=24	=24	=24	=24	=24	=24	=24	=24	=24	=24	=24	=24	=24	=24	=24
!	! 2	!	!	!	!	!	!	!	!	!	!	!	!	!	!	!	!	!	!	!	!	!	!LO:SIC:v= wszystkie półnuty maja laski z prawej strony	!	!	!	!	!	!	!
!	!	!	!	!	!	!	!	!	!	!	!	!	!	!	!	!	!	!	!	!	!	!	!LO:SIC:v=p jako po	!	!	!	!	!	!	!
2.F\	4a/	4c\]	.	4F\	.	2.F/	.	8a\L	.	4c'/]	.	.	.	.	4A\	-rum	.	4r	.	.	2.F/	p	[2.f\	p	2.f/	.	(2.a\	p	2.r	.
.	.	.	.	.	.	.	.	8ff\J	.	.	.	.	.	.	.	.	.	.	.	.	.	.	.	.	.	.	.	.	.	.
*	*v	*v	*	*	*	*	*	*	*	*	*	*	*	*	*	*	*	*	*	*	*	*	*	*	*	*	*	*	*	*
.	4r	.	4r	.	.	.	(8f/L	.	4f'/	.	.	.	.	4r	.	.	4a\	a-	.	.	.	.	.	.	.	.	.	.	.
.	.	.	.	.	.	.	8g/	.	.	.	.	.	.	.	.	.	.	.	.	.	.	.	.	.	.	.	.	.	.
.	4a/	.	4r	.	.	.	8a/	.	4r	.	.	.	.	4r	.	.	4a\	-ve	.	.	.	.	.	.	.	.	.	.	.
.	.	.	.	.	.	.	8f/J)	.	.	.	.	.	.	.	.	.	.	.	.	.	.	.	.	.	.	.	.	.	.
=25	=25	=25	=25	=25	=25	=25	=25	=25	=25	=25	=25	=25	=25	=25	=25	=25	=25	=25	=25	=25	=25	=25	=25	=25	=25	=25	=25	=25	=25
*	*^	*	*	*	*	*	*	*	*	*	*	*	*	*	*	*	*	*	*	*	*	*	*	*	*	*	*	*	*
!	!	!	!	!LO:SIC:v=pauzy 00r 1r adnotacja "5"	!	!	!	!	!	!	!	!	!	!	!	!	!	!	!	!	!LO:SIC:v= wszystkie półnuty maja laski z prawej strony	!	!	!	!	!	!	!	!LO:SIC:v= wszystkie półnuty maja laski z prawej strony	!
!	!	!	!	!LO:N:vis=00	!	!	!	!	!	!	!	!	!	!	!	!	!	!	!	!	!	!	!	!	!	!	!	!	!	!
2.f\	2.bn/	[2.g\	.	0.r	.	2.f\	.	2.d/	.	8r	.	.	.	.	4r	.	.	4.bn\	Do-	.	2.f\	.	2.f\]	.	2.d/	.	2.bn\)	.	[2.gg\	.
.	.	.	.	.	.	.	.	.	.	8gg\	.	.	.	.	.	.	.	.	.	.	.	.	.	.	.	.	.	.	.	.
.	.	.	.	.	.	.	.	.	.	(8g/L	.	.	.	.	4f\	a-	.	.	.	.	.	.	.	.	.	.	.	.	.	.
!	!	!	!	!LO:TX:a:t=5	!	!	!	!	!	!	!	!	!	!	!	!	!	!	!	!	!	!	!	!	!	!	!	!	!	!
.	.	.	.	.	.	.	.	.	.	8a/	.	.	.	.	.	.	.	8b\	-mi-	.	.	.	.	.	.	.	.	.	.	.
.	.	.	.	.	.	.	.	.	.	8bn/	.	.	.	.	4f\	-ve	.	4b\	-na	.	.	.	.	.	.	.	.	.	.	.
.	.	.	.	.	.	.	.	.	.	8g/J)	.	.	.	.	.	.	.	.	.	.	.	.	.	.	.	.	.	.	.	.
=26	=26	=26	=26	=26	=26	=26	=26	=26	=26	=26	=26	=26	=26	=26	=26	=26	=26	=26	=26	=26	=26	=26	=26	=26	=26	=26	=26	=26	=26	=26
!	!	!	!	!	!	!	!	!	!	!	!	!	!	!	!	!	!	!	!	!	!LO:PB:g=original	!	!LO:PB:g=original	!	!	!	!	!	!	!
(8e\L	4cc/	4g\]	.	.	.	(8e\L	.	4e'/	.	4cc\	.	.	.	.	4.e\	Do-	.	(4.cc\	a-	.	4c/	.	4g\	.	4e'/	.	4cc\	.	4gg\]	.
8g\	.	.	.	.	.	8g\J	.	.	.	.	.	.	.	.	.	.	.	.	.	.	.	.	.	.	.	.	.	.	.	.
*	*v	*v	*	*	*	*	*	*	*	*	*	*	*	*	*	*	*	*	*	*	*	*	*	*	*	*	*	*	*	*
8e\)	4r	.	.	.	8e\L)	.	4c'/	.	4r	.	.	.	.	.	.	.	.	.	.	4r	.	4r	.	4c'/	.	2r	.	8ccc\L	.
8d'\	.	.	.	.	8d'\	.	.	.	.	.	.	.	.	8d\	-mi-	.	8dd\)	.	.	.	.	.	.	.	.	.	.	8ddd\J	.
*	*^	*	*	*	*	*	*	*	*	*	*	*	*	*	*	*	*	*	*	*	*	*	*	*	*	*	*	*	*
8c\	4ee/	4cc\	.	.	.	8c'\	.	4r	.	4cc\	.	.	.	.	4c\	-na	.	4ee\	-ve	.	4r	.	4r	.	4r	.	.	.	4eee\	.
8Bn\J	.	.	.	.	.	8Bn'\J	.	.	.	.	.	.	.	.	.	.	.	.	.	.	.	.	.	.	.	.	.	.	.	.
=27	=27	=27	=27	=27	=27	=27	=27	=27	=27	=27	=27	=27	=27	=27	=27	=27	=27	=27	=27	=27	=27	=27	=27	=27	=27	=27	=27	=27	=27	=27
!	!	!	!	!	!	!	!	!	!	!	!	!	!	!	!	!	!	!LO:PB:g=original	!	!	!	!	!	!	!	!	!	!	!	!
!	!	!	!	!	!	!	!	!LO:SIC:v=pauzy 0r 1r	!	!	!	!LO:N:vis=0	!	!	!	!	!	!	!	!	!LO:SIC:v=pauzy 00r 00r 00r adnotacja "12"	!	!LO:SIC:v=pauzy 00r 00r 00r adnotacja "12"	!	!	!	!	!	!	!
!	!	!	!	!	!	!	!	!LO:N:vis=0	!	!	!	!	!	!	!	!	!	!	!	!	!LO:N:vis=00	!	!LO:N:vis=00	!	!	!	!	!	!	!
4A\	2ff/	8cc#X\L	.	.	.	4A/	.	1.r	.	(8cc#X\L	.	1.r	.	.	(8c#X\L	a-	.	4r	.	.	0.r	.	0.r	.	4r	.	4r	.	8fff^<\	.
.	.	8dd\J	.	.	.	.	.	.	.	8dd\J	.	.	.	.	8d\J)	.	.	.	.	.	.	.	.	.	.	.	.	.	4fff\	.
4d\	.	4f\	.	.	.	4d\	.	.	.	8f/L)	.	.	.	.	4d\	-ve	.	4ff\	a-	.	.	.	.	.	4dd\	.	4ff\	.	.	.
!	!	!	!	!	!	!	!	!LO:TX:a:t=3	!	!	!	!	!	!	!	!	!	!	!	!	!LO:TX:a:t=12	!	!LO:TX:a:t=12	!	!	!	!	!	!	!
.	.	.	.	.	.	.	.	.	.	8g'/	.	.	.	.	.	.	.	.	.	.	.	.	.	.	.	.	.	.	4fff\	.
*	*v	*v	*	*	*	*	*	*	*	*	*	*	*	*	*	*	*	*	*	*	*	*	*	*	*	*	*	*	*	*
[4G\	4r	.	.	.	[4G/	.	.	.	8a'/	.	.	.	.	4r	.	.	4ff\	-ve	.	.	.	.	.	4dd\	.	4ff\	.	.	.
.	.	.	.	.	.	.	.	.	8b-X'/J	.	.	.	.	.	.	.	.	.	.	.	.	.	.	.	.	.	.	8fff\	.
=28	=28	=28	=28	=28	=28	=28	=28	=28	=28	=28	=28	=28	=28	=28	=28	=28	=28	=28	=28	=28	=28	=28	=28	=28	=28	=28	=28	=28	=28
!	!	!	!	!	!	!	!	!	!	!LO:PB:g=original	!	!	!	!	!LO:PB:g=original	!	!	!	!	!	!	!	!	!	!	!	!	!LO:PB:g=original	!
*	*^	*	*	*	*	*	*	*	*	*	*	*	*	*	*	*	*	*	*	*	*	*	*	*	*	*	*	*	*
4G\]	2ee/	8bn\L	.	.	.	4G/]	.	.	.	(8bn'\L	.	.	.	.	(8Bn\L	a-	.	4.ee\	Do-	.	.	.	.	.	4r	.	4r	.	8eee\	.
.	.	8cc\J	.	.	.	.	.	.	.	8cc\J	.	.	.	.	8cn\J)	.	.	.	.	.	.	.	.	.	.	.	.	.	4eee\	.
4c\	.	4e\	.	.	.	4c\	.	.	.	8e/L)	.	.	.	.	4c\	-ve	.	.	.	.	.	.	.	.	4cc\	.	4ee\	.	.	.
.	.	.	.	.	.	.	.	.	.	8f'/	.	.	.	.	.	.	.	8ee\	-mi-	.	.	.	.	.	.	.	.	.	4eee\	.
*	*v	*v	*	*	*	*	*	*	*	*	*	*	*	*	*	*	*	*	*	*	*	*	*	*	*	*	*	*	*	*
[4F\	4r	.	.	.	[4F/	.	.	.	8g'/	.	.	.	.	4r	.	.	4ee\	-na	.	.	.	.	.	4cc\	.	4ee\	.	.	.
.	.	.	.	.	.	.	.	.	8a'/J	.	.	.	.	.	.	.	.	.	.	.	.	.	.	.	.	.	.	8eee\	.
=29	=29	=29	=29	=29	=29	=29	=29	=29	=29	=29	=29	=29	=29	=29	=29	=29	=29	=29	=29	=29	=29	=29	=29	=29	=29	=29	=29	=29	=29
!	!	!	!	!	!	!	!	!	!	!	!	!	!	!	!	!	!	!	!	!	!	!	!	!	!LO:PB:g=original	!	!	!	!
*	*^	*	*	*	*	*	*	*	*	*	*	*	*	*	*	*	*	*	*	*	*	*	*	*	*	*	*	*	*
4F\]	2dd/	8a#X\L	.	2.r	.	4F/]	.	2.r	.	(8a#X/L	.	4r	.	.	2Bn\	a-	.	2dd\	An-	.	.	.	.	.	4r	.	4r	.	8ddd\	.
.	.	8bn\J	.	.	.	.	.	.	.	8bn/J	.	.	.	.	.	.	.	.	.	.	.	.	.	.	.	.	.	.	4ddd\	.
4Bn\	.	4d\	.	.	.	4Bn/	.	.	.	8d/L)	.	4E\	a-	.	.	.	.	.	.	.	.	.	.	.	4bn\	.	4dd\	.	.	.
.	.	.	.	.	.	.	.	.	.	8e'/	.	.	.	.	.	.	.	.	.	.	.	.	.	.	.	.	.	.	4ddd\	.
4E\	4dd/	4b\	.	.	.	[4E/	.	.	.	8f#X'/	.	4E\	-ve	.	4B\	-ve	.	4dd\	-ge-	.	.	.	.	.	4b\	.	4dd\	.	.	.
.	.	.	.	.	.	.	.	.	.	8g#X'/J	.	.	.	.	.	.	.	.	.	.	.	.	.	.	.	.	.	.	8ddd\	.
=30	=30	=30	=30	=30	=30	=30	=30	=30	=30	=30	=30	=30	=30	=30	=30	=30	=30	=30	=30	=30	=30	=30	=30	=30	=30	=30	=30	=30	=30	=30
!	!	!	!	!	!	!	!	!LO:SIC:v=f zapisane jako fo	!	!	!	!	!	!	!	!	!	!	!	!	!	!	!	!	!	!	!	!LO:SIC:v=f zapisane fo	!	!
8r	4cc/	4a\	.	8r	.	8E/]	.	4r	.	4a/	.	4.A\	Do-	f	4.c\	Do-	.	4cc\	-lo-	.	.	.	.	.	4a/	.	4cc\	.	4ccc\	f
!	!	!	!	!LO:SIC:v=f jako fo	!	!LO:SIC:v=f zapisane fo	!	!	!	!	!	!	!	!	!	!	!	!	!	!	!	!	!	!	!	!	!	!	!	!
8A\	.	.	.	8A\	f	4cc\	f	.	f	.	.	.	.	.	.	.	.	.	.	.	.	.	.	.	.	.	.	.	.	.
*	*v	*v	*	*	*	*	*	*	*	*	*	*	*	*	*	*	*	*	*	*	*	*	*	*	*	*	*	*	*	*
!	!	!	!	!	!	!	!	!	!	!	!	!	!	!	!	!	!	!	!	!	!	!	!	!	!	!LO:SIC:v=f jako fo	!	!	!
8C'\L	4r	.	8C'\L	.	.	.	4aa\	.	4r	.	.	.	.	.	.	.	4cc\	-rum,	.	.	.	.	.	4r	.	[2aa\	f	4r	.
8D'\	.	.	8D'\	.	4cc\	.	.	.	.	.	8A\	-mi-	.	8c\	-mi-	.	.	.	.	.	.	.	.	.	.	.	.	.	.
*	*^	*	*	*	*	*	*	*	*	*	*	*	*	*	*	*	*	*	*	*	*	*	*	*	*	*	*	*	*
!	!	!	!	!	!	!	!	!	!	!	!	!	!	!	!	!	!	!	!	!	!	!	!	!	!LO:SIC:v=f jako fo	!	!	!	!	!
8E'\	[4aa/	4cc\	.	8E'\	.	.	.	[4dd\	.	4r	.	4A\	-na	.	4c\	-na	.	4r	.	.	.	.	.	.	[4dd\	f	.	.	4ccc'\	.
8F#X'\J	.	.	.	8F#X'\J	.	8cc\	.	.	.	.	.	.	.	.	.	.	.	.	.	.	.	.	.	.	.	.	.	.	.	.
=31	=31	=31	=31	=31	=31	=31	=31	=31	=31	=31	=31	=31	=31	=31	=31	=31	=31	=31	=31	=31	=31	=31	=31	=31	=31	=31	=31	=31	=31	=31
!	!	!	!	!	!	!LO:PB:g=original	!	!	!	!	!	!LO:PB:g=original	!	!	!	!	!	!	!	!	!	!	!	!	!	!	!	!	!	!
!	!	!	!	!	!	!	!	!	!	!LO:SIC:v=pauzy 0r adnotacja "2"	!	!	!	!	!	!	!	!LO:SIC:v=pauzy 00r 1r adnotacja "5"	!	!	!	!	!	!	!	!	!	!	!	!
!	!	!	!	!	!	!	!	!	!	!LO:N:vis=o	!	!	!	!	!	!	!	!LO:N:vis=00	!	!	!LO:N:vis=00	!	!LO:N:vis=00	!	!	!	!	!	!	!
8r	4aa/]	2.bn\	.	8r	.	8bn\	.	4dd\]	.	1.r	.	(8F#X\L	a-	.	2Bn\	An-	.	0.r	.	.	0.r	.	0.r	.	2dd\]	.	4aa\]	.	4bbn'\	.
8G\	.	.	.	8G\	.	4b\	.	.	.	.	.	8G\J)	.	.	.	.	.	.	.	.	.	.	.	.	.	.	.	.	.	.
8BBn'/L	[2gg/	.	.	8BBn'\L	.	.	.	4gg\	.	.	.	4G\	-ve	.	.	.	.	.	.	.	.	.	.	.	.	.	[2gg\	.	4r	.
!	!	!	!	!	!	!	!	!	!	!LO:TX:a:t=2	!	!	!	!	!	!	!	!LO:TX:a:t=5	!	!	!	!	!	!	!	!	!	!	!	!
8C'/	.	.	.	8C'\	.	4b\	.	.	.	.	.	.	.	.	.	.	.	.	.	.	.	.	.	.	.	.	.	.	.	.
8D'/	.	.	.	8D'\	.	.	.	[4cc\	>	.	.	4r	.	.	4B\	-ge-	.	.	.	.	.	.	.	.	[4cc\	.	.	.	4bb'\	.
8E'/J	.	.	.	8E'\J	.	8b\	.	.	.	.	.	.	.	.	.	.	.	.	.	.	.	.	.	.	.	.	.	.	.	.
=32	=32	=32	=32	=32	=32	=32	=32	=32	=32	=32	=32	=32	=32	=32	=32	=32	=32	=32	=32	=32	=32	=32	=32	=32	=32	=32	=32	=32	=32	=32
!	!	!	!	!	!	!	!	!	!	!	!	!	!	!	!	!	!	!	!	!	!	!	!	!	!	!	!LO:PB:g=original	!	!	!
8r	4gg/]	2.a\	.	8r	.	8a\	.	4cc\]	.	.	.	(8E\L	a-	.	2.A\	-lo-	.	.	.	.	.	.	.	.	2cc\]	>	4gg\]	>	4aa'\	.
8F#X\	.	.	.	8F#X\	.	4a\	.	.	]	.	.	8F#X\J)	.	.	.	.	.	.	.	.	.	.	.	.	.	.	.	.	.	.
8AA'/L	2ff#X/	.	.	8AA'/L	.	.	.	4ff#X\	.	.	.	4F#\	-ve	.	.	.	.	.	.	.	.	.	.	.	.	.	2ff#X\	]]	4r	.
8BBn'/	.	.	.	8BBn'/	.	4a\	.	.	.	.	.	.	.	.	.	.	.	.	.	.	.	.	.	.	.	.	.	.	.	.
8C#X'/	.	.	.	8C#X'/	.	.	.	[4bn\	.	.	.	4r	.	.	.	.	.	.	.	.	.	.	.	.	4bn\	]]	.	.	4aa'\	.
8D#X'/J	.	.	.	8D#X'/J	.	8a\	.	.	.	.	.	.	.	.	.	.	.	.	.	.	.	.	.	.	.	.	.	p	.	.
=33	=33	=33	=33	=33	=33	=33	=33	=33	=33	=33	=33	=33	=33	=33	=33	=33	=33	=33	=33	=33	=33	=33	=33	=33	=33	=33	=33	=33	=33	=33
!	!	!	!	!	!	!	!	!LO:PB:g=original	!	!	!	!	!	!	!	!	!	!	!	!	!	!	!	!	!LO:SIC:v=p jako po	!	!	!	!	!
4E\	4ee/	4g\	.	4E\	.	(8g\L	p	(8bnX/L]	p	8r	.	2E\	a-	p	4G/	-rum	.	.	.	.	.	.	.	.	(8cc\L	p	(8gg\L	.	4gg'\	.
!	!	!	!	!	!	!	!	!	!	!LO:SIC:v=p zapisane jako po	!	!	!	!	!	!	!	!	!	!	!	!	!	!	!	!	!	!	!	!
.	.	.	.	.	.	8f#X\J)	.	8a/J	.	(8gg\	p	.	.	.	.	.	.	.	.	.	.	.	.	.	8bn\J	.	8ff#X\J	.	.	.
*	*v	*v	*	*	*	*	*	*	*	*	*	*	*	*	*	*	*	*	*	*	*	*	*	*	*	*	*	*	*	*
4e\	4r	.	4r	.	4e\	.	4g/)	.	8g/L)	.	.	.	.	4r	.	.	.	.	.	.	.	.	.	4a\)	.	4ee\)	.	4r	.
.	.	.	.	.	.	.	.	.	8a'/	.	.	.	.	.	.	.	.	.	.	.	.	.	.	.	.	.	.	.	.
4A\	4r	.	4r	.	4A/	.	4gg\	.	8bn'/	.	4A\	-ve	.	4r	.	.	.	.	.	.	.	.	.	4r	.	4r	.	4r	.
.	.	.	.	.	.	.	.	.	8cc#X'/J	.	.	.	.	.	.	.	.	.	.	.	.	.	.	.	.	.	.	.	.
=34	=34	=34	=34	=34	=34	=34	=34	=34	=34	=34	=34	=34	=34	=34	=34	=34	=34	=34	=34	=34	=34	=34	=34	=34	=34	=34	=34	=34	=34
!	!	!	!	!	!	!	!	!	!	!	!	!	!	!LO:TX:a:t="1"	!	!	!	!	!	!	!	!	!	!LO:SIC:v=pauzy 0r 1r adnotacja "3"	!	!LO:SIC:v=pauzy 0r 1r adnotacja "3"	!	!LO:SIC:v=pauzy 00r 1r adnotacja "5"	!
!	!	!	!	!	!	!	!	!	!	!	!	!	!	!	!	!	!	!	!	!	!	!	!	!LO:N:vis=0	!	!LO:N:vis=0	!	!LO:N:vis=00	!
(8fn\L	2.r	.	4r	.	(8fn\L	.	(8a/L	.	(8dd\L	.	4.D\	Do-	.	2.r	.	.	.	.	.	.	.	.	.	1.r	.	1.r	.	0.r	.
8e\J	.	.	.	.	8e\J)	.	8g/J	.	16ee\L	.	.	.	.	.	.	.	.	.	.	.	.	.	.	.	.	.	.	.	.
.	.	.	.	.	.	.	.	.	16ffn\JJ	.	.	.	.	.	.	.	.	.	.	.	.	.	.	.	.	.	.	.	.
!	!	!	!	!	!	!	!	!	!	!	!	!	!	!	!	!	!	!	!	!	!	!	!	!LO:TX:a:t=3	!	!LO:TX:a:t=3	!	!LO:TX:a:t=5	!
4d\)	.	.	4r	.	4d\	.	4f/)	.	8f/L)	.	.	.	.	.	.	.	.	.	.	.	.	.	.	.	.	.	.	.	.
.	.	.	.	.	.	.	.	.	8g'/	.	8D\	-mi-	.	.	.	.	.	.	.	.	.	.	.	.	.	.	.	.	.
4G\	.	.	4GG/	p	4G/	.	4ff\	.	8a'/	.	4G\	-na	.	.	.	.	.	.	.	.	.	.	.	.	.	.	.	.	.
.	.	.	.	.	.	.	.	.	8bn'/J	.	.	.	.	.	.	.	.	.	.	.	.	.	.	.	.	.	.	.	.
=35	=35	=35	=35	=35	=35	=35	=35	=35	=35	=35	=35	=35	=35	=35	=35	=35	=35	=35	=35	=35	=35	=35	=35	=35	=35	=35	=35	=35	=35
!LO:PB:g=original	!	!	!	!	!	!	!	!	!LO:PB:g=original	!	!	!	!	!LO:PB:g=original	!	!	!	!	!	!LO:N:vis=00	!	!LO:N:vis=00	!LO:N:vis=00	!	!	!	!	!	!
(8e\L	2.r	.	2G\	.	(8e\L	.	(8g/L	.	(8cc\L	.	2G\	An-	.	4r	.	.	2.r	.	.	0.r	.	0.r	.	.	.	.	.	.	.
8d\J)	.	.	.	.	8d\J)	.	8f/J	.	16dd\L	.	.	.	.	.	.	.	.	.	.	.	.	.	.	.	.	.	.	.	.
.	.	.	.	.	.	.	.	.	16ee\JJ	.	.	.	.	.	.	.	.	.	.	.	.	.	.	.	.	.	.	.	.
4c\	.	.	.	.	2c\	.	4e/)	.	8e/L)	.	.	.	.	4e\	sal-	.	.	.	.	.	.	.	.	.	.	.	.	.	.
.	.	.	.	.	.	.	.	.	8f'/	.	.	.	.	.	.	.	.	.	.	.	.	.	.	.	.	.	.	.	.
4G\	.	.	4GG/	.	.	.	4ee\	.	8g'/	.	4G\	-ge-	.	4e\	-ve	.	.	.	.	.	.	.	.	.	.	.	.	.	.
.	.	.	.	.	.	.	.	.	8a'/J	.	.	.	.	.	.	.	.	.	.	.	.	.	.	.	.	.	.	.	.
=36	=36	=36	=36	=36	=36	=36	=36	=36	=36	=36	=36	=36	=36	=36	=36	=36	=36	=36	=36	=36	=36	=36	=36	=36	=36	=36	=36	=36	=36
(8d\L	2.r	.	2G\	.	(8d\L	.	(8f/L	.	(8bn\L	.	2.G\	-lo-	.	2d\	ra-	.	4r	.	.	.	.	.	.	2.r	.	2.r	.	.	.
8c\J)	.	.	.	.	8c\J	.	8e/J)	.	16cc\L	.	.	.	.	.	.	.	.	.	.	.	.	.	.	.	.	.	.	.	.
.	.	.	.	.	.	.	.	.	16dd\JJ	.	.	.	.	.	.	.	.	.	.	.	.	.	.	.	.	.	.	.	.
!	!	!	!	!	!	!	!	!	!	!	!	!	!	!	!	!	!LO:SIC:v=dynamika pa zapisana jako po	!	!	!	!	!	!	!	!	!	!	!	!
4Bn\	.	.	.	.	8Bn\L)	<	8d/	.	8d/L)	.	.	.	.	.	.	.	4g\	sal-	p	.	.	.	.	.	.	.	.	.	.
.	.	.	.	.	8f'\	.	4g/	<	8b'/	.	.	.	.	.	.	.	.	.	.	.	.	.	.	.	.	.	.	.	.
4G\	.	.	4GG/	.	8e'\	.	.	.	8cc'/	.	.	.	.	4d\	-dix	.	4g\	-ve	.	.	.	.	.	.	.	.	.	.	.
.	.	.	.	.	8d'\J	[	8f/	[[	8dd'/J	.	.	.	.	.	.	.	.	.	.	.	.	.	.	.	.	.	.	.	.
=37	=37	=37	=37	=37	=37	=37	=37	=37	=37	=37	=37	=37	=37	=37	=37	=37	=37	=37	=37	=37	=37	=37	=37	=37	=37	=37	=37	=37	=37
!	!	!	!	!	!	!	!	!	!	!	!LO:PB:g=original	!	!	!	!	!	!	!	!	!	!	!	!	!	!	!	!	!	!
2GG/	4c#X/ 4e/	.	2G\	.	4.c#X\	<	4.G/ 4.e/	.	(8ee\L	.	4G\	-rum	.	2c#X\	sal-	.	2g\	ra-	.	.	.	.	.	2.cc#X\	<	2.ee\	.	.	.
.	.	.	.	.	.	.	.	.	16ff\L	.	.	.	.	.	.	.	.	.	.	.	.	.	.	.	.	.	.	.	.
.	.	.	.	.	.	.	.	.	16gg\JJ	.	.	.	.	.	.	.	.	.	.	.	.	.	.	.	.	.	.	.	.
.	4r	.	.	.	.	.	.	.	8g\L)	.	2r	.	.	.	.	.	.	.	.	.	.	.	.	.	.	.	.	.	.
.	.	.	.	.	8e'\L	.	8g'/L	.	8cc#X'\	.	.	.	.	.	.	.	.	.	.	.	.	.	.	.	.	.	.	.	.
4G\	4r	.	4GG/	<	8d'\	.	8f'/	<<	8dd'\	.	.	.	.	4c#\	-ve	.	4g\	-dix	.	.	.	.	.	.	.	.	.	.	.
.	.	.	.	.	8c#'\J	.	8e'/J	.	8ee'\J	<	.	.	.	.	.	.	.	.	.	.	.	.	.	.	.	.	.	.	.
=38	=38	=38	=38	=38	=38	=38	=38	=38	=38	=38	=38	=38	=38	=38	=38	=38	=38	=38	=38	=38	=38	=38	=38	=38	=38	=38	=38	=38	=38
!	!	!	!	!	!LO:PB:g=original	!	!	!	!	!	!	!	!	!	!	!	!LO:PB:g=original	!	!	!	!	!	!	!	!	!	!	!	!
!	!	!	!	!	!	!	!	!	!	!	!LO:TX:a:t="1"	!	!	!	!	!	!	!	!	!	!	!	!	!	!	!	!	!	!
2GG/	4cn/ 4e-X/ 4a/	.	2G\	.	4.cn\	<	4.e-X/ 4.a/	.	(8ff#X\L	.	2.r	.	.	2cn\	por-	.	2a\	sal-	.	.	.	.	.	2.a/	[	2.ff#X\	<	2.r	.
.	.	.	.	.	.	.	.	.	16gg\L	.	.	.	.	.	.	.	.	.	.	.	.	.	.	.	.	.	.	.	.
.	.	.	.	.	.	.	.	.	16aa\JJ	.	.	.	.	.	.	.	.	.	.	.	.	.	.	.	.	.	.	.	.
.	4r	.	.	.	.	.	.	.	8a\L)	.	.	.	.	.	.	.	.	.	.	.	.	.	.	.	.	.	.	.	.
.	.	.	.	.	8e-X'\L	.	8a'\L	.	8ff#'\	<	.	.	.	.	.	.	.	.	.	.	.	.	.	.	.	.	.	.	.
4G\	4r	.	4GG/	<	8d'\	[	8bn'\	.	8gg'\	.	.	.	.	4c\	-ta	.	4a\	-ve	.	.	.	.	.	.	.	.	.	.	.
!	!	!	!	!	!	!	!LO:SIC:v=f zapisane jako fo	!	!	!	!	!	!	!	!	!	!	!	!	!	!	!	!	!	!	!	!	!	!
.	.	.	.	[	8c'\J	.	8cc'\J	f	8aa'\J	[	.	.	.	.	.	.	.	.	.	.	.	.	.	.	.	.	[	.	.
=39	=39	=39	=39	=39	=39	=39	=39	=39	=39	=39	=39	=39	=39	=39	=39	=39	=39	=39	=39	=39	=39	=39	=39	=39	=39	=39	=39	=39	=39
!	!	!	!	!LO:PB:g=original	!	!	!	!	!	!	!	!	!	!	!	!	!	!	!	!	!	!	!	!	!LO:PB:g=original	!	!	!	!
*	*^	*	*	*	*	*	*	*	*	*	*	*	*	*	*	*	*	*	*	*	*	*	*	*	*	*	*	*	*
!	!	!	!	!LO:SIC:v=f jako fo	!	!LO:SIC:v=f zapisane fo.	!	!	!	!LO:SIC:v=f zapisane jako for	!	!	!	!	!	!	!	!	!LO:SIC:v=f jako fo	!	!LO:SIC:v=f jako fo	!	!LO:SIC:v= f jako fo:	!	!	!	!LO:SIC:v=f jako fo	!	!LO:SIC:v=f zapisane fo	!
2GG/	4bn/	4d\ 4f\ 4gn\	.	4.G\	f	4.Bn\ 4.d\	f	(8d\L 8dd\	.	(8bbn\L	f	2G\	Sal-	.	(4d\	sal-	.	(4bn\	sal-	.	[2.g\	f	[2.g\	f	2bn\	f	2.gg\	f	2ddd\	f
.	.	.	.	.	.	.	.	16ee\L	.	16ccc\L	.	.	.	.	.	.	.	.	.	.	.	.	.	.	.	.	.	.	.	.
.	.	.	.	.	.	.	.	16ffnX\JJ)	.	16ddd\JJ)	.	.	.	.	.	.	.	.	.	.	.	.	.	.	.	.	.	.	.	.
.	8gg/L	4b\ 4dd\	.	.	.	.	.	8gg\L	.	8dd\	>	.	.	.	4Bn\)	.	.	8gg\L)	.	.	.	.	.	.	.	.	.	.	.	.
!	!	!	!	!LO:SIC:v=mixed beam	!	!	!	!	!	!	!	!	!	!	!	!	!	!	!	!	!	!	!	!	!	!	!	!	!	!
.	8ff/J	.	.	8GG\L	.	8B'\L	.	8ff\J	.	4ddd\	.	.	.	.	.	.	.	8ff\J	.	.	.	.	.	.	.	.	.	.	.	.
4G\	4ee/	4cc\	.	8G\	.	8c'\	.	4ee\	.	.	.	4G\	-ve	.	4c\	-ve	.	4ee\	-ve	.	.	.	.	.	8cc\L	.	.	.	(8ddd\L	.
.	.	.	.	8G/J	.	8e'\J	.	.	.	[8ccc\	]	.	.	.	.	.	.	.	.	.	.	.	.	.	8ee\J	.	.	.	8ccc\J)	.
*	*v	*v	*	*	*	*	*	*	*	*	*	*	*	*	*	*	*	*	*	*	*	*	*	*	*	*	*	*	*	*
=40	=40	=40	=40	=40	=40	=40	=40	=40	=40	=40	=40	=40	=40	=40	=40	=40	=40	=40	=40	=40	=40	=40	=40	=40	=40	=40	=40	=40	=40
!	! 3.	!	!	!	!	!LO:PB:g=original	!	!LO:PB:g=original	!	!	!	!	!	!	!	!	!	!	!	!	!	!	!	!	!	!	!	!LO:PB:g=original	!
2GG/	(4f/ 4dd/	.	4.GG/	>	(8g\L	.	8dd\L	>	8ccc\]	.	2G\	por-	.	(4f\	por-	.	(4dd\	por-	.	2.g^<\]	.	2.g^<\_	.	(4dd\	.	(4ff\	.	8ccc\	>
.	.	.	.	.	16a\L	.	8dd\J	.	4bbn\	.	.	.	.	.	.	.	.	.	.	.	.	.	.	.	.	.	.	4bbn\	.
.	.	.	.	.	16bn\JJ	>	.	.	.	.	.	.	.	.	.	.	.	.	.	.	.	.	.	.	.	.	.	.	.
.	4e/ 4cc/	.	.	.	8cc\L)	.	(4cc\	.	.	.	.	.	.	4e-X\)	.	.	4cc\)	.	.	.	.	.	.	4cc\	.	4ee-X\	.	.	.
.	.	.	8G\L	.	8ee-X'\	]	.	.	4aa\	.	.	.	.	.	.	.	.	.	.	.	.	.	.	.	.	.	.	4aa\	.
4G\	4d/) 4bn/	.	8G\	.	8dd'\	.	4bn\	]]	.	.	4G\	-ta	.	4d\	-ta	.	4bn\	-ra	.	.	.	.	.	4bn\)	>	4dd\)	>	.	.
.	.	.	8G\J	]]	8d'\J	.	.	.	[8gg\	.	.	.	.	.	.	.	.	.	.	.	.	.	.	.	.	.	.	[8gg\	]]
=41	=41	=41	=41	=41	=41	=41	=41	=41	=41	=41	=41	=41	=41	=41	=41	=41	=41	=41	=41	=41	=41	=41	=41	=41	=41	=41	=41	=41	=41
2GG/	4c/ 4a/	.	4.GG/	.	(4c\	.	4a\)	>>	8gg\L]	.	4G\	ex	.	4r	.	.	4a\	ex	.	4g\	.	4g\]	.	(4a\	.	(4cc\	.	8gg\L]	.
.	.	.	.	.	.	.	.	.	8ff#X\J	>	.	.	.	.	.	.	.	.	.	.	.	.	.	.	.	.	.	8ff#X\J	>
*	*^	*	*	*	*	*	*	*	*	*	*	*	*	*	*	*	*	*	*	*	*	*	*	*	*	*	*	*	*
.	8g/L	4Bn\	.	.	.	8d\L)	.	8bn\L	.	4.ffn\	.	2G\	qua	.	4Bn\	ex	.	2g\	qua	.	4r	.	4r	.	4bn\	.	4dd\	.	4.ffn\	.
.	8f/J	.	.	8G\L	.	8Bn'\J	.	8dd\J	.	.	.	.	.	.	.	.	.	.	.	.	.	.	.	.	.	.	.	.	.	.
4G\	4e/	4c\	.	8G\	.	4c\	.	4g/	.	.	.	.	.	.	4c\	qua	.	.	.	.	4r	.	4r	.	4cc\)	]	4cc\)	.	.	.
!	!	!	!	!LO:TX:b:i:t=dimin.	!	!	!	!	!	!	!	!	!	!	!	!	!	!	!	!	!	!	!	!	!	!	!	!	!	!
.	.	.	.	8G\J	.	.	.	.	.	[8ee\	.	.	.	.	.	.	.	.	.	.	.	.	.	.	.	.	.	.	8ee\	.
*	*v	*v	*	*	*	*	*	*	*	*	*	*	*	*	*	*	*	*	*	*	*	*	*	*	*	*	*	*	*	*
=42	=42	=42	=42	=42	=42	=42	=42	=42	=42	=42	=42	=42	=42	=42	=42	=42	=42	=42	=42	=42	=42	=42	=42	=42	=42	=42	=42	=42	=42
!	!	!	!	!	!	!	!	!	!	!	!	!	!	!LO:PB:g=original	!	!	!	!	!	!	!	!	!	!	!	!	!	!	!
!	!	!	!	!	!	!	!	!	!	!	!	!	!	!	!	!	!	!	!	!LO:TX:a:t="24."	!	!LO:TX:a:t="24."	!	!	!	!	!	!	!
2GG/	8r	.	4.GG/	.	8r	.	8f/L	.	8ee\]	.	2G\	mun-	.	(4d\	mun-	.	2g\	mun-	.	2.r	.	2.r	.	4r	>	4r	.	8r	.
!	!	!	!	!	!LO:TX:b:i:t=dimin	!	!	!	!	!	!	!	!	!	!	!	!	!	!	!	!	!	!	!	!	!	!	!	!
.	8f/	.	.	.	8a\	.	8f/J	.	4dd\	.	.	.	.	.	.	.	.	.	.	.	.	.	.	.	.	.	.	8dd\	.
*	*^	*	*	*	*	*	*	*	*	*	*	*	*	*	*	*	*	*	*	*	*	*	*	*	*	*	*	*	*
.	(8e/L	4e\	.	.	.	(4g\	.	4e/	.	.	.	.	.	.	4en\)	.	.	.	.	.	.	.	.	.	4e/	.	(4g/	.	8r	.
.	8cc/J	.	.	8G\L	.	.	.	.	.	4cc\	.	.	.	.	.	.	.	.	.	.	.	.	.	.	.	.	.	.	8cc\	.
4G\	8d/L	4d\	.	8G\	.	4f\	.	(4d/	.	.	.	4G\	-do	.	4d\	-do	.	4g\	-do	.	.	.	.	.	(4d/	.	4f/)	.	8r	.
.	8bn/J	.	.	8G\J	.	.	.	.	.	[8bn\	.	.	.	.	.	.	.	.	.	.	.	.	.	.	.	.	.	.	8bn\	.
=43	=43	=43	=43	=43	=43	=43	=43	=43	=43	=43	=43	=43	=43	=43	=43	=43	=43	=43	=43	=43	=43	=43	=43	=43	=43	=43	=43	=43	=43	=43
!	!	!	!	!	!	!	!	!	!	!	!	!	!	!	!	!	!	!	!	!	!	!	!	!	!	!	!LO:PB:G=original	!	!	!
!	!	!	!	!	!	!	!	!	!	!	!	!	!	!	!	!	!	!	!	!	!	!	!	!	!	!	!LO:SIC:v=p jako po	!	!	!
2GG/	8c/L	4c\	.	4.G\	>	4e\	>	4c/	.	8b\]	.	2G\	lux	.	(4c\	lux	.	2g\	lux	.	2.r	.	2.r	.	4c/	.	(4e/	p	8r	.
!	!	!	!	!	!	!	!	!	!	!	!	!	!	!	!	!	!	!	!	!	!	!	!	!	!	!	!	!	!LO:SIC:v=p zapisane po	!
.	8a/J	.	.	.	.	.	.	.	.	4a/	.	.	.	.	.	.	.	.	.	.	.	.	.	.	.	.	.	.	(4aa\	p
.	8Bn/L	4Bn\	.	.	.	4d\	.	4Bn/)	.	.	.	.	.	.	4Bn\)	.	.	.	.	.	.	.	.	.	4Bn/)	.	4d/	.	.	.
.	8g/J	.	.	8G\L	.	.	.	.	.	4g/	.	.	.	.	.	.	.	.	.	.	.	.	.	.	.	.	.	.	4gg\	.
!	!	!	!	!	!	!	!	!	!	!	!	!	!	!	!	!	!	!	!	!	!	!	!	!	!LO:SIC:v=p jako po	!	!	!	!	!
4G\	8A/L	4A\	.	8G\	.	4c\)	]]	4A/	.	.	.	4G\	est	.	4A\	est	.	4f#X\	est	.	.	.	.	.	4A/	p	4c/)	.	.	.
!	!	!	!	!	!	!	!	!	!	!LO:SIC:v=p zapisane jako po	!	!	!	!	!	!	!	!	!	!	!	!	!	!	!	!	!	!	!	!
.	8f#X/J	.	.	8G\J	]]	.	.	.	.	8f#X/	p	.	.	.	.	.	.	.	.	.	.	.	.	.	.	.	.	.	8ff#X\)	.
*	*v	*v	*	*	*	*	*	*	*	*	*	*	*	*	*	*	*	*	*	*	*	*	*	*	*	*	*	*	*	*
=44	=44	=44	=44	=44	=44	=44	=44	=44	=44	=44	=44	=44	=44	=44	=44	=44	=44	=44	=44	=44	=44	=44	=44	=44	=44	=44	=44	=44	=44
!LO:PB:g=original!	!	!	!	!	!LO:PB:g=original	!	!	!	!	!	!	!	!	!	!	!	!	!	!	!	!	!	!	!	!	!	!	!	!
4GG/	4Bn/) 4g/	.	4G\	.	4Bn'/	.	4G/	.	(8a/L	.	4G\	or-	.	4Bn\	or-	.	4g\	or-	.	2.r	.	2.r	.	4G/	.	4Bn/	.	4gg\	.
.	.	.	.	.	.	.	.	.	8g/	.	.	.	.	.	.	.	.	.	.	.	.	.	.	.	.	.	.	.	.
4G\	2r	.	2r	.	4G'/	.	4r	.	8f#X/)	.	4GG/	-ta	.	4B\	-ta	.	4g\	-ta	.	.	.	.	.	4r	.	4r	.	4r	.
.	.	.	.	.	.	.	.	.	8g/J	.	.	.	.	.	.	.	.	.	.	.	.	.	.	.	.	.	.	.	.
4r	.	.	.	.	4r	.	4r	.	(8a/L	.	4r	.	.	4r	.	.	4r	.	.	.	.	.	.	4r	.	4r	.	4r	.
.	.	.	.	.	.	.	.	.	8g/J)	.	.	.	.	.	.	.	.	.	.	.	.	.	.	.	.	.	.	.	.
=45	=45	=45	=45	=45	=45	=45	=45	=45	=45	=45	=45	=45	=45	=45	=45	=45	=45	=45	=45	=45	=45	=45	=45	=45	=45	=45	=45	=45	=45
!	!	!	!	!	!	!	!	!	!	!	!LO:PB:g=original	!	!	!	!	!	!LO:PB:g=original	!	!	!	!	!	!	!	!	!	!	!	!
!	!LO:TX:a:t="1."	!	!LO:SIC:v=pauzy 0r adnotacja "2"	!	!LO:TX:a:t="1."	!	!LO:TX:a:t="1."	!	!	!	!LO:SIC:v=pauzy 00r 00r adnotacja "8"	!	!	!LO:TX:a:t="1"	!LO:N:vis=00	!	!LO:SIC:v=pauzy 00r adnotacja "4"	!	!	!	!	!	!	!LO:SIC:v=pauzy 00r 00r 0r adnotacja "10"	!	!LO:SIC:v=pauzy 00r 00r 0r adnotacja "10"	!	!LO:SIC:v=pauzy 00r 1r adnotacja "5"	!
!	!	!	!	!	!	!	!	!	!	!	!LO:N:vis=00	!	!	!	!	!	!	!	!	!	!	!	!	!	!	!	!	!	!
!	!	!	!LO:N:vis=0	!	!	!	!	!	!	!	!	!	!	!	!	!	!	!	!	!	!	!	!	!LO:N:vis=00	!	!LO:N:vis=00	!	!LO:N:vis=00	!
2.r	2.r	.	1.r	.	2.r	.	2.r	.	(8cc\L	.	0.r	.	.	2.r	.	.	0.r	.	.	2.r	.	2.r	.	0.r	.	0.r	.	0.r	.
.	.	.	.	.	.	.	.	.	8bn\J)	.	.	.	.	.	.	.	.	.	.	.	.	.	.	.	.	.	.	.	.
.	.	.	.	.	.	.	.	.	(8ee\L	.	.	.	.	.	.	.	.	.	.	.	.	.	.	.	.	.	.	.	.
!	!	!	!LO:TX:a:t=2	!	!	!	!	!	!	!	!LO:TX:a:t=8	!	!	!	!	!	!LO:TX:a:t=4	!	!	!	!	!	!	!LO:TX:a:t=10	!	!LO:TX:a:t=10	!	!LO:TX:a:t=5	!
.	.	.	.	.	.	.	.	.	8dd\J)	.	.	.	.	.	.	.	.	.	.	.	.	.	.	.	.	.	.	.	.
.	.	.	.	.	.	.	.	p	(8gg\L	.	.	.	.	.	.	.	.	.	.	.	.	.	.	.	.	.	.	.	.
.	.	.	.	.	.	.	.	.	8ff\J)	.	.	.	.	.	.	.	.	.	.	.	.	.	.	.	.	.	.	.	.
=46	=46	=46	=46	=46	=46	=46	=46	=46	=46	=46	=46	=46	=46	=46	=46	=46	=46	=46	=46	=46	=46	=46	=46	=46	=46	=46	=46	=46	=46
2.r	8c/L	.	.	.	8r	p	2.c/	.	4ee\	.	.	.	.	2c\	gau-	.	.	.	.	2.r	.	2.r	.	.	.	.	.	.	.
.	8G/J	.	.	.	8G/	.	.	.	.	.	.	.	.	.	.	.	.	.	.	.	.	.	.	.	.	.	.	.	.
.	(8e/L	.	.	.	(8e\L	.	.	.	2r	.	.	.	.	.	.	.	.	.	.	.	.	.	.	.	.	.	.	.	.
.	8d/	.	.	.	8d\	.	.	.	.	.	.	.	.	.	.	.	.	.	.	.	.	.	.	.	.	.	.	.	.
.	8c/)	.	.	.	8c\	.	.	.	.	.	.	.	.	4c\	-de	.	.	.	.	.	.	.	.	.	.	.	.	.	.
.	8Bn/J	.	.	.	8Bn\J)	.	.	.	.	.	.	.	.	.	.	.	.	.	.	.	.	.	.	.	.	.	.	.	.
=47	=47	=47	=47	=47	=47	=47	=47	=47	=47	=47	=47	=47	=47	=47	=47	=47	=47	=47	=47	=47	=47	=47	=47	=47	=47	=47	=47	=47	=47
!	!	!	!LO:PB:g=original	!	!	!	!	!	!LO:SIC:v=pauzy 0r adnotacja "2"	!	!	!	!	!	!	!	!	!	!	!	!	!	!	!	!	!	!	!	!
!	!	!	!	!	!	!	!	!	!LO:N:vis=0	!	!	!	!	!	!	!	!	!	!	!	!	!	!	!	!	!	!	!	!
8r	4A/	.	8r	p	[2.A/	.	2.f/	.	1.r	.	.	.	.	2f\	vir-	.	.	.	.	2.r	.	2.r	.	.	.	.	.	.	.
(8D\L	.	.	(8D\L	.	.	.	.	.	.	.	.	.	.	.	.	.	.	.	.	.	.	.	.	.	.	.	.	.	.
8F\	4r	.	8F\	.	.	.	.	.	.	.	.	.	.	.	.	.	.	.	.	.	.	.	.	.	.	.	.	.	.
!	!	!	!	!	!	!	!	!	!LO:TX:a:t=2	!	!	!	!	!	!	!	!	!	!	!	!	!	!	!	!	!	!	!	!
8A\J	.	.	8A\J)	.	.	.	.	.	.	.	.	.	.	.	.	.	.	.	.	.	.	.	.	.	.	.	.	.	.
8d\L)	4r	.	(8d\L	.	.	.	.	.	.	.	.	.	.	4f\	-go	.	.	.	.	.	.	.	.	.	.	.	.	.	.
8c\J	.	.	8c\J)	.	.	.	.	.	.	.	.	.	.	.	.	.	.	.	.	.	.	.	.	.	.	.	.	.	.
=48	=48	=48	=48	=48	=48	=48	=48	=48	=48	=48	=48	=48	=48	=48	=48	=48	=48	=48	=48	=48	=48	=48	=48	=48	=48	=48	=48	=48	=48
4Bn\	8r	.	[2.Bn\	.	8A/L]	.	2.d/	.	.	.	.	.	.	2d\	glo-	.	.	.	.	2.r	.	2.r	.	.	.	.	.	.	.
.	8d/	.	.	.	8F#X/J	.	.	.	.	.	.	.	.	.	.	.	.	.	.	.	.	.	.	.	.	.	.	.	.
!	!	!	!	!	!LO:SIC:v=mixed beam	!	!	!	!	!	!	!	!	!	!	!	!	!	!	!	!	!	!	!	!	!	!	!	!
4r	8G/L	.	.	.	(8G/L	.	.	.	.	.	.	.	.	.	.	.	.	.	.	.	.	.	.	.	.	.	.	.	.
.	(8g/	.	.	.	8g\	.	.	.	.	.	.	.	.	.	.	.	.	.	.	.	.	.	.	.	.	.	.	.	.
4r	8f#X/	.	.	.	8f#X\	.	.	.	.	.	.	.	.	4d\	-ri-	.	.	.	.	.	.	.	.	.	.	.	.	.	.
.	8fn/J)	.	.	.	8fn\J)	.	.	.	.	.	.	.	.	.	.	.	.	.	.	.	.	.	.	.	.	.	.	.	.
=49	=49	=49	=49	=49	=49	=49	=49	=49	=49	=49	=49	=49	=49	=49	=49	=49	=49	=49	=49	=49	=49	=49	=49	=49	=49	=49	=49	=49	=49
!	!	!	!	!	!	!	!	!	!	!	!LO:N:vis=00	!	!	!	!	!	!	!	!	!	!	!	!	!LO:N:vis=00	!	!LO:N:vis=00	!	!	!
8r	4e/	.	8B\L]	.	2e\	.	2c/	.	4r	.	0.r	.	.	2e\	-o-	.	2g\	gau-	.	2.r	.	2.r	.	0.r	.	0.r	.	2.r	.
8c\	.	.	8c\J	.	.	.	.	.	.	.	.	.	.	.	.	.	.	.	.	.	.	.	.	.	.	.	.	.	.
(8F#X\L	4r	.	(8F#X\L	.	.	.	.	.	4r	.	.	.	.	.	.	.	.	.	.	.	.	.	.	.	.	.	.	.	.
8G\J	.	.	8G\J)	.	.	.	.	.	.	.	.	.	.	.	.	.	.	.	.	.	.	.	.	.	.	.	.	.	.
!	!	!	!LO:SIC:v=mixed beam	!	!	!	!	!	!	!	!	!	!	!	!	!	!	!	!	!	!	!	!	!	!	!	!	!	!
8C\L	4e/ 4g/	.	8C'/L	.	[4c\	.	4g/	.	4ee\	.	.	.	.	4c\	-sa	.	4g\	-de	.	.	.	.	.	.	.	.	.	.	.
8c\J)	.	.	8c'\J	.	.	.	.	.	.	.	.	.	.	.	.	.	.	.	.	.	.	.	.	.	.	.	.	.	.
=50	=50	=50	=50	=50	=50	=50	=50	=50	=50	=50	=50	=50	=50	=50	=50	=50	=50	=50	=50	=50	=50	=50	=50	=50	=50	=50	=50	=50	=50
!	!	!	!	!	!	!	!LO:PB:g=original	!	!	!	!	!	!	!LO:PB:g=original	!	!	!	!	!	!	!	!	!	!	!	!	!	!	!
2F\	4f/ 4a/	.	2F\	.	4c\]	.	8a^/	.	(8ee\L	.	.	.	.	4r	.	.	2a\	vir-	.	2.r	.	2.r	.	.	.	.	.	4r	.
.	.	.	.	.	.	.	4a/	.	8ff\J	.	.	.	.	.	.	.	.	.	.	.	.	.	.	.	.	.	.	.	.
.	4r	.	.	.	2f\	.	.	.	8a\L)	.	.	.	.	4f\	su-	.	.	.	.	.	.	.	.	.	.	.	.	2aa\	p
.	.	.	.	.	.	.	4a/	.	8bn'\	.	.	.	.	.	.	.	.	.	.	.	.	.	.	.	.	.	.	.	.
[4Bn\	(4f/ 4a/	.	[4Bn\	.	.	.	.	.	8cc'\	.	.	.	.	4f\	-per	.	4a\	-go	.	.	.	.	.	.	.	.	.	.	.
.	.	.	.	.	.	.	8a/	.	8dd'\J	.	.	.	.	.	.	.	.	.	.	.	.	.	.	.	.	.	.	.	.
=51	=51	=51	=51	=51	=51	=51	=51	=51	=51	=51	=51	=51	=51	=51	=51	=51	=51	=51	=51	=51	=51	=51	=51	=51	=51	=51	=51	=51	=51
!	!	!	!	!	!	!	!	!	!	!	!	!	!	!	!	!	!	!	!	!	!	!	!	!	!	!	!	!LO:PB:g=original	!
4B\]	4e/) 4g/	.	4B\]	.	4Bn/	.	8g/	.	(8dd#X\L	.	.	.	.	2e\	om-	.	2g\	gau-	.	2.r	.	2.r	.	.	.	.	.	4r	.
.	.	.	.	.	.	.	4g/	.	8ee\J	.	.	.	.	.	.	.	.	.	.	.	.	.	.	.	.	.	.	.	.
4E\	4r	.	4E\	.	2e\	.	.	.	8g/L)	.	.	.	.	.	.	.	.	.	.	.	.	.	.	.	.	.	.	2gg\	.
.	.	.	.	.	.	.	4g/	.	8a'/	.	.	.	.	.	.	.	.	.	.	.	.	.	.	.	.	.	.	.	.
[4A\	(4e/ 4g/	.	[4A\	.	.	.	.	.	8bn'/	.	.	.	.	4e\	-nes	.	4g\	-de	.	.	.	.	.	.	.	.	.	.	.
.	.	.	.	.	.	.	8g/	.	8cc'/J	.	.	.	.	.	.	.	.	.	.	.	.	.	.	.	.	.	.	.	.
=52	=52	=52	=52	=52	=52	=52	=52	=52	=52	=52	=52	=52	=52	=52	=52	=52	=52	=52	=52	=52	=52	=52	=52	=52	=52	=52	=52	=52	=52
!LO:LB:g=original	!	!	!	!	!	!	!	!	!	!	!	!	!	!	!	!	!	!	!	!	!	!	!	!	!	!	!	!	!
4A\]	4d/) 4f/	.	4A\]	.	4A/	.	8f/	.	(8cc#X\L	.	.	.	.	2d\	spe-	.	2f/	vir-	.	2.r	.	2.r	.	.	.	.	.	4r	.
.	.	.	.	.	.	.	4f/	.	8dd\J	.	.	.	.	.	.	.	.	.	.	.	.	.	.	.	.	.	.	.	.
4D\	4r	.	4D\	.	2d\	.	.	.	8f/L)	.	.	.	.	.	.	.	.	.	.	.	.	.	.	.	.	.	.	4ff\	.
.	.	.	.	.	.	.	4f/	.	8g/	.	.	.	.	.	.	.	.	.	.	.	.	.	.	.	.	.	.	.	.
4G\	(4d/ 4f/	.	4G\	.	.	.	.	.	8a/	.	.	.	.	4d\	-ci-	.	4f/	-go	.	.	.	.	.	.	.	.	.	4ff\	.
.	.	.	.	.	.	.	8f/	.	8bn/J	.	.	.	.	.	.	.	.	.	.	.	.	.	.	.	.	.	.	.	.
=53	=53	=53	=53	=53	=53	=53	=53	=53	=53	=53	=53	=53	=53	=53	=53	=53	=53	=53	=53	=53	=53	=53	=53	=53	=53	=53	=53	=53	=53
!	!	!	!	!	!	!	!	!	!	!	!	!	!	!	!	!	!	!	!	!	!	!	!	!LO:N:vis=0	!	!LO:N:vis=0	!	!	!
8r	4c/) 4e/	.	8r	.	4c\	.	4e/	.	8cc^<\	.	4r	.	.	4c\	-o-	.	2e/	glo-	.	2.r	.	2.r	.	1.r	.	1.r	.	4ee\	.
8A\	.	.	8A\	.	.	.	.	.	4ccc\	.	.	.	.	.	.	.	.	.	.	.	.	.	.	.	.	.	.	.	.
*	*^	*	*	*	*	*	*	*	*	*	*	*	*	*	*	*	*	*	*	*	*	*	*	*	*	*	*	*	*
8C'\L	4aa/	2cc\	.	8C'\L	.	4r	.	4aa\	.	.	.	4A\	gau-	.	4c\	-sa	.	.	.	.	.	.	.	.	.	.	.	.	4r	.
8D'\	.	.	.	8D'\	.	.	.	.	.	4ccc\	.	.	.	.	.	.	.	.	.	.	.	.	.	.	.	.	.	.	.	.
8E'\	[4dd/	.	.	8E'\	.	4r	.	[4dd\	.	.	.	4A\	-de	.	4r	.	.	4cc\	-ri-	.	.	.	.	.	.	.	.	.	4r	.
8F'\J	.	.	.	8F'\J	.	.	.	.	.	8ccc\	.	.	.	.	.	.	.	.	.	.	.	.	.	.	.	.	.	.	.	.
=54	=54	=54	=54	=54	=54	=54	=54	=54	=54	=54	=54	=54	=54	=54	=54	=54	=54	=54	=54	=54	=54	=54	=54	=54	=54	=54	=54	=54	=54	=54
!	!	!	!	!LO:PB:g=original	!	!	!	!	!	!LO:PB:g=original	!	!	!	!	!	!	!	!	!	!	!	!	!	!	!	!	!	!	!	!
!	!	!	!	!	!	!	!	!	!	!	!	!	!	!	!LO:TX:a:t="1."	!	!	!	!	!	!	!	!	!	!	!	!	!	!LO:SIC:v=pauzy 00r 0r 1r adnotacja "7"	!
!	!	!	!	!	!	!	!	!	!	!	!	!	!	!	!	!	!	!	!	!	!	!	!	!	!	!	!	!	!LO:N:vis=00	!
(8F#X\L	4dd/]	2.bn\	.	(8F#X\L	.	2.r	.	4dd\]	.	8bbn\	.	2G\	vir-	.	2.r	.	.	4bn\	-o-	.	2.r	.	2.r	.	.	.	.	.	0.r	.
8G\J)	.	.	.	8G\J)	.	.	.	.	.	4bb\	.	.	.	.	.	.	.	.	.	.	.	.	.	.	.	.	.	.	.	.
8BBn'/L	4gg/	.	.	8BBn'/L	.	.	.	4gg\	.	.	.	.	.	.	.	.	.	4b\	-sa	.	.	.	.	.	.	.	.	.	.	.
!	!	!	!	!	!	!	!	!	!	!	!	!	!	!	!	!	!	!	!	!	!	!	!	!	!	!	!	!	!LO:TX:a:t=7	!
8C'/	.	.	.	8C'/	.	.	.	.	.	4bb\	.	.	.	.	.	.	.	.	.	.	.	.	.	.	.	.	.	.	.	.
8D'/	[4cc/	.	.	8D'/	.	.	.	[4cc\	.	.	.	4G\	-go	.	.	.	.	4r	.	.	.	.	.	.	.	.	.	.	.	.
8E'/J	.	.	.	8E'/J	.	.	.	.	.	8bb\	.	.	.	.	.	.	.	.	.	.	.	.	.	.	.	.	.	.	.	.
=55	=55	=55	=55	=55	=55	=55	=55	=55	=55	=55	=55	=55	=55	=55	=55	=55	=55	=55	=55	=55	=55	=55	=55	=55	=55	=55	=55	=55	=55	=55
!	!	!	!	!	!	!LO:LB:g=original	!	!	!	!	!	!	!	!	!	!	!	!LO:SIC:v=pauzy 0r adnotacja "2"	!	!	!	!	!	!LO:PB:g=original	!	!	!	!	!	!
!	!	!	!	!	!	!	!	!	!	!	!	!	!	!	!	!	!	!LO:N:vis=0	!	!	!	!	!	!	!	!	!	!	!	!
8Fn\L	4cc/]	2.a\	.	4F\	.	8r	.	4cc\]	.	8aa\	.	4F\	gau-	.	4r	.	.	1.r	.	.	2.r	.	2.r	.	4r	.	4r	.	.	.
8f\J	.	.	.	.	.	8f\	.	.	.	4aa\	.	.	.	.	.	.	.	.	.	.	.	.	.	.	.	.	.	.	.	.
8A'\L	4ff/	.	.	4r	.	8A'/L	.	4ffn\	.	.	.	4F\	-de	.	4f\	gau-	.	.	.	.	.	.	.	.	(4ff'\	.	(4aa'\	p	.	.
!	!	!	!	!	!	!	!	!	!	!	!	!	!	!	!	!	!	!LO:TX:a:t=2	!	!	!	!	!	!	!	!	!	!	!	!
8Bn'\	.	.	.	.	.	8Bn'/	.	.	.	4aa\	.	.	.	.	.	.	.	.	.	.	.	.	.	.	.	.	.	.	.	.
8c'\	[4bn/	.	.	4r	.	8c'/	.	[4bn\	.	.	.	4r	.	.	4f\	-de	.	.	.	.	.	.	.	.	4ff'\)	.	4aa'\)	.	.	.
8d'\J	.	.	.	.	.	8d'/J	.	.	.	8aa\	.	.	.	.	.	.	.	.	.	.	.	.	.	.	.	.	.	.	.	.
=56	=56	=56	=56	=56	=56	=56	=56	=56	=56	=56	=56	=56	=56	=56	=56	=56	=56	=56	=56	=56	=56	=56	=56	=56	=56	=56	=56	=56	=56	=56
!	!	!	!	!LO:TX:a:t="1"	!	!	!	!	!	!	!	!LO:TX:a:t="1"	!	!	!	!	!	!	!	!	!	!	!	!	!	!	!	!	!	!
(8d#X\L	4b/]	2.g\	.	2.r	.	(8d#X\L	.	4b\]	.	8gg\	.	2.r	.	.	2e\	vir-	.	.	.	.	2.r	.	2.r	.	4r	.	4r	.	.	.
8e\J)	.	.	.	.	.	8e\J)	.	.	.	4gg\	.	.	.	.	.	.	.	.	.	.	.	.	.	.	.	.	.	.	.	.
8G'\L	4ee/	.	.	.	.	8G'/L	.	4ee\	.	.	.	.	.	.	.	.	.	.	.	.	.	.	.	.	(4ee'\	.	(4gg'\	.	.	.
8A'\	.	.	.	.	.	8A'/	.	.	.	4gg\	.	.	.	.	.	.	.	.	.	.	.	.	.	.	.	.	.	.	.	.
8Bn'\	[4a/	.	.	.	.	8Bn'/	.	[4a\	.	.	.	.	.	.	4e\	-go	.	.	.	.	.	.	.	.	4ee'\)	.	4gg'\)	.	.	.
8c'\J	.	.	.	.	.	8c'/J	.	.	.	8gg\	.	.	.	.	.	.	.	.	.	.	.	.	.	.	.	.	.	.	.	.
=57	=57	=57	=57	=57	=57	=57	=57	=57	=57	=57	=57	=57	=57	=57	=57	=57	=57	=57	=57	=57	=57	=57	=57	=57	=57	=57	=57	=57	=57	=57
!	!	!	!	!	!	!	!	!	!	!	!	!	!	!	!	!	!	!LO:PB:g=original	!	!	!	!	!	!	!	!	!	!	!	!
2d\	4a/]	4f\	.	2.G\	p	2d\	.	8a\L]	.	8ff\	.	2G\	gau-	.	2d\	glo-	.	4r	.	.	2.r	.	2.r	.	4r	.	4r	.	.	.
.	.	.	.	.	.	.	.	8dd\J	.	4ff\	.	.	.	.	.	.	.	.	.	.	.	.	.	.	.	.	.	.	.	.
.	8f/L	4r	.	.	.	.	.	8f'/L	.	.	.	.	.	.	.	.	.	4ff\	gau-	.	.	.	.	.	(4dd'\	.	(4ff'\	.	.	.
.	8g/	.	.	.	.	.	.	8g'/	.	4ff\	.	.	.	.	.	.	.	.	.	.	.	.	.	.	.	.	.	.	.	.
4G\ 4d\	8a/	4d\	.	.	.	4d\	.	8a'/	.	.	.	4G\	-de	.	4Bn\	-ri-	.	4ff\	-de	.	.	.	.	.	4dd'\)	.	4ff'\)	.	.	.
.	8bn/J	.	.	.	.	.	.	8bn'/J	.	[8ff\	.	.	.	.	.	.	.	.	.	.	.	.	.	.	.	.	.	.	.	.
=58	=58	=58	=58	=58	=58	=58	=58	=58	=58	=58	=58	=58	=58	=58	=58	=58	=58	=58	=58	=58	=58	=58	=58	=58	=58	=58	=58	=58	=58	=58
!	!	!	!	!	!	!	!	!	!	!	!	!	!	!	!	!	!	!	!	!	!	!	!	!	!	!	!	!	!LO:N:vis=0	!
2.C\ 2.c\	4cc/	4e\	.	2.c\	.	4.e\	.	4g/	.	8ff\L]	.	2C/	vir-	.	4c\	-o-	.	2ee\	vir-	.	2.r	.	2.r	.	4cc\	.	4ee\	.	1.r	.
.	.	.	.	.	.	.	.	.	.	8ee\J	.	.	.	.	.	.	.	.	.	.	.	.	.	.	.	.	.	.	.	.
*	*v	*v	*	*	*	*	*	*	*	*	*	*	*	*	*	*	*	*	*	*	*	*	*	*	*	*	*	*	*	*
.	4r	.	.	.	.	.	4r	.	(8g/L	.	.	.	.	4c\	-sa	.	.	.	.	.	.	.	.	4r	.	4r	.	.	.
.	.	.	.	.	(8f\L	.	.	.	8a/	.	.	.	.	.	.	.	.	.	.	.	.	.	.	.	.	.	.	.	.
.	4r	.	.	.	8d\	.	4r	.	8bn/)	.	4C/	-go	.	4r	.	.	4cc\	-go	.	.	.	.	.	4r	.	4r	.	.	.
.	.	.	.	.	8e\J)	.	.	.	8cc/J	.	.	.	.	.	.	.	.	.	.	.	.	.	.	.	.	.	.	.	.
=59	=59	=59	=59	=59	=59	=59	=59	=59	=59	=59	=59	=59	=59	=59	=59	=59	=59	=59	=59	=59	=59	=59	=59	=59	=59	=59	=59	=59	=59
!LO:PB:g=original	!	!	!	!	!	!	!LO:PB:g=original	!	!	!	!	!	!	!LO:PB:g=original	!	!	!	!	!	!	!	!	!	!LO:SIC:v=pauzy 0r 1r adnotacja "3"	!	!LO:TX:a:t="1"	!	!	!
!	!	!	!	!	!	!	!	!	!	!	!	!	!	!	!	!	!	!	!	!	!	!	!	!LO:N:vis=0	!	!	!	!	!
2.AA\ 2.A\	8r	.	2.A\	.	8e\	.	8r	.	[2.cc\	.	2AA/	glo-	.	4r	.	.	2cc\	glo-	.	2.r	.	2.r	.	1.r	.	2.r	.	.	.
.	8Bn/L	.	.	.	4e\	.	(8Bn/L	.	.	.	.	.	.	.	.	.	.	.	.	.	.	.	.	.	.	.	.	.	.
.	8c/	.	.	.	.	.	8c/)	.	.	.	.	.	.	4e\	su-	.	.	.	.	.	.	.	.	.	.	.	.	.	.
!	!	!	!	!	!	!	!	!	!	!	!	!	!	!	!	!	!	!	!	!	!	!	!	!LO:TX:a:t=3	!	!	!	!	!
.	8d/	.	.	.	8d\	.	8d'/	.	.	.	.	.	.	.	.	.	.	.	.	.	.	.	.	.	.	.	.	.	.
*	*^	*	*	*	*	*	*	*	*	*	*	*	*	*	*	*	*	*	*	*	*	*	*	*	*	*	*	*	*
.	8e/	4c\	.	.	.	4c\	.	8e'/	.	.	.	4A\	-ri-	.	4f#X\	-per	.	4cc\	-ri-	.	.	.	.	.	.	.	.	.	.	.
.	8f#X/J	.	.	.	.	.	.	8f#X'/J	.	.	.	.	.	.	.	.	.	.	.	.	.	.	.	.	.	.	.	.	.	.
=60	=60	=60	=60	=60	=60	=60	=60	=60	=60	=60	=60	=60	=60	=60	=60	=60	=60	=60	=60	=60	=60	=60	=60	=60	=60	=60	=60	=60	=60	=60
!	!	!	!	!	!	!	!	!	!	!	!	!LO:PB:g=original	!	!	!	!	!	!	!	!	!	!	!	!	!	!	!LO:PB:g=original	!	!	!
2GG\ 2G\	4g/	4Bn\	.	2G\	.	4G\ 4d\	.	8g/	.	8cc\L]	.	4G\	-o-	.	2g\	om-	.	4cc\	-o-	.	2.r	.	2.r	.	.	.	[2.dd\	p	2.r	.
.	.	.	.	.	.	.	.	4g/	.	8a#X\J	.	.	.	.	.	.	.	.	.	.	.	.	.	.	.	.	.	.	.	.
*	*v	*v	*	*	*	*	*	*	*	*	*	*	*	*	*	*	*	*	*	*	*	*	*	*	*	*	*	*	*	*
.	4r	.	.	.	8r	.	.	.	4bn\	.	4G\	-sa	.	.	.	.	4bn\	-sa	.	.	.	.	.	.	.	.	.	.	.
.	.	.	.	.	8d'\L	.	4g/	.	.	.	.	.	.	.	.	.	.	.	.	.	.	.	.	.	.	.	.	.	.
4FFn\ 4Fn\	4r	.	4F\	.	8Bn'\	.	.	.	[4dd^<\	.	4r	.	.	4g\	-nes	.	4r	.	.	.	.	.	.	.	.	.	.	.	.
.	.	.	.	.	8G'\J	.	8g/	.	.	.	.	.	.	.	.	.	.	.	.	.	.	.	.	.	.	.	.	.	.
=61	=61	=61	=61	=61	=61	=61	=61	=61	=61	=61	=61	=61	=61	=61	=61	=61	=61	=61	=61	=61	=61	=61	=61	=61	=61	=61	=61	=61	=61
!	!	!	!	!	!LO:PB:g=original	!	!	!	!LO:PB:g=original	!	!	!	!	!	!	!	!	!	!	!	!	!	!	!	!	!	!	!	!
2.EE\ 2.E\	4r	.	8E^<\	.	[2.c\	.	4g/	.	8dd\L]	.	4r	.	.	2c\	spe-	.	4r	.	.	2.r	.	2.r	.	2.r	.	8dd\L]	.	[2.gg\	p
.	.	.	4E\	.	.	.	.	.	(8bn\J	.	.	.	.	.	.	.	.	.	.	.	.	.	.	.	.	8bn\J	.	.	.
.	4r	.	.	.	.	.	4r	.	8cc\L)	.	4E\	su-	.	.	.	.	4g\	su-	.	.	.	.	.	.	.	4cc\	.	.	.
.	.	.	4E\	.	.	.	.	.	8b'\	.	.	.	.	.	.	.	.	.	.	.	.	.	.	.	.	.	.	.	.
*	*^	*	*	*	*	*	*	*	*	*	*	*	*	*	*	*	*	*	*	*	*	*	*	*	*	*	*	*	*
.	4ryy	[4g\	.	.	.	.	.	4gg^<\	.	8a'\	.	4E\	-per	.	4c\	-ci-	.	4g\	-per	.	.	.	.	.	.	.	4r	.	.	.
.	.	.	.	8E\	.	.	.	.	.	8g'\J	.	.	.	.	.	.	.	.	.	.	.	.	.	.	.	.	.	.	.	.
=62	=62	=62	=62	=62	=62	=62	=62	=62	=62	=62	=62	=62	=62	=62	=62	=62	=62	=62	=62	=62	=62	=62	=62	=62	=62	=62	=62	=62	=62	=62
!	!	!	!	!LO:PB:g=original	!	!	!	!	!	!	!	!	!	!	!	!	!	!	!	!	!	!	!	!	!	!	!	!	!	!
2.FF\ 2.F\	2.a/	4g\]	.	8F\	.	4c\]	.	8aa\L	.	4f/	.	2F\	om-	.	4c\	-o-	.	2a\	om-	.	2.r	.	2.r	.	4r	.	[2.aa^<\	.	8gg\L]	.
.	.	.	.	4F\	.	.	.	(8ee\J	.	.	.	.	.	.	.	.	.	.	.	.	.	.	.	.	.	.	.	.	8ee\J	.
.	.	4f\	.	.	.	4A/	.	8ff\L)	.	4r	.	.	.	.	4c\	-sa	.	.	.	.	.	.	.	.	4r	.	.	.	4ff\	.
.	.	.	.	4F\	.	.	.	8ee'\	.	.	.	.	.	.	.	.	.	.	.	.	.	.	.	.	.	.	.	.	.	.
.	.	[4a\	.	.	.	4f\	.	8dd'\	.	(4aa^<\	.	4F\	-nes	.	4r	.	.	4a\	-nes	.	.	.	.	.	4cc\	.	.	.	4r	.
.	.	.	.	8F\	.	.	.	8cc'\J	.	.	.	.	.	.	.	.	.	.	.	.	.	.	.	.	.	.	.	.	.	.
=63	=63	=63	=63	=63	=63	=63	=63	=63	=63	=63	=63	=63	=63	=63	=63	=63	=63	=63	=63	=63	=63	=63	=63	=63	=63	=63	=63	=63	=63	=63
!	!	!	!	!	!	!	!	!	!	!	!	!	!	!	!LO:TX:a:t="1"	!	!	!	!	!	!	!	!	!	!	!	!	!	!	!
2.GG\ 2.G\	2b-X/	4a\]	.	8G\	.	(2.G^<\ 2.e\	.	4b-X\	.	8bb-X\L)	.	2G\	spe-	.	2.r	.	.	2b-X\	spe-	.	2.r	.	2.r	.	2.b-X\	<[	8aa\L]	.	[2.bb-^<\	.
.	.	.	.	4G\	.	.	.	.	.	(8ff#X\J	.	.	.	.	.	.	.	.	.	.	.	.	.	.	.	.	8ff#X\J	.	.	.
.	.	4g\	.	.	.	.	.	4r	.	8gg\L)	.	.	.	.	.	.	.	.	.	.	.	.	.	.	.	.	4gg\	.	.	.
.	.	.	.	4G\	.	.	.	.	.	8ee'\	.	.	.	.	.	.	.	.	.	.	.	.	.	.	.	.	.	.	.	.
.	4b-/ 4cc#X/	4e\	.	.	.	.	.	[4bb-^<\	.	8dd'\	.	4G\	-ci-	.	.	.	.	4b-\	-ci-	.	.	.	.	.	.	.	4r	.	.	.
.	.	.	.	8G\	.	.	.	.	.	8cc#X'\J	.	.	.	.	.	.	.	.	.	.	.	.	.	.	.	.	.	.	.	.
=64	=64	=64	=64	=64	=64	=64	=64	=64	=64	=64	=64	=64	=64	=64	=64	=64	=64	=64	=64	=64	=64	=64	=64	=64	=64	=64	=64	=64	=64	=64
!	!	!	!	!	!	!	!	!	!	!	!	!	!	!	!	!	!	!	!	!	!	!	!	!	!	!	!LO:SIC:v=pauzy 00r adnotacja "4"	!	!	!
!	!	!	!	!	!	!	!	!	!	!	!	!	!	!	!	!	!	!	!	!	!	!	!	!	!	!	!LO:N:vis=00	!	!	!
4FF\ 4F\	4dd/	4f\ 4a\	.	4F\	.	8A\) 8f\	.	8bb-\L]	.	4dd\	.	4F\	-o-	.	4r	.	.	4a\	-o-	.	2.r	.	2.r	.	2a/	>	0.r	.	8bb-\L]	.
.	.	.	.	.	.	4f\	.	(8gg#X\J	.	.	.	.	.	.	.	.	.	.	.	.	.	.	.	.	.	.	.	.	8gg#X\J	.
*	*v	*v	*	*	*	*	*	*	*	*	*	*	*	*	*	*	*	*	*	*	*	*	*	*	*	*	*	*	*	*
!	!	!	!	!	!	!	!	!	!	!	!	!	!	!	!	!	!	!	!	!	!	!	!	!	!	!	!LO:TX:a:t=4	!	!
4r	4r	.	4r	.	.	.	8aa\L)	.	4r	.	4F\	-sa	.	4f\	gau-	.	4a\	-sa	.	.	.	.	.	.	.	.	.	4aa\	.
.	.	.	.	.	4f\	.	8ff'\	.	.	.	.	.	.	.	.	.	.	.	.	.	.	.	.	.	.	.	.	.	.
4r	(4f/ 4a-X/	.	4r	.	.	.	8dd'\	.	(4a-X/	.	4r	.	.	4f\	-de	.	4r	.	.	.	.	.	.	4a-X/	]	.	.	4r	.
.	.	.	.	.	8f\	.	8bn'\J	.	.	.	.	.	.	.	.	.	.	.	.	.	.	.	.	.	.	.	.	.	.
=65	=65	=65	=65	=65	=65	=65	=65	=65	=65	=65	=65	=65	=65	=65	=65	=65	=65	=65	=65	=65	=65	=65	=65	=65	=65	=65	=65	=65	=65
!	!	!	!	!	!	!	!	!	!	!	!	!	!	!	!	!	!LO:PB:g=original	!	!	!	!	!	!	!LO:PB:g=original	!	!	!	!LO:PB:g=original	!
!	!	!	!LO:SIC:v=pauzy 0r adnotacja "2"	!	!	!	!	!	!	!	!LO:SIC:v=pauzy 0r adnotacja "2"	!	!	!	!	!	!LO:SIC:v=pauzy 0r adnotacja "2"	!	!	!	!	!	!	!	!	!	!	!LO:SIC:v=pauzy 0r 1r adnotacja "3"	!
!	!	!	!LO:N:vis=0	!	!	!	!	!	!	!	!LO:N:vis=0	!	!	!	!	!	!LO:N:vis=0	!	!	!	!	!	!	!	!	!	!	!LO:N:vis=3	!
2.r	4e-X/) 4g/	.	1.r	.	8e-X\	.	4cc\	.	8g/)	.	1.r	.	.	2e-X\	vir-	.	1.r	.	.	2.r	.	2.r	.	(2g/	.	.	.	1.r	.
.	.	.	.	.	4e-\	.	.	.	(8ff#X\L	.	.	.	.	.	.	.	.	.	.	.	.	.	.	.	.	.	.	.	.
.	4r	.	.	.	.	.	4r	.	8gg\	.	.	.	.	.	.	.	.	.	.	.	.	.	.	.	.	.	.	.	.
!	!	!	!LO:TX:a:t=2	!	!	!	!	!	!	!	!LO:TX:a:t=2	!	!	!	!	!	!LO:TX:a:t=2	!	!	!	!	!	!	!	!	!	!	!	!
.	.	.	.	.	4e-\	.	.	.	8ee-X'\)	.	.	.	.	.	.	.	.	.	.	.	.	.	.	.	.	.	.	.	.
.	4e-/ 4g-/	.	.	.	.	.	4g-X/	.	8cc'\	.	.	.	.	4e-\	-go	.	.	.	.	.	.	.	.	4g-X/	.	.	.	.	.
.	.	.	.	.	8e-\	.	.	.	8a'\J	.	.	.	.	.	.	.	.	.	.	.	.	.	.	.	.	.	.	.	.
=66	=66	=66	=66	=66	=66	=66	=66	=66	=66	=66	=66	=66	=66	=66	=66	=66	=66	=66	=66	=66	=66	=66	=66	=66	=66	=66	=66	=66	=66
*	*	*	*	*	*	*	*	*	*	*	*	*	*	*	*	*	*	*	*	*^	*	*^	*	*	*	*	*	*	*
!	!	!	!	!	!	!	!	!	!	!	!	!	!	!	!	!	!	!	!	!LO:SIC:v= nuty opisane "viol" mała czcionką	!	!	!LO:SIC:v= nuty opisane "viol" mała czcionką	!	!	!	!	!	!	!	!
2.r	2.d-X/ 2.f/	.	.	.	8d-X\	.	8f/	.	4b-\	.	.	.	.	2d-X\	glo-	.	.	.	.	8r	2.r	.	8r	2.r	.	4f/)	.	.	.	.	.
*	*	*	*	*	*	*	*	*	*	*	*	*	*	*	*	*	*	*	*	*cue	*	*	*cue	*	*	*	*	*	*	*	*
!	!	!	!	!	!	!	!	!	!	!	!	!	!	!	!	!	!	!	!	!LO:TX:a:t=Viol:	!	!	!LO:TX:a:t=Viol:	!	!	!	!	!	!	!	!
.	.	.	.	.	4d-\	.	(8ee\L	.	.	.	.	.	.	.	.	.	.	.	.	8a/L	.	.	8a/L	.	.	.	.	.	.	.	.
.	.	.	.	.	.	.	8ff\)	.	4r	.	.	.	.	.	.	.	.	.	.	8b-/	.	.	8b-/	.	.	4r	.	.	.	.	.
.	.	.	.	.	4d-\	.	8ee-X'\	.	.	.	.	.	.	.	.	.	.	.	.	8a-X/	.	.	8a-X/	.	.	.	.	.	.	.	.
.	.	.	.	.	.	.	8dd-X'\	.	[4f/	.	.	.	.	4d-\	-ri-	.	.	.	.	8g-X/	.	.	8g-X/	.	.	4r	.	.	.	.	.
.	.	.	.	.	8d-\	<	8cc'\J	.	.	.	.	.	.	.	.	.	.	.	.	8f/J	.	p	8f/J	.	p	.	.	.	.	.	.
*	*	*	*	*	*	*	*	*	*	*	*	*	*	*	*	*	*	*	*	*v	*v	*	*	*	*	*	*	*	*	*	*
*	*	*	*	*	*	*	*	*	*	*	*	*	*	*	*	*	*	*	*	*	*	*v	*v	*	*	*	*	*	*	*
=67	=67	=67	=67	=67	=67	=67	=67	=67	=67	=67	=67	=67	=67	=67	=67	=67	=67	=67	=67	=67	=67	=67	=67	=67	=67	=67	=67	=67	=67
*	*	*	*	*	*	*	*	*	*	*	*	*	*	*	*	*	*	*	*	*Xcue	*	*Xcue	*	*	*	*	*	*	*
!	!	!	!LO:LB:g=original	!	!	!	!LO:PB:g=original	!	!LO:PB:g=original	!	!	!	!	!	!	!	!	!	!	!	!	!	!	!	!	!	!	!	!
!	!	!	!	!	!	!	!LO:SIC:v= wszystkie półnuty maja laski z prawej strony	!	!LO:SIC:v=mixed beam	!	!	!	!	!	!	!	!	!	!	!	!	!	!	!LO:TX:a:t="1."	!	!	!	!	!
2.D-X\ 2.d-X\	2.f/ 2.bn/	.	2.D-X\	<	8d-X\ 8f\	.	2.bn\	<[	8f/L]	.	2D-X\	gau-	.	2d-X\	-o-	.	4r	.	.	2.F/	<[	2.f\	<[	2.r	.	.	.	2.r	.
.	.	.	.	.	4d-\ 4f\	.	.	.	8aa-X\J	<	.	.	.	.	.	.	.	.	.	.	.	.	.	.	.	.	.	.	.
.	.	.	.	.	.	.	.	.	(8gg\L	.	.	.	.	.	.	.	4bn\	gu-	.	.	.	.	.	.	.	.	.	.	.
.	.	.	.	.	4d-\ 4f\	.	.	.	8ff\	.	.	.	.	.	.	.	.	.	.	.	.	.	.	.	.	.	.	.	.
.	.	.	.	.	.	.	.	.	8ee\	.	4D-\	-de	.	4f\	-sa	.	4b\	-de	.	.	.	.	.	.	.	.	.	.	.
!	!	!	!	!	!	!	!LO:SIC:v=f zapisane jako fo	!	!	!	!	!	!	!	!	!	!	!	!	!	!	!	!	!	!	!	!	!	!
.	.	.	.	[	8d-\ 8f\	[	.	f	8ff\J)	[	.	.	.	.	.	.	.	.	.	.	.	.	.	.	.	.	.	.	.
=68	=68	=68	=68	=68	=68	=68	=68	=68	=68	=68	=68	=68	=68	=68	=68	=68	=68	=68	=68	=68	=68	=68	=68	=68	=68	=68	=68	=68	=68
!LO:PB:g=original	!	!	!	!	!	!	!	!	!	!	!LO:PB:g=original	!	!	!	!	!	!	!	!	!LO:PB:g=original	!	!	!	!	!	!	!	!	!
!	!	!	!LO:SIC:v=f zapisane fo	!	!LO:SIC:v=f zapisane fo.	!	!	!	!	!	!LO:SIC:v=dynamika f zapisan jako fo	!	!	!	!	!	!	!	!	!LO:SIC:v=f jako fo	!	!LO:SIC:v=f jako fo	!	!LO:SIC:v=f jako fo	!	!LO:SIC:v=f zapisane fo	!	!LO:SIC:v=f zapisane fo	!
2.C\ [2.c\	[2.e/ 2.cc/	.	4C\	f	4c\ 4g\	f	8e\ 8cc\	.	8ee\	.	2.C/	gau-	f	2.en^\	gau-	.	2.cc^\	gau-	.	2C/	f	2c/	f	[2.g/	f	[2.ee\	f	4.ccc\	f
!	!	!	!	!	!	!	!	!	!LO:SIC:v=f zapisane jako fo	!	!	!	!	!	!	!	!	!	!	!	!	!	!	!	!	!	!	!	!
.	.	.	.	.	.	.	4e\ 4cc\	.	(8bbn\L	f	.	.	.	.	.	.	.	.	.	.	.	.	.	.	.	.	.	.	.
.	.	.	[2C\	.	[2c\ [2g\	.	.	.	8ccc\	.	.	.	.	.	.	.	.	.	.	.	.	.	.	.	.	.	.	.	.
.	.	.	.	.	.	.	4e\ 4cc\	.	8gg'\)	.	.	.	.	.	.	.	.	.	.	.	.	.	.	.	.	.	.	8gg'\L	.
.	.	.	.	.	.	.	.	.	8ee'\	.	.	.	.	.	.	.	.	.	.	4c/	>	4g\	.	.	.	.	.	8ee'\	.
.	.	.	.	.	.	.	8e\ 8cc\	>	8cc'\J	.	.	.	.	.	.	.	.	.	.	.	.	.	.	.	.	.	.	8cc'\J	.
=69	=69	=69	=69	=69	=69	=69	=69	=69	=69	=69	=69	=69	=69	=69	=69	=69	=69	=69	=69	=69	=69	=69	=69	=69	=69	=69	=69	=69	=69
!	!	!	!	!	!	!	!	!	!	!	!	!	!	!LO:PB:g=original	!	!	!	!	!	!	!	!LO:PB:g=original	!	!	!	!	!	!	!
!	!	!	!	!	!	!	!	!	!	!	!	!	!	!	!	!	!	!	!	!	!	!	!	!	!	!	!	!LO:SIC:v=pauzy 00r adnotacja "4"	!
!	!	!	!	!	!	!	!	!	!	!	!	!	!	!	!	!	!	!	!	!	!	!	!	!	!	!	!	!LO:N:vis=00	!
8C\ 8c\]	8e/] 8cc/	.	8C/]	.	8c\] 8g\]	.	8e\ 8cc\	.	8b-X\	>	4C/	-de	.	4e\	-de	.	4cc\	-de	.	(2.c/	.	(2.g\	>	4g/]	.	4ee\]	.	0.r	.
!	!	!	!	!	!LO:SIC:v=mixed beam	!	!	!	!	!	!	!	!	!	!	!	!	!	!	!	!	!	!	!	!	!	!	!	!
(8A\L	(8a/L	.	(8A\L	>	(8A/L	.	4c/ 4e/	]	4g/ 4b-/	.	.	.	.	.	.	.	.	.	.	.	]	.	.	.	.	.	.	.	.
!	!	!	!	!	!	!	!	!	!	!	!	!	!	!	!	!	!	!	!	!	!	!	!	!	!	!	!	!LO:TX:a:t=4	!
8B-X\)	8b-X/)	.	8B-\)	]	8B-/)	.	.	.	.	.	4r	.	.	2r	.	.	4r	.	.	.	.	.	.	4r	.	4r	.	.	.
8G'\	8g'/	.	8G'\	.	8G'/	.	4c/ 4e/	.	4g/ 4b-/	.	.	.	.	.	.	.	.	.	.	.	.	.	.	.	.	.	.	.	.
8E'\	8e'/	.	8E'\	.	8e'\	.	.	.	.	.	4r	.	.	.	.	.	4r	.	.	.	.	.	.	4r	.	4r	.	.	.
!	!	!	!	!	!	!	!LO:SIC:v=p zapisane jako po	!	!	!	!	!	!	!	!	!	!	!	!	!	!	!	!	!	!	!	!	!	!
8C'\J	8c'/J	.	8C'\J	.	8c'\J	.	8c/ 8e/	p	8g/ 8b-/	]]	.	.	.	.	.	.	.	.	.	.	.	.	.	.	.	.	.	.	.
=70	=70	=70	=70	=70	=70	=70	=70	=70	=70	=70	=70	=70	=70	=70	=70	=70	=70	=70	=70	=70	=70	=70	=70	=70	=70	=70	=70	=70	=70
!	!	!	!	!	!	!	!	!	!	!	!LO:SIC:v=pauzy 0r adnotacja "2"	!	!	!LO:TX:a:t="1"	!	!	!	!	!	!	!	!	!	!	!	!	!	!	!
!	!	!	!	!	!LO:SIC:v=p zapisane po	!	!	!	!	!	!LO:N:vis=00	!	!	!	!	!	!	!	!	!	!	!	!	!LO:SIC:v=p jako  po	!	!	!	!	!
4F\	2.f/	.	4F\	.	2.f\	p	16c/ 16f/	.	8f/ 8a/	.	0.r	.	.	2.r	.	.	4f/	va-	.	4F/)	p	4a\)	.	2.f/	p	2.a\	p	.	.
.	.	.	.	.	.	.	16ff'\LL	.	.	.	.	.	.	.	.	.	.	.	.	.	.	.	.	.	.	.	.	.	.
!	!	!	!	!	!	!	!LO:TX:b:i:t=  staccato.	!	!	!	!LO:TX:a:t=8	!	!	!	!	!	!	!	!	!	!	!	!	!	!	!	!	!	!
.	.	.	.	.	.	.	16aa'\	.	8r	.	.	.	.	.	.	.	.	.	.	.	.	.	.	.	.	.	.	.	.
.	.	.	.	.	.	.	16gg'\JJ	.	.	.	.	.	.	.	.	.	.	.	.	.	.	.	.	.	.	.	.	.	.
4r	.	.	4r	.	.	.	16ff'\LL	.	4r	.	.	.	.	.	.	.	4f/	-le	.	4r	.	4r	]	.	.	.	.	.	.
.	.	.	.	.	.	.	16ee'\	.	.	.	.	.	.	.	.	.	.	.	.	.	.	.	.	.	.	.	.	.	.
.	.	.	.	.	.	.	16dd'\	.	.	.	.	.	.	.	.	.	.	.	.	.	.	.	.	.	.	.	.	.	.
.	.	.	.	.	.	.	16cc'\JJ	.	.	.	.	.	.	.	.	.	.	.	.	.	.	.	.	.	.	.	.	.	.
4r	.	.	4r	.	.	.	16b-'/LL	.	4r	.	.	.	.	.	.	.	4f/	o	.	4r	.	4r	.	.	.	.	.	.	.
.	.	.	.	.	.	.	16a'/	.	.	.	.	.	.	.	.	.	.	.	.	.	.	.	.	.	.	.	.	.	.
.	.	.	.	.	.	.	16g'/	.	.	.	.	.	.	.	.	.	.	.	.	.	.	.	.	.	.	.	.	.	.
.	.	.	.	.	.	.	16f'/JJ	.	.	.	.	.	.	.	.	.	.	.	.	.	.	.	.	.	.	.	.	.	.
=71	=71	=71	=71	=71	=71	=71	=71	=71	=71	=71	=71	=71	=71	=71	=71	=71	=71	=71	=71	=71	=71	=71	=71	=71	=71	=71	=71	=71	=71
!	!	!	!LO:TX:b:i:t=pizzicato	!	!	!	!	!	!	!	!	!	!	!	!	!	!	!	!	!LO:TX:a:t="1"	!	!LO:TX:a:t="1"	!	!	!	!	!	!	!
!	!	!	!	!	!	!	!	!	!	!	!	!	!	!LO:SIC:v=dynamika p zapisna po	!	!	!	!	!	!	!	!	!	!	!	!	!	!	!
2.B-\	2.d/ 2.b-/	.	4BB-/	.	2.B-/	.	8dd'\	.	16r	.	.	.	.	4d\	va-	p	4b-\	val-	.	2.r	.	2.r	.	2.d/	.	2.b-\	.	.	.
!	!	!	!	!	!	!	!	!	!LO:SIC:v=p zapisane jako po.	!	!	!	!	!	!	!	!	!	!	!	!	!	!	!	!	!	!	!	!
.	.	.	.	.	.	.	.	.	16bb-'\LL	p	.	.	.	.	.	.	.	.	.	.	.	.	.	.	.	.	.	.	.
.	.	.	.	.	.	.	8r	.	16ddd'\	.	.	.	.	.	.	.	.	.	.	.	.	.	.	.	.	.	.	.	.
!	!	!	!	!	!	!	!	!	!LO:TX:b:t=staccato.	!	!	!	!	!	!	!	!	!	!	!	!	!	!	!	!	!	!	!	!
.	.	.	.	.	.	.	.	.	16ccc'\JJ	.	.	.	.	.	.	.	.	.	.	.	.	.	.	.	.	.	.	.	.
.	.	.	4r	.	.	.	4r	.	16bb-'\LL	.	.	.	.	4d\	-le	.	4b-\	-de	.	.	.	.	.	.	.	.	.	.	.
.	.	.	.	.	.	.	.	.	16aa'\	.	.	.	.	.	.	.	.	.	.	.	.	.	.	.	.	.	.	.	.
.	.	.	.	.	.	.	.	.	16gg'\	.	.	.	.	.	.	.	.	.	.	.	.	.	.	.	.	.	.	.	.
.	.	.	.	.	.	.	.	.	16ff#X'\JJ	.	.	.	.	.	.	.	.	.	.	.	.	.	.	.	.	.	.	.	.
.	.	.	4r	.	.	.	4r	.	16gg'\LL	.	.	.	.	4d\	o	.	4b-\	de-	.	.	.	.	.	.	.	.	.	.	.
.	.	.	.	.	.	.	.	.	16aa'\	.	.	.	.	.	.	.	.	.	.	.	.	.	.	.	.	.	.	.	.
.	.	.	.	.	.	.	.	.	16bb-'\	.	.	.	.	.	.	.	.	.	.	.	.	.	.	.	.	.	.	.	.
.	.	.	.	.	.	.	.	.	16gg'\JJ	.	.	.	.	.	.	.	.	.	.	.	.	.	.	.	.	.	.	.	.
=72	=72	=72	=72	=72	=72	=72	=72	=72	=72	=72	=72	=72	=72	=72	=72	=72	=72	=72	=72	=72	=72	=72	=72	=72	=72	=72	=72	=72	=72
!	!	!	!	!	!	!	!	!	!LO:PB:g=original	!	!	!	!	!	!	!	!	!	!	!	!	!	!	!	!	!LO:PB:g=original	!	!	!
2.c\	2.e/ 2.g/	.	4C/	.	2.c\	.	16r	.	8ee'\	.	.	.	.	4e\	val-	.	2.g\	-co-	.	2.c/	p	[2.c/	p	2.e/	.	2.g/	.	.	.
.	.	.	.	.	.	.	16cc'\LL	.	.	.	.	.	.	.	.	.	.	.	.	.	.	.	.	.	.	.	.	.	.
.	.	.	.	.	.	.	16gg'\	.	8r	.	.	.	.	.	.	.	.	.	.	.	.	.	.	.	.	.	.	.	.
.	.	.	.	.	.	.	16ff'\JJ	.	.	.	.	.	.	.	.	.	.	.	.	.	.	.	.	.	.	.	.	.	.
.	.	.	4r	.	.	.	16ee'\LL	.	4r	.	.	.	.	4e\	-de	.	.	.	.	.	.	.	.	.	.	.	.	.	.
.	.	.	.	.	.	.	16dd'\	.	.	.	.	.	.	.	.	.	.	.	.	.	.	.	.	.	.	.	.	.	.
.	.	.	.	.	.	.	16cc'\	.	.	.	.	.	.	.	.	.	.	.	.	.	.	.	.	.	.	.	.	.	.
.	.	.	.	.	.	.	16b-'\JJ	.	.	.	.	.	.	.	.	.	.	.	.	.	.	.	.	.	.	.	.	.	.
.	.	.	4C/	.	.	.	16a'\LL	.	4r	.	.	.	.	4e\	de-	.	.	.	.	.	.	.	.	.	.	.	.	.	.
.	.	.	.	.	.	.	16g'\	.	.	.	.	.	.	.	.	.	.	.	.	.	.	.	.	.	.	.	.	.	.
.	.	.	.	.	.	.	16cc'\	.	.	.	.	.	.	.	.	.	.	.	.	.	.	.	.	.	.	.	.	.	.
.	.	.	.	.	.	.	16b-'\JJ	.	.	.	.	.	.	.	.	.	.	.	.	.	.	.	.	.	.	.	.	.	.
=73	=73	=73	=73	=73	=73	=73	=73	=73	=73	=73	=73	=73	=73	=73	=73	=73	=73	=73	=73	=73	=73	=73	=73	=73	=73	=73	=73	=73	=73
2F\	2f/ 2a/	.	4F\	.	2F/	.	8a'\	.	16r	.	.	.	.	4f\	-co-	.	4a\	-ra	.	2F/	.	2c/]	.	4f/	.	4a/	.	4r	.
.	.	.	.	.	.	.	.	.	16c'/LL	.	.	.	.	.	.	.	.	.	.	.	.	.	.	.	.	.	.	.	.
.	.	.	.	.	.	.	8r	.	16a'/	.	.	.	.	.	.	.	.	.	.	.	.	.	.	.	.	.	.	.	.
.	.	.	.	.	.	.	.	.	16f'/JJ	.	.	.	.	.	.	.	.	.	.	.	.	.	.	.	.	.	.	.	.
.	.	.	4r	.	.	.	4r	.	16cc'\LL	.	.	.	.	4f\	-ra	.	4r	.	.	.	.	.	.	4r	.	4cc\	.	4r	.
.	.	.	.	.	.	.	.	.	16a'\	.	.	.	.	.	.	.	.	.	.	.	.	.	.	.	.	.	.	.	.
.	.	.	.	.	.	.	.	.	16ff'\	.	.	.	.	.	.	.	.	.	.	.	.	.	.	.	.	.	.	.	.
.	.	.	.	.	.	.	.	.	16cc'\JJ	.	.	.	.	.	.	.	.	.	.	.	.	.	.	.	.	.	.	.	.
4f\	4a\ 4cc\	.	4r	.	4f\	.	4r	.	16aa'\LL	.	.	.	.	4r	.	.	4f\	o	.	4r	.	4r	.	4a/	.	4ff\	.	4ccc\	p
.	.	.	.	.	.	.	.	.	16ee'\	.	.	.	.	.	.	.	.	.	.	.	.	.	.	.	.	.	.	.	.
.	.	.	.	.	.	.	.	.	16gg'\	.	.	.	.	.	.	.	.	.	.	.	.	.	.	.	.	.	.	.	.
.	.	.	.	.	.	.	.	.	16ff'\JJ	.	.	.	.	.	.	.	.	.	.	.	.	.	.	.	.	.	.	.	.
=74	=74	=74	=74	=74	=74	=74	=74	=74	=74	=74	=74	=74	=74	=74	=74	=74	=74	=74	=74	=74	=74	=74	=74	=74	=74	=74	=74	=74	=74
!	!	!	!LO:PB:g=original	!	!	!	!LO:PB:g=original	!	!	!	!	!	!	!	!	!	!LO:PB:g=original	!	!	!	!	!	!	!LO:PB:g=original	!	!	!	!	!
!	!	!	!	!	!	!	!	!	!	!	!LO:N:vis=00	!	!	!	!	!	!	!	!	!LO:SIC:v=pauzy 0r adnotacja "2"	!	!LO:SIC:v=pauzy 0r adnotacja "2"	!	!	!	!	!	!	!
!	!	!	!	!	!	!	!	!	!	!	!	!	!	!	!	!	!	!	!	!LO:N:vis=0	!	!LO:N:vis=0	!	!	!	!	!	!	!
2B-\	4b-\ 4dd\	.	4B-\	.	2B-/	.	16r	.	8dd'\	.	0.r	.	.	4r	.	.	2.dd\	val-	.	1.r	.	1.r	.	2.b-\	.	4r	.	8ddd^<\	.
.	.	.	.	.	.	.	16dd'\LL	.	.	.	.	.	.	.	.	.	.	.	.	.	.	.	.	.	.	.	.	.	.
.	.	.	.	.	.	.	(16a\	.	8r	.	.	.	.	.	.	.	.	.	.	.	.	.	.	.	.	.	.	4ddd\	.
.	.	.	.	.	.	.	16b-\JJ	.	.	.	.	.	.	.	.	.	.	.	.	.	.	.	.	.	.	.	.	.	.
.	4r	.	4r	.	.	.	16d/LL)	.	4r	.	.	.	.	4r	.	.	.	.	.	.	.	.	.	.	.	4ff\	.	.	.
.	.	.	.	.	.	.	16c#X'/	.	.	.	.	.	.	.	.	.	.	.	.	.	.	.	.	.	.	.	.	.	.
!	!	!	!	!	!	!	!	!	!	!	!	!	!	!	!	!	!	!	!	!LO:TX:a:t=2	!	!LO:TX:a:t=2	!	!	!	!	!	!	!
.	.	.	.	.	.	.	16d'/	.	.	.	.	.	.	.	.	.	.	.	.	.	.	.	.	.	.	.	.	4ddd\	.
.	.	.	.	.	.	.	16e'/JJ	.	.	.	.	.	.	.	.	.	.	.	.	.	.	.	.	.	.	.	.	.	.
4e\	(4b-\ 4dd\	.	4E\	.	4e\	.	16f#X'/LL	.	4r	.	.	.	.	4B-\	o	.	.	.	.	.	.	.	.	.	.	[4gg\	.	.	.
.	.	.	.	.	.	.	16g'/	.	.	.	.	.	.	.	.	.	.	.	.	.	.	.	.	.	.	.	.	.	.
.	.	.	.	.	.	.	16a'/	.	.	.	.	.	.	.	.	.	.	.	.	.	.	.	.	.	.	.	.	8ddd\	.
.	.	.	.	.	.	.	16b-X'/JJ	.	.	.	.	.	.	.	.	.	.	.	.	.	.	.	.	.	.	.	.	.	.
=75	=75	=75	=75	=75	=75	=75	=75	=75	=75	=75	=75	=75	=75	=75	=75	=75	=75	=75	=75	=75	=75	=75	=75	=75	=75	=75	=75	=75	=75
2A\	4a\) 4cc\	.	4A\	.	2A/	.	8cc'\	.	16r	.	.	.	.	2A\	val-	.	2cc\	-de	.	.	.	.	.	2.a/	.	4gg\]	.	8ccc\	.
.	.	.	.	.	.	.	.	.	16ccc'\LL	.	.	.	.	.	.	.	.	.	.	.	.	.	.	.	.	.	.	.	.
.	.	.	.	.	.	.	8r	.	(16gg#X\	.	.	.	.	.	.	.	.	.	.	.	.	.	.	.	.	.	.	4ccc\	.
.	.	.	.	.	.	.	.	.	16aa\JJ	.	.	.	.	.	.	.	.	.	.	.	.	.	.	.	.	.	.	.	.
.	4r	.	4r	.	.	.	4r	.	16ff\LL)	.	.	.	.	.	.	.	.	.	.	.	.	.	.	.	.	[2ff\	.	.	.
.	.	.	.	.	.	.	.	.	16cc'\	.	.	.	.	.	.	.	.	.	.	.	.	.	.	.	.	.	.	.	.
.	.	.	.	.	.	.	.	.	16dd'\	.	.	.	.	.	.	.	.	.	.	.	.	.	.	.	.	.	.	4ccc\	.
.	.	.	.	.	.	.	.	.	16ee'\JJ	.	.	.	.	.	.	.	.	.	.	.	.	.	.	.	.	.	.	.	.
4d\	4a\ 4cc\	.	4D\	.	4d\	.	4r	.	16ff'\LL	.	.	.	.	4A\	-de	.	4cc\	o	.	.	.	.	.	.	.	.	.	.	.
.	.	.	.	.	.	.	.	.	16gg#'\	.	.	.	.	.	.	.	.	.	.	.	.	.	.	.	.	.	.	.	.
.	.	.	.	.	.	.	.	.	16aa'\	.	.	.	.	.	.	.	.	.	.	.	.	.	.	.	.	.	.	8ccc\	.
.	.	.	.	.	.	.	.	.	16ff'\JJ	.	.	.	.	.	.	.	.	.	.	.	.	.	.	.	.	.	.	.	.
=76	=76	=76	=76	=76	=76	=76	=76	=76	=76	=76	=76	=76	=76	=76	=76	=76	=76	=76	=76	=76	=76	=76	=76	=76	=76	=76	=76	=76	=76
!	!	!	!	!	!LO:PB:g=original	!	!	!	!	!	!	!	!	!	!	!	!	!	!	!	!	!	!	!	!	!	!	!	!
4G\	2g/ 2b-/	.	4G\	.	4G/	.	16r	.	8bb-\	.	.	.	.	4G/	val-	.	4cc\	val-	.	4r	.	4r	.	2g/	.	4ff\]	.	8bb-\	.
.	.	.	.	.	.	.	16b-'/LL	.	.	.	.	.	.	.	.	.	.	.	.	.	.	.	.	.	.	.	.	.	.
.	.	.	.	.	.	.	(16f#X/	.	8r	.	.	.	.	.	.	.	.	.	.	.	.	.	.	.	.	.	.	4bb-\	.
.	.	.	.	.	.	.	16g/JJ	.	.	.	.	.	.	.	.	.	.	.	.	.	.	.	.	.	.	.	.	.	.
4c\	.	.	4C\	.	4c\	.	16e/LL)	.	4r	.	.	.	.	4G/	-de	.	4b-\	-de	.	4c/	.	4g\	.	.	.	4ee\	.	.	.
.	.	.	.	.	.	.	16c'/	.	.	.	.	.	.	.	.	.	.	.	.	.	.	.	.	.	.	.	.	.	.
.	.	.	.	.	.	.	16d'/	.	.	.	.	.	.	.	.	.	.	.	.	.	.	.	.	.	.	.	.	4bb-\	.
.	.	.	.	.	.	.	16e'/JJ	.	.	.	.	.	.	.	.	.	.	.	.	.	.	.	.	.	.	.	.	.	.
4F\	4f/ 4a/	.	4F\	.	4F/	.	16fn'/LL	.	4r	.	.	.	.	4F/	de-	.	4a\	de-	.	4f\	.	4a\	.	4f/	.	4ff\	.	.	.
.	.	.	.	.	.	.	16g'/	.	.	.	.	.	.	.	.	.	.	.	.	.	.	.	.	.	.	.	.	.	.
.	.	.	.	.	.	.	16a'/	.	.	.	.	.	.	.	.	.	.	.	.	.	.	.	.	.	.	.	.	8aa\	.
.	.	.	.	.	.	.	16b-'/JJ	.	.	.	.	.	.	.	.	.	.	.	.	.	.	.	.	.	.	.	.	.	.
=77	=77	=77	=77	=77	=77	=77	=77	=77	=77	=77	=77	=77	=77	=77	=77	=77	=77	=77	=77	=77	=77	=77	=77	=77	=77	=77	=77	=77	=77
!	!	!	!	!	!	!	!	!	!LO:LB:g=original	!	!	!	!	!LO:PB:g=original	!	!	!	!	!	!	!	!	!	!	!	!	!	!LO:PB:g=original	!
2c\	(4f/ 4a/	.	4C/	.	4c\	.	8cc\	.	16r	.	.	.	.	4c\	-co-	.	4a\	-co-	.	(4f\	.	(4a\	.	2cc\	.	(4ff\	.	(4aa\	.
.	.	.	.	.	.	.	.	.	(16bbn\LL	.	.	.	.	.	.	.	.	.	.	.	.	.	.	.	.	.	.	.	.
.	.	.	.	.	.	.	8r	.	16ccc\)	.	.	.	.	.	.	.	.	.	.	.	.	.	.	.	.	.	.	.	.
.	.	.	.	.	.	.	.	.	16aa'\JJ	.	.	.	.	.	.	.	.	.	.	.	.	.	.	.	.	.	.	.	.
.	4e/) 4g/	.	4c\	.	4C/	.	4r	.	16gg'\LL	.	.	.	.	4c\	-ra	.	4g\	-ra,	.	4c/)	.	4g\)	.	.	.	4ee\)	.	4gg\)	.
.	.	.	.	.	.	.	.	.	16ff'\	.	.	.	.	.	.	.	.	.	.	.	.	.	.	.	.	.	.	.	.
!	!	!	!	!	!	!	!LO:SIC:v=f zapisane fo.	!	!	!	!	!	!	!	!	!	!	!	!	!	!	!	!	!	!	!	!	!	!
.	.	.	.	.	.	.	.	f	16ee'\	.	.	.	.	.	.	.	.	.	.	.	.	.	.	.	.	.	.	.	.
.	.	.	.	.	.	.	.	.	16dd'\JJ	.	.	.	.	.	.	.	.	.	.	.	.	.	.	.	.	.	.	.	.
4r	4r	.	4r	.	4r	.	4r	.	16cc\LL	.	.	.	.	4r	.	.	4r	.	.	4r	.	4r	.	4r	.	4r	.	4r	.
.	.	.	.	.	.	.	.	.	16b-X\	.	.	.	.	.	.	.	.	.	.	.	.	.	.	.	.	.	.	.	.
.	.	.	.	.	.	.	.	.	16a\	.	.	.	.	.	.	.	.	.	.	.	.	.	.	.	.	.	.	.	.
.	.	.	.	.	.	.	.	.	16g\JJ	.	.	.	.	.	.	.	.	.	.	.	.	.	.	.	.	.	.	.	.
=78	=78	=78	=78	=78	=78	=78	=78	=78	=78	=78	=78	=78	=78	=78	=78	=78	=78	=78	=78	=78	=78	=78	=78	=78	=78	=78	=78	=78	=78
!LO:PB:g=original	!	!	!	!	!	!	!	!	!	!	!	!	!	!	!	!	!	!	!	!LO:PB:g=original	!	!	!	!	!	!	!	!	!
!	!LO:SIC:v=dynamika f zapisana jako for	!LO:DY:b	!	!LO:SIC:v=f zapisane for	!	!	!	!	!	!	!LO:TX:a:t=tutti	!	!	!LO:TX:a:t=tutti	!	!	!LO:TX:a:t=tutti	!	!	!	!	!	!	!	!	!	!	!	!
!	!	!	!LO:SIC:v=f zapisane for	!	!	!	!	!	!	!	!	!	!	!	!	!	!	!	!	!LO:SIC:v=f jako fo	!	!LO:SIC:v=f jako fo	!	!LO:SIC:v=f jako fo.	!	!LO:SIC:v=f zapisane for.	!	!LO:SIC:v=f zapisane for	!
16r	2.f\ 2.a\ 2.cc\ 2.ff\	f	16r	f	16r	f	8A/ 8f/ 8cc/	.	8f/L	ff	2.F\	Va-	.	(4A\	va-	.	2.ff\	Va-	.	2F/	f	2.f\	f	2.a\	f	2.ff\	f	2.fff\	f
16F\LL	.	.	16F'\LL	.	16f'\LL	.	.	.	.	.	.	.	.	.	.	.	.	.	.	.	.	.	.	.	.	.	.	.	.
!	!	!	!LO:TX:b:i:t=arco	!	!	!	!	!	!	!	!	!	!	!	!	!	!	!	!	!	!	!	!	!	!	!	!	!	!
16A\	.	.	16A'\	.	16a'\	.	8r	.	8a/J 8ff/	.	.	.	.	.	.	.	.	.	.	.	.	.	.	.	.	.	.	.	.
16G\JJ	.	.	16G'\JJ	.	16g'\JJ	.	.	.	.	.	.	.	.	.	.	.	.	.	.	.	.	.	.	.	.	.	.	.	.
16F\LL	.	.	16F'\LL	.	16f'\LL	.	8A/ 8f/ 8cc/	.	8r	.	.	.	.	4c\)	.	.	.	.	.	.	.	.	.	.	.	.	.	.	.
16E\	.	.	16E'\	.	16e'\	.	.	.	.	.	.	.	.	.	.	.	.	.	.	.	.	.	.	.	.	.	.	.	.
16D\	.	.	16D'\	.	16d'\	.	8r	.	8f'\ 8cc\ 8aa\	.	.	.	.	.	.	.	.	.	.	.	.	.	.	.	.	.	.	.	.
16C\JJ	.	.	16C'\JJ	.	16c'\JJ	.	.	.	.	.	.	.	.	.	.	.	.	.	.	.	.	.	.	.	.	.	.	.	.
16BB-/LL	.	.	16BB-'/LL	.	16B-'/LL	.	8A/ 8f/ 8cc/	.	8r	.	.	.	.	4f\	-le	.	.	.	.	4f\	.	.	.	.	.	.	.	.	.
16AA/	.	.	16AA'/	.	16A'/	.	.	.	.	.	.	.	.	.	.	.	.	.	.	.	.	.	.	.	.	.	.	.	.
16GG/	.	.	16GG'/	.	16G'/	.	8r	.	8f'\ 8a\ 8ff\	.	.	.	.	.	.	.	.	.	.	.	.	.	.	.	.	.	.	.	.
16FF/JJ	.	.	16FF'/JJ	.	16F'/JJ	.	.	.	.	.	.	.	.	.	.	.	.	.	.	.	.	.	.	.	.	.	.	.	.
=79	=79	=79	=79	=79	=79	=79	=79	=79	=79	=79	=79	=79	=79	=79	=79	=79	=79	=79	=79	=79	=79	=79	=79	=79	=79	=79	=79	=79	=79
!	!	!	!	!	!	!	!	!	!	!	!	!	!	!	!	!	!	!	!	!	!	!LO:PB:g=original	!	!	!	!	!	!	!
16BB-/	2.f\ 2.b-\ 2.dd\	.	16BB-/	.	16B-'/	.	8B-/ 8d/ 8b-/	.	8r	.	2BB-/	-le	.	4f\	va-	.	2dd\	-le	.	2f\	.	2.f^<\	.	2.b-\	.	2.ff\	.	2.ddd\	.
16B-\LL	.	.	16B-\LL	.	16B-'/LL	.	.	.	.	.	.	.	.	.	.	.	.	.	.	.	.	.	.	.	.	.	.	.	.
16d\	.	.	16d\	.	16d'/	.	8r	.	8B-/ 8f/ 8dd/	.	.	.	.	.	.	.	.	.	.	.	.	.	.	.	.	.	.	.	.
16c\JJ	.	.	16c\JJ	.	16c'/JJ	.	.	.	.	.	.	.	.	.	.	.	.	.	.	.	.	.	.	.	.	.	.	.	.
16B-\LL	.	.	16B-\LL	.	16B-/LL	.	8B-/ 8d/ 8b-/	.	8r	.	.	.	.	4f\	-le	.	.	.	.	.	.	.	.	.	.	.	.	.	.
16c\	.	.	16c\	.	16c/	.	.	.	.	.	.	.	.	.	.	.	.	.	.	.	.	.	.	.	.	.	.	.	.
16B-\	.	.	16B-\	.	16B-/	.	8r	.	8B-/ 8f/ 8dd/	.	.	.	.	.	.	.	.	.	.	.	.	.	.	.	.	.	.	.	.
16A\JJ	.	.	16A\JJ	.	16A/JJ	.	.	.	.	.	.	.	.	.	.	.	.	.	.	.	.	.	.	.	.	.	.	.	.
16G\LL	.	.	16G\LL	.	16G/LL	.	8B-/ 8d/ 8b-/	.	8r	.	4BB-/	o	.	4f\	o	.	4dd\	o	.	4r	.	.	.	.	.	.	.	.	.
16A\	.	.	16A\	.	16A/	.	.	.	.	.	.	.	.	.	.	.	.	.	.	.	.	.	.	.	.	.	.	.	.
16G\	.	.	16G\	.	16G/	.	8r	.	8B-/ 8f/ 8dd/	.	.	.	.	.	.	.	.	.	.	.	.	.	.	.	.	.	.	.	.
16F\JJ	.	.	16F\JJ	.	16F/JJ	.	.	.	.	.	.	.	.	.	.	.	.	.	.	.	.	.	.	.	.	.	.	.	.
=80	=80	=80	=80	=80	=80	=80	=80	=80	=80	=80	=80	=80	=80	=80	=80	=80	=80	=80	=80	=80	=80	=80	=80	=80	=80	=80	=80	=80	=80
!	!	!	!LO:PB:g=original	!	!	!	!LO:PB:g=original	!	!	!	!	!	!	!	!	!	!	!	!	!	!	!	!	!	!	!	!	!	!
16E\LL	2.g\ 2.b-\ 2.cc\	.	16E\LL	.	16E/LL	.	8G/ 8e/ 8cc/	.	8r	.	4C/	val-	.	4e\	val-	.	4cc\	val-	.	4r	.	4r	.	2.b-^<\	.	2.gg\	.	2ccc\	.
16F\	.	.	16F\	.	16F/	.	.	.	.	.	.	.	.	.	.	.	.	.	.	.	.	.	.	.	.	.	.	.	.
16G\	.	.	16G\	.	16G/	.	8r	.	8G/ 8e/ 8cc/	.	.	.	.	.	.	.	.	.	.	.	.	.	.	.	.	.	.	.	.
16E\JJ	.	.	16E\JJ	.	16E/JJ	.	.	.	.	.	.	.	.	.	.	.	.	.	.	.	.	.	.	.	.	.	.	.	.
16C\LL	.	.	16C\LL	.	16C/LL	.	8G/ 8e/ 8cc/	.	8r	.	4C/	-de	.	4e\	-de	.	4ee\	-de	.	4c/	.	4g'\	.	.	.	.	.	.	.
16c\	.	.	16c\	.	16c/	.	.	.	.	.	.	.	.	.	.	.	.	.	.	.	.	.	.	.	.	.	.	.	.
16Bn\	.	.	16Bn\	.	16Bn/	.	8r	.	8e\ 8cc\ 8bb-\	.	.	.	.	.	.	.	.	.	.	.	.	.	.	.	.	.	.	.	.
16c\JJ	.	.	16c\JJ	.	16c/JJ	.	.	.	.	.	.	.	.	.	.	.	.	.	.	.	.	.	.	.	.	.	.	.	.
16E\LL	.	.	16E\LL	.	16E/LL	.	8G/ 8e/ 8cc/	.	8r	.	4c\	de-	.	4c\	de-	.	4gg\	de-	.	4c/	.	4g'\	.	.	.	.	.	4ggg\	.
16c\	.	.	16c\	.	16c/	.	.	.	.	.	.	.	.	.	.	.	.	.	.	.	.	.	.	.	.	.	.	.	.
16B\	.	.	16B\	.	16B/	.	8r	.	8e\ 8cc\ 8bb-\	.	.	.	.	.	.	.	.	.	.	.	.	.	.	.	.	.	.	.	.
16c\JJ	.	.	16c\JJ	.	16c/JJ	.	.	.	.	.	.	.	.	.	.	.	.	.	.	.	.	.	.	.	.	.	.	.	.
=81	=81	=81	=81	=81	=81	=81	=81	=81	=81	=81	=81	=81	=81	=81	=81	=81	=81	=81	=81	=81	=81	=81	=81	=81	=81	=81	=81	=81	=81
!	!	!	!	!	!LO:PB:g=original	!	!	!	!	!	!	!	!	!	!	!	!LO:PB:g=original	!	!	!	!	!	!	!	!	!LO:PB:g=original	!	!	!
16F\LL	2.f\ 2.a\ 2.cc\	.	16F\LL	.	16F/LL	.	8A/ 8f/ 8cc/	.	8r	.	4F\	-co-	.	4c\	-co-	.	4aa\	-co-	.	4F'/	.	4a'\	.	4a\	.	4ff'\	.	4aaa'\	.
16A\	.	.	16A\	.	16A/	.	.	.	.	.	.	.	.	.	.	.	.	.	.	.	.	.	.	.	.	.	.	.	.
16c\	.	.	16c\	.	16c/	.	8r	.	8f\ 8cc\ 8aa\	.	.	.	.	.	.	.	.	.	.	.	.	.	.	.	.	.	.	.	.
16A\JJ	.	.	16A\JJ	.	16A/JJ	.	.	.	.	.	.	.	.	.	.	.	.	.	.	.	.	.	.	.	.	.	.	.	.
(16F\LL	.	.	(16f\LL	.	(16f\LL	.	8f\ 8a\ 8ff\	.	8r	.	4F\	-ra	.	4A\	-ra	.	4ff\	-ra	.	4A'/	.	4f'\	.	4r	.	4aa'\	.	4fff'\	.
16E\	.	.	16e\	.	16e\	.	.	.	.	.	.	.	.	.	.	.	.	.	.	.	.	.	.	.	.	.	.	.	.
16F\)	.	.	16f\)	.	16f\)	.	8r	.	8f\ 8cc\ 8aa\	.	.	.	.	.	.	.	.	.	.	.	.	.	.	.	.	.	.	.	.
16C'\JJ	.	.	16c'\JJ	.	16c'\JJ	.	.	.	.	.	.	.	.	.	.	.	.	.	.	.	.	.	.	.	.	.	.	.	.
16AA/LL	.	.	16A'\LL	.	16A'/LL	.	8f\ 8a\ 8ff\	.	8r	.	4r	.	.	4r	.	.	4r	.	.	4r	.	4r	.	4r	.	4r	.	4r	.
16C/	.	.	16c'\	.	16c'/	.	.	.	.	.	.	.	.	.	.	.	.	.	.	.	.	.	.	.	.	.	.	.	.
16AA/	.	.	16A'\	.	16A'/	.	8r	.	8f\ 8cc\ 8aa\	.	.	.	.	.	.	.	.	.	.	.	.	.	.	.	.	.	.	.	.
16FF/JJ	.	.	16F'\JJ	.	16F'/JJ	.	.	.	.	.	.	.	.	.	.	.	.	.	.	.	.	.	.	.	.	.	.	.	.
=82	=82	=82	=82	=82	=82	=82	=82	=82	=82	=82	=82	=82	=82	=82	=82	=82	=82	=82	=82	=82	=82	=82	=82	=82	=82	=82	=82	=82	=82
!LO:PB:g=original	!	!	!	!	!	!	!	!	!	!LO:PB:g=original	!	!LO:PB:g=original	!	!	!	!	!	!	!	!	!	!	!	!	!	!	!	!	!
*	*^	*	*	*	*	*	*	*	*	*	*	*	*	*	*	*	*	*	*	*	*	*	*	*	*	*	*	*	*
!	!	!	!	!LO:SIC:v=mixed beam	!	!	!	!	!	!	!	!	!	!	!	!	!	!	!	!	!LO:SIC:v=pauzy 0r adnotacja "2"	!	!LO:SIC:v=pauzy 0r adnotacja "2"	!	!	!	!	!	!	!
!	!	!	!	!	!	!	!	!	!	!	!	!	!	!	!	!	!	!	!	!	!LO:N:vis=0	!	!LO:N:vis=0	!	!	!	!	!	!	!
16BB-/	2.b-/ 2.dd/	2f\	.	16BB-/LL	.	16B-/	.	8B-/ 8g/ 8dd/	.	8r	.	2B-\	va-	.	4r	.	.	4dd\	va-	.	1.r	.	1.r	.	2.b-\	.	2.dd\	.	4r	.
16B-\LL	.	.	.	16B-\	.	16B-/LL	.	.	.	.	.	.	.	.	.	.	.	.	.	.	.	.	.	.	.	.	.	.	.	.
16A\	.	.	.	16A\	.	16A/	.	8b-'\L	.	4dd\ 4ddd\	.	.	.	.	.	.	.	.	.	.	.	.	.	.	.	.	.	.	.	.
16B-\JJ	.	.	.	16B-\JJ	.	16B-/JJ	.	.	.	.	.	.	.	.	.	.	.	.	.	.	.	.	.	.	.	.	.	.	.	.
16d\LL	.	.	.	16d\LL	.	16d/LL	.	8ff'\	.	.	.	.	.	.	4d\	va-	.	4dd\	-le	.	.	.	.	.	.	.	.	.	4ddd\	.
16B-\	.	.	.	16B-\	.	16B-/	.	.	.	.	.	.	.	.	.	.	.	.	.	.	.	.	.	.	.	.	.	.	.	.
16A\	.	.	.	16A\	.	16A/	.	8dd'\J	.	4dd\ 4ddd\	.	.	.	.	.	.	.	.	.	.	.	.	.	.	.	.	.	.	.	.
16B-\JJ	.	.	.	16B-\JJ	.	16B-/JJ	.	.	.	.	.	.	.	.	.	.	.	.	.	.	.	.	.	.	.	.	.	.	.	.
!	!	!	!	!	!	!LO:SIC:v=mixed beam	!	!LO:SIC:v=mixed beam	!	!	!	!	!	!	!	!	!	!	!	!	!LO:TX:a:t=2	!	!LO:TX:a:t=2	!	!	!	!	!	!	!
16E\LL	.	[4g\	.	16E\LL	.	16E\LL	.	8bb-\L	.	.	.	4En\	-le	.	4g\	-le	.	4dd\	o	.	.	.	.	.	.	.	.	.	[4ggg\	.
16e\	.	.	.	16e\	.	16e/	.	.	.	.	.	.	.	.	.	.	.	.	.	.	.	.	.	.	.	.	.	.	.	.
16d\	.	.	.	16d\	.	16d/	.	8g/J	.	8ddd\	.	.	.	.	.	.	.	.	.	.	.	.	.	.	.	.	.	.	.	.
16e\JJ	.	.	.	16e\JJ	.	16e/JJ	.	.	.	.	.	.	.	.	.	.	.	.	.	.	.	.	.	.	.	.	.	.	.	.
=83	=83	=83	=83	=83	=83	=83	=83	=83	=83	=83	=83	=83	=83	=83	=83	=83	=83	=83	=83	=83	=83	=83	=83	=83	=83	=83	=83	=83	=83	=83
!	!	!	!	!	!	!	!	!	!	!	!	!	!	!	!	!	!	!	!	!	!	!	!	!	!LO:PB:g=original	!	!	!	!	!
16r	2.a/ 2.cc/	2g\]	.	16r	.	16r	.	8r	.	8ccc\	.	4A\	va-	.	4g\	va-	.	4cc\	val-	.	.	.	.	.	2.a/	.	2.cc\	.	4ggg\]	.
16A\LL	.	.	.	16A\LL	.	16A/LL	.	.	.	.	.	.	.	.	.	.	.	.	.	.	.	.	.	.	.	.	.	.	.	.
16G\	.	.	.	16G\	.	16G/	.	8a`\L	.	4ccc\	.	.	.	.	.	.	.	.	.	.	.	.	.	.	.	.	.	.	.	.
16A\JJ	.	.	.	16A\JJ	.	16A/JJ	.	.	.	.	.	.	.	.	.	.	.	.	.	.	.	.	.	.	.	.	.	.	.	.
16c\LL	.	.	.	16c\LL	.	16c/LL	.	8ee`\	.	.	.	4A\	-le	.	4c\	-le	.	4cc\	-de	.	.	.	.	.	.	.	.	.	4ccc\	.
16A\	.	.	.	16A\	.	16A/	.	.	.	.	.	.	.	.	.	.	.	.	.	.	.	.	.	.	.	.	.	.	.	.
16G\	.	.	.	16G\	.	16G/	.	8cc`\J	.	4ccc\	.	.	.	.	.	.	.	.	.	.	.	.	.	.	.	.	.	.	.	.
16A\JJ	.	.	.	16A\JJ	.	16A/JJ	.	.	.	.	.	.	.	.	.	.	.	.	.	.	.	.	.	.	.	.	.	.	.	.
!	!	!	!	!	!	!LO:SIC:v=mixed beam	!	!LO:SIC:v=mixed beam	!	!	!	!	!	!	!	!	!	!	!	!	!	!	!	!	!	!	!	!	!	!
16D\LL	.	[4f\	.	16D\LL	.	16D\LL	.	8aa\L	.	.	.	4D\	o	.	4f\	o	.	4cc\	de-	.	.	.	.	.	.	.	.	.	[4fff\	.
16d\	.	.	.	16d\	.	16d/	.	.	.	.	.	.	.	.	.	.	.	.	.	.	.	.	.	.	.	.	.	.	.	.
16c\	.	.	.	16c\	.	16c/	.	8f/J	.	8ccc\	.	.	.	.	.	.	.	.	.	.	.	.	.	.	.	.	.	.	.	.
16d\JJ	.	.	.	16d\JJ	.	16d/JJ	.	.	.	.	.	.	.	.	.	.	.	.	.	.	.	.	.	.	.	.	.	.	.	.
=84	=84	=84	=84	=84	=84	=84	=84	=84	=84	=84	=84	=84	=84	=84	=84	=84	=84	=84	=84	=84	=84	=84	=84	=84	=84	=84	=84	=84	=84	=84
!	!	!	!	!LO:PB:g=original	!	!	!	!	!	!	!	!	!	!	!LO:PB:g=original	!	!	!	!	!	!	!	!	!	!	!	!	!	!	!
16r	2.g/ 2.b-/	2f\]	.	16r	.	16r	.	8r	.	8bb-\	.	4G\	val-	.	4f\	val-	.	2.b-\	-co-	.	4r	.	4r	.	2g/	.	2b-\	.	4fff\]	.
16G\LL	.	.	.	16G\LL	.	16G/LL	.	.	.	.	.	.	.	.	.	.	.	.	.	.	.	.	.	.	.	.	.	.	.	.
16F#X\	.	.	.	16F#X\	.	16F#X/	.	8g\L	.	4bb-\	.	.	.	.	.	.	.	.	.	.	.	.	.	.	.	.	.	.	.	.
16G\JJ	.	.	.	16G\JJ	.	16G/JJ	.	.	.	.	.	.	.	.	.	.	.	.	.	.	.	.	.	.	.	.	.	.	.	.
16B-\LL	.	.	.	16B-\LL	.	16B-/LL	.	8dd\	.	.	.	4G\	-de	.	4B-X\	-de	.	.	.	.	4r	.	4r	.	.	.	.	.	4bb-X\	.
16G\	.	.	.	16G\	.	16G/	.	.	.	.	.	.	.	.	.	.	.	.	.	.	.	.	.	.	.	.	.	.	.	.
16F#\	.	.	.	16F#\	.	16F#/	.	8b-\J	.	4bb-\	.	.	.	.	.	.	.	.	.	.	.	.	.	.	.	.	.	.	.	.
16G\JJ	.	.	.	16G\JJ	.	16G/JJ	.	.	.	.	.	.	.	.	.	.	.	.	.	.	.	.	.	.	.	.	.	.	.	.
!	!	!	!	!	!	!LO:SIC:v=mixed beam	!	!LO:SIC:v=mixed beam	!	!	!	!	!	!	!	!	!	!	!	!	!	!	!	!	!	!	!	!	!	!
16C\LL	.	4e\	.	16C\LL	.	16C/LL	.	8gg\L	.	.	.	4C/	de-	.	4e\	de-	.	.	.	.	4C/	.	4c/	.	4b-/	.	4gg\	.	4eee\	.
16c\	.	.	.	16c\	.	16c\	.	.	.	.	.	.	.	.	.	.	.	.	.	.	.	.	.	.	.	.	.	.	.	.
16Bn\	.	.	.	16Bn\	.	16Bn\	.	8e/J	.	8bb-\	.	.	.	.	.	.	.	.	.	.	.	.	.	.	.	.	.	.	.	.
16c\JJ	.	.	.	16c\JJ	.	16c\JJ	.	.	.	.	.	.	.	.	.	.	.	.	.	.	.	.	.	.	.	.	.	.	.	.
=85	=85	=85	=85	=85	=85	=85	=85	=85	=85	=85	=85	=85	=85	=85	=85	=85	=85	=85	=85	=85	=85	=85	=85	=85	=85	=85	=85	=85	=85	=85
!	!	!	!	!	!	!LO:PB:g=original	!	!	!	!	!	!	!	!	!	!	!	!	!	!	!	!	!	!	!	!	!	!	!LO:PB:g=original	!
16C\LL	2a/	2.f\	.	16r	.	16C/LL	.	8r	.	8aa\	.	2C/	-co-	.	(2f\	-co-	.	4a\	-ra	.	4C/	.	4c/	.	2a/	<	(2.ff^<\	.	2fff\	.
16c\	.	.	.	16c\LL	.	16c/	.	.	.	.	.	.	.	.	.	.	.	.	.	.	.	.	.	.	.	.	.	.	.	.
16Bn\	.	.	.	16Bn\	.	16Bn/	.	8f\L	.	4a^<\ 4aa\	.	.	.	.	.	.	.	.	.	.	.	.	.	.	.	.	.	.	.	.
16c\JJ	.	.	.	16c\JJ	.	16c/JJ	.	.	.	.	.	.	.	.	.	.	.	.	.	.	.	.	.	.	.	.	.	.	.	.
16d\LL	.	.	.	16d\LL	.	16d\LL	.	8cc\	.	.	.	.	.	.	.	.	.	4r	.	.	4r	.	4r	.	.	.	.	.	.	.
16c\	.	.	.	16c\	.	16c\	.	.	.	.	.	.	.	.	.	.	.	.	.	.	.	.	.	.	.	.	.	.	.	.
16B\	.	.	.	16B\	.	16B\	.	8a/J	.	8aa'\L	.	.	.	.	.	.	.	.	.	.	.	.	.	.	.	.	.	.	.	.
16c\JJ	.	.	.	16c\JJ	.	16c\JJ	.	.	.	.	.	.	.	.	.	.	.	.	.	.	.	.	.	.	.	.	.	.	.	.
!	!	!	!	!	!	!	!	!LO:SIC:v=mixed beam	!	!	!	!	!	!	!	!	!	!	!	!	!	!	!	!	!	!	!	!	!	!
16C\LL	4bn/	.	.	16C\LL	.	16C/LL	.	8ff\L	.	8bbn'\	.	4c\	.	.	4d\)	.	.	4bn\	o	.	4C/	.	4c/	.	4bn/	[[	.	.	4bbn\	.
16c\	.	.	.	16c\	.	16c/	.	.	.	.	.	.	.	.	.	.	.	.	.	.	.	.	.	.	.	.	.	.	.	.
16C\	.	.	.	16C\	.	16C/	.	8d/J	.	8bb'\J	.	.	.	.	.	.	.	.	.	.	.	.	.	.	.	.	.	.	.	.
16c\JJ	.	.	.	16c\JJ	.	16c/JJ	.	.	.	.	.	.	.	.	.	.	.	.	.	.	.	.	.	.	.	.	.	.	.	.
=86	=86	=86	=86	=86	=86	=86	=86	=86	=86	=86	=86	=86	=86	=86	=86	=86	=86	=86	=86	=86	=86	=86	=86	=86	=86	=86	=86	=86	=86	=86
!LO:PB:g=original	!	!	!	!	!	!	!	!	!	!	!	!	!	!	!	!	!	!	!	!	!	!	!	!	!	!	!	!	!	!
!	!LO:SIC:v= takty 86-9 - brak kawałka rękopisu	!	!	!	!	!	!	!	!	!LO:SIC:v=p zapisane jako po	!	!	!	!	!	!	!	!LO:TX:a:t=Solo	!	!	!	!	!	!	!	!	!	!	!	!
!	!	!	!	!	!	!	!	!	!	!	!	!	!	!	!	!	!	!	!	!	!LO:SIC:v=p jako po	!	!LO:SIC:v=p jako po	!	!	!	!	!	!	!
2.ryy	4cc/	4e\	.	4C/	.	8C/	.	8e/	.	16ccc'\	p	4C/	-ra	.	4e\	-ra	.	4cc\	va-	.	[2.C/	p	[2.c/	p	4cc\	.	4ee\)	.	4ccc\	.
.	.	.	.	.	.	.	.	.	.	(16ccc\LL	.	.	.	.	.	.	.	.	.	.	.	.	.	.	.	.	.	.	.	.
.	.	.	.	.	.	8c'\L	p	8r	p	16bbn\	.	.	.	.	.	.	.	.	.	.	.	.	.	.	.	.	.	.	.	.
.	.	.	.	.	.	.	.	.	.	16ccc\JJ	.	.	.	.	.	.	.	.	.	.	.	.	.	.	.	.	.	.	.	.
*	*v	*v	*	*	*	*	*	*	*	*	*	*	*	*	*	*	*	*	*	*	*	*	*	*	*	*	*	*	*	*
.	8cc'\L	.	4r	.	8cc'\	.	[4a\	.	16ddd\LL	.	4r	.	.	4r	.	.	16dd\LL	.	.	.	.	.	.	4r	.	4r	.	4r	.
.	.	.	.	.	.	.	.	.	16ccc\	.	.	.	.	.	.	.	16cc\	.	.	.	.	.	.	.	.	.	.	.	.
.	8a'\J	.	.	.	8a'\J	.	.	.	16bb\	.	.	.	.	.	.	.	16bn\	.	.	.	.	.	.	.	.	.	.	.	.
.	.	.	.	.	.	.	.	.	16ccc\JJ)	.	.	.	.	.	.	.	16cc\JJ	.	.	.	.	.	.	.	.	.	.	.	.
!	!	!	!	!	!	!	!	!	!	!	!	!	!	!LO:TX:a:t=Solo	!	!	!	!	!	!	!	!	!	!	!	!	!	!	!
.	4f#X/	.	4r	.	(4f#X^<\	.	16a\LL]	.	4ddd\	.	4r	.	.	4f#X\	o	.	[4dd\	.	.	.	.	.	.	4r	.	4r	.	4r	.
.	.	.	.	.	.	.	16dd\	.	.	.	.	.	.	.	.	.	.	.	.	.	.	.	.	.	.	.	.	.	.
.	.	.	.	.	.	.	16cc\	.	.	.	.	.	.	.	.	.	.	.	.	.	.	.	.	.	.	.	.	.	.
.	.	.	.	.	.	.	16dd\JJ	.	.	.	.	.	.	.	.	.	.	.	.	.	.	.	.	.	.	.	.	.	.
=87	=87	=87	=87	=87	=87	=87	=87	=87	=87	=87	=87	=87	=87	=87	=87	=87	=87	=87	=87	=87	=87	=87	=87	=87	=87	=87	=87	=87	=87
!	!	!	!	!	!	!	!LO:PB:g=original	!	!LO:PB:g=original	!	!	!	!	!	!	!	!LO:PB:g=original	!	!	!LO:PB:g=original	!	!	!	!	!	!	!	!	!
!	!	!	!LO:SIC:v=pauzy 0r 1r adnotacja "3"	!	!	!	!	!	!	!	!LO:SIC:v=pauzy 0r adnotacja "2"	!	!	!	!	!	!	!	!	!	!	!	!	!LO:SIC:v=pauzy 00r 0r adnotacja "6"	!	!LO:SIC:v=pauzy 00r 1r adnotacja "5"	!	!LO:SIC:v=pauzy 00r 0r adnotacja "6"	!
!	!	!	!LO:N:vis=0	!	!	!	!	!	!	!	!LO:N:vis=0	!	!	!	!	!	!	!	!	!	!	!	!	!LO:N:vis=00	!	!LO:N:vis=00	!	!LO:N:vis=6	!
2.ryy	4g/	.	1.r	.	8g\)	.	8b-\	.	16r	.	1.r	.	.	4g\	va-	.	8dd\L]	.	.	2.C/_	.	2.c/_	.	0.r	.	0.r	.	0.r	.
.	.	.	.	.	.	.	.	.	(16bb-X\LL	.	.	.	.	.	.	.	.	.	.	.	.	.	.	.	.	.	.	.	.
.	.	.	.	.	8d'\L	.	8r	.	16aa\	.	.	.	.	.	.	.	8b-X\J	.	.	.	.	.	.	.	.	.	.	.	.
.	.	.	.	.	.	.	.	.	16bb-\JJ	.	.	.	.	.	.	.	.	.	.	.	.	.	.	.	.	.	.	.	.
.	8b-/L	.	.	.	8b-'\	.	[4g^/	.	16ccc\LL	.	.	.	.	4d\	.	.	16cc\LL	.	.	.	.	.	.	.	.	.	.	.	.
!	!	!	!LO:TX:a:t=3	!	!	!	!	!	!	!	!LO:TX:a:t=2	!	!	!	!	!	!	!	!	!	!	!	!	!LO:TX:a:t=6	!	!LO:TX:a:t=5	!	!LO:TX:a:t=6	!
.	.	.	.	.	.	.	.	.	16bb-\	.	.	.	.	.	.	.	16b-\	.	.	.	.	.	.	.	.	.	.	.	.
.	8g/J	.	.	.	8g'\J	.	.	.	16aa\	.	.	.	.	.	.	.	16a\	.	.	.	.	.	.	.	.	.	.	.	.
.	.	.	.	.	.	.	.	.	16bb-\JJ)	.	.	.	.	.	.	.	16b-\JJ	.	.	.	.	.	.	.	.	.	.	.	.
.	4e/	.	.	.	(4e^<\	.	16g/LL]	.	4ccc\	.	.	.	.	4e\	.	.	4cc\	.	.	.	.	.	.	.	.	.	.	.	.
.	.	.	.	.	.	.	16cc/	.	.	.	.	.	.	.	.	.	.	.	.	.	.	.	.	.	.	.	.	.	.
.	.	.	.	.	.	.	16bn/	.	.	.	.	.	.	.	.	.	.	.	.	.	.	.	.	.	.	.	.	.	.
.	.	.	.	.	.	.	16cc/JJ	.	.	.	.	.	.	.	.	.	.	.	.	.	.	.	.	.	.	.	.	.	.
=88	=88	=88	=88	=88	=88	=88	=88	=88	=88	=88	=88	=88	=88	=88	=88	=88	=88	=88	=88	=88	=88	=88	=88	=88	=88	=88	=88	=88	=88
2.ryy	4f/	.	.	.	8f\)	.	8a/	.	16r	.	.	.	.	4fn\	.	.	8r	.	.	2.C/_	.	2.c/_	.	.	.	.	.	.	.
.	.	.	.	.	.	.	.	.	(16aa\LL	.	.	.	.	.	.	.	.	.	.	.	.	.	.	.	.	.	.	.	.
.	.	.	.	.	8c'\L	.	8r	.	16gg\	.	.	.	.	.	.	.	8a\	.	.	.	.	.	.	.	.	.	.	.	.
.	.	.	.	.	.	.	.	.	16aa\JJ	.	.	.	.	.	.	.	.	.	.	.	.	.	.	.	.	.	.	.	.
.	8a/L	.	.	.	8a'\	.	[4f^/	.	16bb-\LL	.	.	.	.	4c\	-le	.	16b-\LL	.	.	.	.	.	.	.	.	.	.	.	.
.	.	.	.	.	.	.	.	.	16aa\	.	.	.	.	.	.	.	16a\	.	.	.	.	.	.	.	.	.	.	.	.
.	8f/J	.	.	.	8f'\J	.	.	.	16gg\	.	.	.	.	.	.	.	16g\	.	.	.	.	.	.	.	.	.	.	.	.
.	.	.	.	.	.	.	.	.	16aa\JJ)	.	.	.	.	.	.	.	16a\JJ	.	.	.	.	.	.	.	.	.	.	.	.
.	(4d/	.	.	.	(4d^<\	.	16f/LL]	.	4bb-\	.	.	.	.	4d\	o	.	[4b-\	.	.	.	.	.	.	.	.	.	.	.	.
.	.	.	.	.	.	.	16b-X/	.	.	.	.	.	.	.	.	.	.	.	.	.	.	.	.	.	.	.	.	.	.
.	.	.	.	.	.	.	16a/	.	.	.	.	.	.	.	.	.	.	.	.	.	.	.	.	.	.	.	.	.	.
.	.	.	.	.	.	.	16b-/JJ	.	.	.	.	.	.	.	.	.	.	.	.	.	.	.	.	.	.	.	.	.	.
=89	=89	=89	=89	=89	=89	=89	=89	=89	=89	=89	=89	=89	=89	=89	=89	=89	=89	=89	=89	=89	=89	=89	=89	=89	=89	=89	=89	=89	=89
!	!	!	!	!	!	!	!	!	!	!	!	!	!	!	!	!	!	!	!	!	!	!LO:PB:g=original	!	!	!	!	!	!	!
2.ryy	8e/L)	.	2.r	.	8e\)	.	8g/	.	16r	.	4r	.	.	4e\	val-	.	8b-\L]	.	.	2.C/_	.	2.c/_	.	.	.	.	.	.	.
.	.	.	.	.	.	.	.	.	(16gg\LL	.	.	.	.	.	.	.	.	.	.	.	.	.	.	.	.	.	.	.	.
.	8B-/	.	.	.	8B-'\L	.	8r	.	16ff#X\	.	.	.	.	.	.	.	8g\J	.	.	.	.	.	.	.	.	.	.	.	.
.	.	.	.	.	.	.	.	.	16gg\JJ	.	.	.	.	.	.	.	.	.	.	.	.	.	.	.	.	.	.	.	.
!	!	!	!	!	!	!	!	!	!	!	!LO:TX:a:i:t=Solo	!	!	!	!	!	!	!	!	!	!	!	!	!	!	!	!	!	!
.	8g/	.	.	.	8g'\	.	(4b-/	.	16aa\LL	.	4C/	va-	.	4B-X\	-de	.	16a\LL	.	.	.	.	.	.	.	.	.	.	.	.
.	.	.	.	.	.	.	.	.	16gg\	.	.	.	.	.	.	.	16g\	.	.	.	.	.	.	.	.	.	.	.	.
.	8e/J	.	.	.	8e'\J	.	.	.	16ff#\	.	.	.	.	.	.	.	16f\	.	.	.	.	.	.	.	.	.	.	.	.
.	.	.	.	.	.	.	.	.	16gg\JJ)	.	.	.	.	.	.	.	16g\JJ	.	.	.	.	.	.	.	.	.	.	.	.
*	*^	*	*	*	*	*	*	*	*	*	*	*	*	*	*	*	*	*	*	*	*	*	*	*	*	*	*	*	*
!	!	!	!	!	!	!LO:SIC:v=mixed beam	!	!	!	!	!	!	!	!	!	!	!	!	!	!	!	!	!	!	!	!	!	!	!	!
.	8f/L	(4f\	.	.	.	8f\L	.	4a/)	.	16a'\LL	.	4C/	-le	.	8c\L	de-	.	8a\L	.	.	.	.	.	.	.	.	.	.	.	.
.	.	.	.	.	.	.	.	.	.	16ffn'\	.	.	.	.	.	.	.	.	.	.	.	.	.	.	.	.	.	.	.	.
.	8a/J	.	.	.	.	8F/J	.	.	.	16a'\	.	.	.	.	8A\J	.	.	8f\J	.	.	.	.	.	.	.	.	.	.	.	.
.	.	.	.	.	.	.	.	.	.	16ff'\JJ	.	.	.	.	.	.	.	.	.	.	.	.	.	.	.	.	.	.	.	.
=90	=90	=90	=90	=90	=90	=90	=90	=90	=90	=90	=90	=90	=90	=90	=90	=90	=90	=90	=90	=90	=90	=90	=90	=90	=90	=90	=90	=90	=90	=90
!	!	!	!	!	!	!LO:PB:g=original	!	!	!	!	!	!LO:PB:g=original	!	!	!	!	!	!	!	!	!	!	!	!	!	!	!	!	!	!
[2.C\	4cc/	4e\)	.	[2.C\	p	8c\	.	4r	.	16r	.	2.C/	va-	.	2G/	-co-	.	4e/	-le	.	2.C/_	.	2.c/_	.	.	.	.	.	.	.
.	.	.	.	.	.	.	.	.	.	(16ee\LL	.	.	.	.	.	.	.	.	.	.	.	.	.	.	.	.	.	.	.	.
.	.	.	.	.	.	4cc^<\	.	.	.	16dd#X\	.	.	.	.	.	.	.	.	.	.	.	.	.	.	.	.	.	.	.	.
.	.	.	.	.	.	.	.	.	.	16ee\JJ	.	.	.	.	.	.	.	.	.	.	.	.	.	.	.	.	.	.	.	.
*	*v	*v	*	*	*	*	*	*	*	*	*	*	*	*	*	*	*	*	*	*	*	*	*	*	*	*	*	*	*	*
.	4r	.	.	.	.	.	(4g/	.	16ff\LL	.	.	.	.	.	.	.	2r	.	.	.	.	.	.	.	.	.	.	.	.
.	.	.	.	.	.	.	.	.	16ee\	.	.	.	.	.	.	.	.	.	.	.	.	.	.	.	.	.	.	.	.
.	.	.	.	.	8b-\L	.	.	.	16dd#\	.	.	.	.	.	.	.	.	.	.	.	.	.	.	.	.	.	.	.	.
.	.	.	.	.	.	.	.	.	16ee\JJ)	.	.	.	.	.	.	.	.	.	.	.	.	.	.	.	.	.	.	.	.
.	4r	.	.	.	8a\	.	4f/)	.	16f'\LL	.	.	.	.	4G/	-ra	.	.	.	.	.	.	.	.	.	.	.	.	.	.
.	.	.	.	.	.	.	.	.	16ddn'\	.	.	.	.	.	.	.	.	.	.	.	.	.	.	.	.	.	.	.	.
.	.	.	.	.	8a\J	.	.	.	16f'\	.	.	.	.	.	.	.	.	.	.	.	.	.	.	.	.	.	.	.	.
.	.	.	.	.	.	.	.	.	16dd'\JJ	.	.	.	.	.	.	.	.	.	.	.	.	.	.	.	.	.	.	.	.
=91	=91	=91	=91	=91	=91	=91	=91	=91	=91	=91	=91	=91	=91	=91	=91	=91	=91	=91	=91	=91	=91	=91	=91	=91	=91	=91	=91	=91	=91
!	!	!	!LO:PB:g=original	!	!	!	!	!	!LO:PB:g=original	!	!	!	!	!	!	!	!LO:SIC:v=pauzy 0r 1r adnotacja "3"	!	!	!	!	!	!	!	!	!	!	!	!
!	!	!	!	!	!	!	!	!	!	!	!	!	!	!	!	!	!LO:N:vis=0	!	!	!	!	!	!	!LO:N:vis=0	!	!	!	!LO:N:vis=0	!
2C\]	4r	.	2C\]	.	8g\	.	4r	.	16e'/	.	2C/	-le	.	4r	.	.	1.r	.	.	4C/]	.	4c/]	.	1.r	.	2.r	.	1.r	.
.	.	.	.	.	.	.	.	.	(16cc\LL	.	.	.	.	.	.	.	.	.	.	.	.	.	.	.	.	.	.	.	.
.	.	.	.	.	4g\	.	.	.	16bn\	.	.	.	.	.	.	.	.	.	.	.	.	.	.	.	.	.	.	.	.
.	.	.	.	.	.	.	.	.	16cc\JJ	.	.	.	.	.	.	.	.	.	.	.	.	.	.	.	.	.	.	.	.
.	4r	.	.	.	.	.	[4e/	.	16dd\LL	.	.	.	.	(4c\	o	.	.	.	.	4r	.	4r	.	.	.	.	.	.	.
.	.	.	.	.	.	.	.	.	16cc\	.	.	.	.	.	.	.	.	.	.	.	.	.	.	.	.	.	.	.	.
.	.	.	.	.	4g\	.	.	.	16b\	.	.	.	.	.	.	.	.	.	.	.	.	.	.	.	.	.	.	.	.
.	.	.	.	.	.	.	.	.	16cc\JJ)	.	.	.	.	.	.	.	.	.	.	.	.	.	.	.	.	.	.	.	.
(4C#X\	(4g/ 4b-X/	.	4C#X\	.	.	.	16e/LL]	.	16g'/LL	.	4C#X/	o	.	4B-\)	.	.	.	.	.	4r	.	4r	.	.	.	.	.	.	.
.	.	.	.	.	.	.	16g/	.	16b-X'/	.	.	.	.	.	.	.	.	.	.	.	.	.	.	.	.	.	.	.	.
.	.	.	.	.	8e\	.	16f/	.	16g'/	.	.	.	.	.	.	.	.	.	.	.	.	.	.	.	.	.	.	.	.
.	.	.	.	.	.	.	16g/JJ	.	16b-'/JJ	.	.	.	.	.	.	.	.	.	.	.	.	.	.	.	.	.	.	.	.
=92	=92	=92	=92	=92	=92	=92	=92	=92	=92	=92	=92	=92	=92	=92	=92	=92	=92	=92	=92	=92	=92	=92	=92	=92	=92	=92	=92	=92	=92
!	!	!	!	!	!	!	!	!	!	!	!	!	!	!LO:PB:g=original	!	!	!	!	!	!	!	!	!	!	!	!	!	!	!
!	!	!	!	!	!	!	!	!	!	!	!	!	!	!	!	!	!	!	!	!LO:TX:a:t="1"	!	!LO:TX:a:t="1"	!	!	!	!	!	!	!
2D\	4f/) 4a/	.	2D\	.	8f\	.	4r	.	16f'/	.	4D\	val-	.	2.A\	val-	.	.	.	.	2.r	.	2.r	.	.	.	4r	.	.	.
.	.	.	.	.	.	.	.	.	(16ff\LL	.	.	.	.	.	.	.	.	.	.	.	.	.	.	.	.	.	.	.	.
.	.	.	.	.	4a\	<	.	.	16ee\	<	.	.	.	.	.	.	.	.	.	.	.	.	.	.	.	.	.	.	.
.	.	.	.	.	.	.	.	.	16ff\JJ	.	.	.	.	.	.	.	.	.	.	.	.	.	.	.	.	.	.	.	.
.	4r	.	.	.	.	.	[4f/	.	16gg\LL	.	4D\	-de	.	.	.	.	.	.	.	.	.	.	.	.	.	[2ff\	.	.	.
.	.	.	.	.	.	.	.	.	16ff\	.	.	.	.	.	.	.	.	.	.	.	.	.	.	.	.	.	.	.	.
.	.	.	.	.	4a\	.	.	.	16ee\)	.	.	.	.	.	.	.	.	.	.	.	.	.	.	.	.	.	.	.	.
.	.	.	.	.	.	.	.	.	16ff\JJ	.	.	.	.	.	.	.	.	.	.	.	.	.	.	.	.	.	.	.	.
4E-X\	4f/ 4a/	.	8E-X\L	<	.	.	16f/LL]	.	16a\LL	.	4E-X\	de-	.	.	.	.	.	.	.	.	.	.	.	.	.	.	.	.	.
.	.	.	.	.	.	.	16b-/	.	16ff\	.	.	.	.	.	.	.	.	.	.	.	.	.	.	.	.	.	.	.	.
.	.	.	8E-\J	.	8a\	.	16f/	<	16a\	.	.	.	.	.	.	.	.	.	.	.	.	.	.	.	.	.	.	.	.
.	.	.	.	.	.	.	16b-/JJ	.	16ff\JJ	.	.	.	.	.	.	.	.	.	.	.	.	.	.	.	.	.	.	.	.
=93	=93	=93	=93	=93	=93	=93	=93	=93	=93	=93	=93	=93	=93	=93	=93	=93	=93	=93	=93	=93	=93	=93	=93	=93	=93	=93	=93	=93	=93
*	*^	*	*	*	*	*	*	*	*	*	*	*	*	*	*	*	*	*	*	*	*	*	*	*	*	*	*	*	*
2D\	2b-/	2.f\	.	4.D\	.	8b-\	.	8f/	.	16b-'\	.	(2D\	-co-	.	2B-\	-de	.	2.r	.	.	4r	.	4r	.	4r	.	2.ff\]	<[	4r	.
.	.	.	.	.	.	.	.	.	.	16ff\LL	.	.	.	.	.	.	.	.	.	.	.	.	.	.	.	.	.	.	.	.
.	.	.	.	.	.	4f\	[	4b-\	.	(16ee\	<	.	.	.	.	.	.	.	.	.	.	.	.	.	.	.	.	.	.	.
.	.	.	.	.	.	.	.	.	.	16ff\JJ	.	.	.	.	.	.	.	.	.	.	.	.	.	.	.	.	.	.	.	.
.	.	.	.	.	.	.	.	.	.	16gg\LL	.	.	.	.	.	.	.	.	.	.	4F/	.	[4f\	<	(4b-\	<	.	.	(4bb-\	<
.	.	.	.	.	.	.	.	.	.	16ff\	.	.	.	.	.	.	.	.	.	.	.	.	.	.	.	.	.	.	.	.
.	.	.	.	8D\L	[	4f\	.	8b-\	.	16ee\	.	.	.	.	.	.	.	.	.	.	.	.	.	.	.	.	.	.	.	.
.	.	.	.	.	.	.	.	.	.	16ff\JJ)	[	.	.	.	.	.	.	.	.	.	.	.	.	.	.	.	.	.	.	.
!	!	!	!	!	!	!	!	!	!	!	!	!	!	!	!	!	!	!	!	!	!	!	!LO:SIC:v= kropka artykulacyjna dopisana piórem	!	!	!	!	!	!	!
4D-X\)	4bn/	.	.	8D-X\	.	.	.	16f/LL	[	16bn\LL	.	4D-X\)	.	.	4Bn\	de-	.	.	.	.	8F/L	<	8f\L]	.	4bn\)	[[	.	.	4bbn\)	[[
.	.	.	.	.	.	.	.	16bn/	.	16aa-X\	.	.	.	.	.	.	.	.	.	.	.	.	.	.	.	.	.	.	.	.
!	!	!	!	!	!	!	!	!	!	!	!	!	!	!	!	!	!	!	!	!	!	!	!LO:SIC:v= kropka artykulacyjna dopisana piórem	!	!	!	!	!	!	!
.	.	.	.	8D-\J	.	8f\	.	16f/	.	16b\	.	.	.	.	.	.	.	.	.	.	8F/J	[[	8f\J	[[	.	.	.	.	.	.
.	.	.	.	.	.	.	.	16b/JJ	.	16aa-\JJ	.	.	.	.	.	.	.	.	.	.	.	.	.	.	.	.	.	.	.	.
*	*v	*v	*	*	*	*	*	*	*	*	*	*	*	*	*	*	*	*	*	*	*	*	*	*	*	*	*	*	*	*
=94	=94	=94	=94	=94	=94	=94	=94	=94	=94	=94	=94	=94	=94	=94	=94	=94	=94	=94	=94	=94	=94	=94	=94	=94	=94	=94	=94	=94	=94
!	!	!	!	!	!	!	!	!	!	!	!	!	!	!	!	!	!LO:PB:g=original	!	!	!	!	!	!	!	!	!LO:PB:g=original	!	!	!
8C'\	8f`/ 8a/ 8cc/	.	8C'/	rfz	16f'\LL	.	8f'\ 8a\ 8ff\	rfz	16cc^\ 16aan\	rfz	4C/	-ra	.	4c\	-co-	.	[2.cc\	va-	.	8A/	rfz	8f'\	rfz	8cc'\	rfz	8aa'\	rfz	8ccc'\	rfz
.	.	.	.	.	16c'\	.	.	.	16cc'\LL	.	.	.	.	.	.	.	.	.	.	.	.	.	.	.	.	.	.	.	.
8r	8r	.	8r	.	16f'\	.	8r	.	16ff'\	.	.	.	.	.	.	.	.	.	.	8r	.	8r	.	8r	.	8r	.	8r	.
.	.	.	.	.	16a'\JJ	.	.	.	16aa'\JJ	.	.	.	.	.	.	.	.	.	.	.	.	.	.	.	.	.	.	.	.
!	!	!	!	!	!	!	!	!	!LO:PB:g=original	!	!	!	!	!	!	!	!	!	!	!	!	!	!	!	!	!	!	!	!
4r	4r	.	4r	.	16cc'\LL	>	4r	.	16ccc'\LL	.	4r	.	.	4c\	-ra	.	.	.	.	4r	.	4r	.	4r	.	4r	.	4r	.
.	.	.	.	.	16b-'\	.	.	.	16bb-'\	.	.	.	.	.	.	.	.	.	.	.	.	.	.	.	.	.	.	.	.
.	.	.	.	.	16a'\	.	.	.	16aa'\	>	.	.	.	.	.	.	.	.	.	.	.	.	.	.	.	.	.	.	.
.	.	.	.	.	16g'\JJ	.	.	.	16gg'\JJ	.	.	.	.	.	.	.	.	.	.	.	.	.	.	.	.	.	.	.	.
4r	4r	.	4r	.	16a'\LL	.	4r	.	16aa'\LL	.	4r	.	.	4r	.	.	.	.	.	4r	.	4r	.	4r	.	4r	.	4r	.
.	.	.	.	.	16g'\	.	.	.	16gg'\	.	.	.	.	.	.	.	.	.	.	.	.	.	.	.	.	.	.	.	.
.	.	.	.	.	16f'\	.	.	.	16ff'\	.	.	.	.	.	.	.	.	.	.	.	.	.	.	.	.	.	.	.	.
.	.	.	.	.	16e'\JJ	.	.	.	16ee'\JJ	]]	.	.	.	.	.	.	.	.	.	.	.	.	.	.	.	.	.	.	.
=95	=95	=95	=95	=95	=95	=95	=95	=95	=95	=95	=95	=95	=95	=95	=95	=95	=95	=95	=95	=95	=95	=95	=95	=95	=95	=95	=95	=95	=95
!	!	!	!LO:TX:a:t="1."	!	!	!	!LO:TX:a:t="1."	!	!	!	!LO:SIC:v=pauzy 0r adnotacja "2"	!	!	!LO:SIC:v=pauzy 0r 1r adnotacja "3"	!	!	!	!	!	!LO:SIC:v=pauzy 0r adnotacja "2"	!	!LO:SIC:v=pauzy 0r adnotacja "2"	!	!LO:SIC:v=pauzy 0r 1r adnotacja "3"	!	!LO:SIC:v=pauzy 0r 1r adnotacja "3"	!	!LO:SIC:v=pauzy 00r 1r adnotacja "5"	!
!	!	!	!	!	!	!	!	!	!	!	!LO:N:vis=0	!	!	!LO:N:vis=0	!	!	!	!	!	!LO:N:vis=0	!	!LO:N:vis=0	!	!LO:N:vis=0	!	!LO:N:vis=0	!	!LO:N:vis=5	!
2.r	2.r	.	2.r	.	(16f\LL	.	2.r	.	(16ff\LL	.	1.r	.	.	1.r	.	.	2.cc\_	.	.	1.r	.	1.r	.	1.r	.	1.r	.	0.r	.
.	.	.	.	.	16e\)	.	.	.	16ee\)	.	.	.	.	.	.	.	.	.	.	.	.	.	.	.	.	.	.	.	.
.	.	.	.	.	16d'\	.	.	.	16dd'\	.	.	.	.	.	.	.	.	.	.	.	.	.	.	.	.	.	.	.	.
.	.	.	.	.	16c'\JJ	]	.	.	16cc'\JJ	.	.	.	.	.	.	.	.	.	.	.	.	.	.	.	.	.	.	.	.
.	.	.	.	.	16B-'/LL	.	.	.	16b-'/LL	.	.	.	.	.	.	.	.	.	.	.	.	.	.	.	.	.	.	.	.
.	.	.	.	.	16A'/	.	.	.	16a'/	.	.	.	.	.	.	.	.	.	.	.	.	.	.	.	.	.	.	.	.
!	!LO:TX:a:t=1	!	!	!	!	!	!	!	!	!	!	!	!	!LO:TX:a:t=3	!	!	!	!	!	!LO:TX:a:t=2	!	!LO:TX:a:t=2	!	!LO:TX:a:t=3	!	!LO:TX:a:t=3	!	!LO:TX:a:t=5	!
.	.	.	.	.	16G'/	.	.	.	16g'/	.	.	.	.	.	.	.	.	.	.	.	.	.	.	.	.	.	.	.	.
.	.	.	.	.	16F'/JJ	.	.	.	16f'/JJ	.	.	.	.	.	.	.	.	.	.	.	.	.	.	.	.	.	.	.	.
.	.	.	.	.	(16E/LL	.	.	.	(16e/LL	.	.	.	.	.	.	.	.	.	.	.	.	.	.	.	.	.	.	.	.
.	.	.	.	.	16F/	.	.	.	16f/	.	.	.	.	.	.	.	.	.	.	.	.	.	.	.	.	.	.	.	.
.	.	.	.	.	16A/)	.	.	.	16a/)	.	.	.	.	.	.	.	.	.	.	.	.	.	.	.	.	.	.	.	.
.	.	.	.	.	16F'/JJ	.	.	.	16f'/JJ	.	.	.	.	.	.	.	.	.	.	.	.	.	.	.	.	.	.	.	.
=96	=96	=96	=96	=96	=96	=96	=96	=96	=96	=96	=96	=96	=96	=96	=96	=96	=96	=96	=96	=96	=96	=96	=96	=96	=96	=96	=96	=96	=96
!LO:LB:g=original	!	!	!	!	!LO:PB:g=original	!	!LO:LB:g=original	!	!	!	!	!	!	!	!	!	!	!	!	!	!	!	!	!	!	!	!	!	!
!	!LO:SIC:v= pauza ćwierćnutowa, potem półnuta z kropką	!	!	!	!	!	!	!	!	!	!	!	!	!	!	!	!	!	!	!	!	!	!	!	!	!	!	!	!
4r	4r	.	4r	.	4C/	.	4r	.	4c/	.	.	.	.	.	.	.	2cc\]	.	.	.	.	.	.	.	.	.	.	.	.
!LO:N:vis=2.	!	!	!	!	!	!	!LO:SIC:v=p zapisane po	!	!	!	!	!	!	!	!	!	!	!	!	!	!	!	!	!	!	!	!	!	!
2C/	4r	.	2C\	p	(4c\	>	4r	p	4r	.	.	.	.	.	.	.	.	.	.	.	.	.	.	.	.	.	.	.	.
!	!	!	!	!	!	!	!	!	!LO:SIC:v=p zapisane jako po.	!	!	!	!	!	!	!	!	!	!	!	!	!	!	!	!	!	!	!	!
.	(4B-/ 4e/	.	.	.	4B-\)	]]	(4G/	.	4e/	p	.	.	.	.	.	.	4e/	.	.	.	.	.	.	.	.	.	.	.	.
=97	=97	=97	=97	=97	=97	=97	=97	=97	=97	=97	=97	=97	=97	=97	=97	=97	=97	=97	=97	=97	=97	=97	=97	=97	=97	=97	=97	=97	=97
!	!	!	!	!	!	!	!	!	!	!	!	!	!	!	!	!	!	!	!	!LO:PB:g=original	!	!	!	!	!	!	!	!	!
!	!	!	!	!	!	!	!	!	!	!	!LO:PB:g=original	!	!	!	!	!	!	!	!	!LO:SIC:v= powinno być c1 albo g...	!	!	!	!	!	!	!	!	!
!	!	!	!	!	!	!	!	!	!	!	!	!	!	!	!	!	!	!	!	!LO:SIC:v=p jako po	!	!LO:SIC:v=p jako po	!	!	!	!	!	!	!
[2.FF/	4A/) 4f/	.	[2.F\	.	4A/	.	8A/)	.	2f/	.	4r	.	.	2.r	.	.	4f/	-le	.	[2.D/	p	[2.F/	p	2.r	.	2.r	.	.	.
.	.	.	.	.	.	.	8c/L	.	.	.	.	.	.	.	.	.	.	.	.	.	.	.	.	.	.	.	.	.	.
!	!	!	!	!	!	!	!	!	!	!	!LO:TX:a:t=Solo	!	!	!	!	!	!	!	!	!	!	!	!	!	!	!	!	!	!
.	4r	.	.	.	4r	.	(8a/	.	.	.	4F\	et	.	.	.	.	4r	.	.	.	.	.	.	.	.	.	.	.	.
.	.	.	.	.	.	.	8g/	.	.	.	.	.	.	.	.	.	.	.	.	.	.	.	.	.	.	.	.	.	.
.	4r	.	.	.	4r	.	8f/	.	4a/	.	4F\	pro	.	.	.	.	4r	.	.	.	.	.	.	.	.	.	.	.	.
.	.	.	.	.	.	.	8e/J)	.	.	.	.	.	.	.	.	.	.	.	.	.	.	.	.	.	.	.	.	.	.
=98	=98	=98	=98	=98	=98	=98	=98	=98	=98	=98	=98	=98	=98	=98	=98	=98	=98	=98	=98	=98	=98	=98	=98	=98	=98	=98	=98	=98	=98
!	!	!	!	!	!	!	!	!	!	!	!	!	!	!	!	!	!	!	!	!	!	!	!	!LO:PB:g=original	!	!	!	!	!
2.FF/_	8r	.	2.F\]	.	8r	.	4d/	.	2b-\	.	2F\	no-	.	2d\	Et	p	4r	.	.	2.D/]	.	2.F/_	.	4r	.	4r	.	.	.
.	8A/L	.	.	.	8A/L	p	.	.	.	.	.	.	.	.	.	.	.	.	.	.	.	.	.	.	.	.	.	.	.
!	!	!	!	!	!	!	!	!	!	!	!	!	!	!	!	!	!LO:SIC:v=dynamika p zapisana jako po	!	!	!	!	!	!	!	!	!	!	!	!
.	(8B-/	.	.	.	(8B-/	.	4g/	.	.	.	.	.	.	.	.	.	4b-\	et	p	.	.	.	.	4g/	p	4b-\	pp	.	.
.	8G/	.	.	.	8G/	.	.	.	.	.	.	.	.	.	.	.	.	.	.	.	.	.	.	.	.	.	.	.	.
.	8c/	.	.	.	8c/	.	[4c/	.	4e/	.	4F\	-bis	.	4e\	pro-	.	4b-\	pro	.	.	.	.	.	4g/	.	4b-\	.	.	.
.	8B-/J)	.	.	.	8B-/J)	.	.	.	.	.	.	.	.	.	.	.	.	.	.	.	.	.	.	.	.	.	.	.	.
=99	=99	=99	=99	=99	=99	=99	=99	=99	=99	=99	=99	=99	=99	=99	=99	=99	=99	=99	=99	=99	=99	=99	=99	=99	=99	=99	=99	=99	=99
!	!	!	!LO:PB:g=original	!	!	!	!	!	!	!	!	!	!	!	!	!	!	!	!	!	!	!LO:PB:g=original	!	!	!	!	!	!	!
2.FF/_	4A/	.	[2.F\	.	4A/	.	8c/]	.	2f/	.	4F\	Chris-	.	(4f\	-no-	.	2a\	no-	.	[2.D/	.	2.F/_	.	4f/	.	4a\	.	2.r	.
.	.	.	.	.	.	.	8c/L	.	.	.	.	.	.	.	.	.	.	.	.	.	.	.	.	.	.	.	.	.	.
.	4r	.	.	.	4r	.	(8a/	.	.	.	4F\	-tum	.	4c\)	.	.	.	.	.	.	.	.	.	4r	.	4r	.	.	.
.	.	.	.	.	.	.	8g/	.	.	.	.	.	.	.	.	.	.	.	.	.	.	.	.	.	.	.	.	.	.
.	4r	.	.	.	4r	.	8f/)	.	4a/	.	4F\	ex	.	4A\	-bis	.	4f/	-bis	.	.	.	.	.	4r	.	4r	.	.	.
.	.	.	.	.	.	.	8e/J	.	.	.	.	.	.	.	.	.	.	.	.	.	.	.	.	.	.	.	.	.	.
=100	=100	=100	=100	=100	=100	=100	=100	=100	=100	=100	=100	=100	=100	=100	=100	=100	=100	=100	=100	=100	=100	=100	=100	=100	=100	=100	=100	=100	=100
2.FF/_	8r	.	2.F\]	.	8r	.	4c/	.	2b-\	.	4F\	o-	.	4B-\	Chris	.	4g/	Chris-	.	2.D/_	.	2.F/_	.	4r	.	4r	.	4r	.
.	(8A/L	.	.	.	8A/L	.	.	.	.	.	.	.	.	.	.	.	.	.	.	.	.	.	.	.	.	.	.	.	.
.	8B-/	.	.	.	(8B-/	.	4g/	.	.	.	4F\	-ra	.	4B-\	tum	.	4d/	-tum	.	.	.	.	.	4g/	.	4b-\	.	4dd\	p
.	8G/	.	.	.	8G/	.	.	.	.	.	.	.	.	.	.	.	.	.	.	.	.	.	.	.	.	.	.	.	.
.	8c/	.	.	.	8c/	.	4G/	.	4e/	.	4F\	ex	.	8c\L	ex	.	4e/	ex	.	.	.	.	.	4g/	pp	4b-\	.	4ee\	.
.	8B-/J)	.	.	.	8B-/J)	.	.	.	.	.	.	.	.	8B-\J	.	.	.	.	.	.	.	.	.	.	.	.	.	.	.
=101	=101	=101	=101	=101	=101	=101	=101	=101	=101	=101	=101	=101	=101	=101	=101	=101	=101	=101	=101	=101	=101	=101	=101	=101	=101	=101	=101	=101	=101
!	!	!	!	!	!	!	!	!	!	!	!	!	!	!LO:PB:g=original	!	!	!LO:PB:g=original	!	!	!	!	!	!	!	!	!	!	!	!
8FF/]	4A/	.	[2.F\	pp	8A'/	.	[2.A/	.	[2.f/	pp	[2.F\	o-	p	[2.A\	o-	.	[2.f/	o-	.	4D/]	.	4F/]	.	[2.f/	.	[2.a\	.	2.ff\	.
(8C\L	.	.	.	.	(8C/L	.	.	.	.	.	.	.	.	.	.	.	.	.	.	.	.	.	.	.	.	.	.	.	.
8A\	4r	.	.	.	8A/	.	.	.	.	.	.	.	.	.	.	.	.	.	.	4r	.	4r	.	.	.	.	.	.	.
8G\	.	.	.	.	8G'/)	.	.	.	.	.	.	.	.	.	.	.	.	.	.	.	.	.	.	.	.	.	.	.	.
8F\	4r	.	.	.	8F'/	.	.	.	.	.	.	.	.	.	.	.	.	.	.	4r	.	4r	.	.	.	.	.	.	.
8E\J)	.	.	.	.	8E'/J	.	.	.	.	.	.	.	.	.	.	.	.	.	.	.	.	.	.	.	.	.	.	.	.
=102	=102	=102	=102	=102	=102	=102	=102	=102	=102	=102	=102	=102	=102	=102	=102	=102	=102	=102	=102	=102	=102	=102	=102	=102	=102	=102	=102	=102	=102
!	!	!	!	!	!LO:PB:g=original	!	!	!	!	!	!LO:PB:g=original	!	!	!	!	!	!	!	!	!LO:TX:a:t="1"	!	!LO:TX:a:t="1"	!	!	!	!	!	!LO:PB:g=original	!
8F'\L	4r	.	8F\L]	.	4F/	pp	4A/]	.	4f/]	.	2.F\]	.	.	2.A\]	.	.	2.f/]	.	.	2.r	.	2.r	.	4f/]	.	4a\]	>	4ff'\	.
8D'\	.	.	8D'\	.	.	.	.	.	.	.	.	.	.	.	.	.	.	.	.	.	.	.	.	.	.	.	.	.	.
8C'\	4A/ 4f/	.	8C'\	.	4F/	.	4A/	pp	4f/	>	.	.	.	.	.	.	.	.	.	.	.	.	.	4f/	.	4a\	.	4aa'\	.
8BB-'\J	.	.	8BB-'\J	.	.	.	.	.	.	.	.	.	.	.	.	.	.	.	.	.	.	.	.	.	.	.	.	.	.
8AA'/L	4A/ 4f/	.	8AA'/L	.	4F/	.	4A/	.	4f/	]]	.	.	.	.	.	.	.	.	.	.	.	.	.	4f/	.	4a\	]]	4ccc'\	.
8GG'/J	.	.	8GG'/J	.	.	.	.	.	.	.	.	.	.	.	.	.	.	.	.	.	.	.	.	.	.	.	.	.	.
=103	=103	=103	=103	=103	=103	=103	=103	=103	=103	=103	=103	=103	=103	=103	=103	=103	=103	=103	=103	=103	=103	=103	=103	=103	=103	=103	=103	=103	=103
!	!	!	!	!	!	!	!	!	!	!	!	!	!	!	!	!	!	!	!	!	!	!	!	!	!	!LO:PB:g=original	!	!	!
2FF/;	2A;/ 2f/	.	2FF;/	.	2F;/	.	2A;/	.	2f;/	.	2F\	-ra.	.	2A\	-ra	.	2f/	-ra.	.	2.r;	.	2.r;	.	2f;/	.	2a;\	.	2fff;\	.
4r	4r	.	4ryy	.	4r	.	4r	.	4r	.	4r;	.	.	4r;	.	.	4r;	.	.	.	.	.	.	4r	.	4r	.	4r	.
==	==	==	==	==	==	==	==	==	==	==	==	==	==	==	==	==	==	==	==	==	==	==	==	==	==	==	==	==	==
*-	*-	*-	*-	*-	*-	*-	*-	*-	*-	*-	*-	*-	*-	*-	*-	*-	*-	*-	*-	*-	*-	*-	*-	*-	*-	*-	*-	*-	*-
!!!system-decoration: s1,s2,s3,s4,s5,s6,s7,s8,s9,s10,s11,s12{(s13,s14)}
!!!RDF**kern: > = above
!!!RDF**kern: < = below
!!!RDF**dynam: < = cresc.
!!!RDF**dynam: > = dimin.
!!!AIN: 1 alto 2 bass 2 clars 2 cor 1 flt 1 organ 1 soprn 1 tenor 2 violn
!!!ENC: Andrzej Borzym
!!!END: 2020-03-13
!!!ENC: Leszek Kubiak
!!!END: 2020-04-08
